Najongs/2025_ICRA_Multi_View_Robot_Pose_Estimation/dataset/Fr5/Fr5_1th_250526/matched_index_with_roi.csv
img.path,img.serial,img.view,img.ts,joint.path,joint.ts,abs_dt,joint.0,joint.1,joint.2,joint.3,joint.4,joint.5,roi.path,roi.x1,roi.y1,roi.x2,roi.y2
/home/najo/NAS/DIP/datasets/Fr5_intertek_dataset/Fr5_intertek_1st_250526/right/zed_34850673_left_1748248620.325.jpg,34850673,left,1748248620.325,/home/najo/NAS/DIP/datasets/Fr5_intertek_dataset/Fr5_intertek_1st_250526/joint/joint_38007749_1748248620.339.json,1748248620.339,0.0139999389648437,-60.6619353341584,-95.85930248298268,117.4375386757425,-111.5669235380569,-90.00021755105197,29.33588915532178,/home/najo/NAS/DIP/datasets/Fr5_intertek_dataset/preprocessed_roi/Fr5_intertek_1st_250526_zed_34850673_left_1748248620.325.jpg,1068,198,1616,1029
/home/najo/NAS/DIP/datasets/Fr5_intertek_dataset/Fr5_intertek_1st_250526/left/zed_38007749_right_1748248620.339.jpg,38007749,right,1748248620.339,/home/najo/NAS/DIP/datasets/Fr5_intertek_dataset/Fr5_intertek_1st_250526/joint/joint_38007749_1748248620.339.json,1748248620.339,0.0,-60.6619353341584,-95.85930248298268,117.4375386757425,-111.5669235380569,-90.00021755105197,29.33588915532178,/home/najo/NAS/DIP/datasets/Fr5_intertek_dataset/preprocessed_roi/Fr5_intertek_1st_250526_zed_38007749_right_1748248620.339.jpg,247,263,633,1004
/home/najo/NAS/DIP/datasets/Fr5_intertek_dataset/Fr5_intertek_1st_250526/right/zed_34850673_right_1748248620.325.jpg,34850673,right,1748248620.325,/home/najo/NAS/DIP/datasets/Fr5_intertek_dataset/Fr5_intertek_1st_250526/joint/joint_38007749_1748248620.339.json,1748248620.339,0.0139999389648437,-60.6619353341584,-95.85930248298268,117.4375386757425,-111.5669235380569,-90.00021755105197,29.33588915532178,/home/najo/NAS/DIP/datasets/Fr5_intertek_dataset/preprocessed_roi/Fr5_intertek_1st_250526_zed_34850673_right_1748248620.325.jpg,967,198,1470,1029
/home/najo/NAS/DIP/datasets/Fr5_intertek_dataset/Fr5_intertek_1st_250526/top/zed_30779426_right_1748248620.350.jpg,30779426,right,1748248620.35,/home/najo/NAS/DIP/datasets/Fr5_intertek_dataset/Fr5_intertek_1st_250526/joint/joint_30779426_1748248620.350.json,1748248620.35,0.0,-60.72306717976485,-95.97917311262376,117.355086827042,-111.3704749381188,-90.0,29.27345200340346,/home/najo/NAS/DIP/datasets/Fr5_intertek_dataset/preprocessed_roi/Fr5_intertek_1st_250526_zed_30779426_right_1748248620.350.jpg,802,383,1323,774
/home/najo/NAS/DIP/datasets/Fr5_intertek_dataset/Fr5_intertek_1st_250526/top/zed_30779426_left_1748248620.350.jpg,30779426,left,1748248620.35,/home/najo/NAS/DIP/datasets/Fr5_intertek_dataset/Fr5_intertek_1st_250526/joint/joint_30779426_1748248620.350.json,1748248620.35,0.0,-60.72306717976485,-95.97917311262376,117.355086827042,-111.3704749381188,-90.0,29.27345200340346,/home/najo/NAS/DIP/datasets/Fr5_intertek_dataset/preprocessed_roi/Fr5_intertek_1st_250526_zed_30779426_left_1748248620.350.jpg,926,386,1432,776
/home/najo/NAS/DIP/datasets/Fr5_intertek_dataset/Fr5_intertek_1st_250526/right/zed_34850673_left_1748248620.483.jpg,34850673,left,1748248620.483,/home/najo/NAS/DIP/datasets/Fr5_intertek_dataset/Fr5_intertek_1st_250526/joint/joint_34850673_1748248620.483.json,1748248620.483,0.0,-61.34569829053217,-97.11304919554456,116.5251295637376,-109.4077293471534,-90.0,28.64603476949257,/home/najo/NAS/DIP/datasets/Fr5_intertek_dataset/preprocessed_roi/Fr5_intertek_1st_250526_zed_34850673_left_1748248620.483.jpg,1076,196,1627,1029
/home/najo/NAS/DIP/datasets/Fr5_intertek_dataset/Fr5_intertek_1st_250526/right/zed_34850673_right_1748248620.483.jpg,34850673,right,1748248620.483,/home/najo/NAS/DIP/datasets/Fr5_intertek_dataset/Fr5_intertek_1st_250526/joint/joint_34850673_1748248620.483.json,1748248620.483,0.0,-61.34569829053217,-97.11304919554456,116.5251295637376,-109.4077293471534,-90.0,28.64603476949257,/home/najo/NAS/DIP/datasets/Fr5_intertek_dataset/preprocessed_roi/Fr5_intertek_1st_250526_zed_34850673_right_1748248620.483.jpg,971,196,1470,1029
/home/najo/NAS/DIP/datasets/Fr5_intertek_dataset/Fr5_intertek_1st_250526/left/zed_38007749_left_1748248620.487.jpg,38007749,left,1748248620.487,/home/najo/NAS/DIP/datasets/Fr5_intertek_dataset/Fr5_intertek_1st_250526/joint/joint_38007749_1748248620.487.json,1748248620.487,0.0,-61.35004931157178,-97.1213161355198,116.518603032178,-109.3931534266708,-90.0,28.64103109529703,/home/najo/NAS/DIP/datasets/Fr5_intertek_dataset/preprocessed_roi/Fr5_intertek_1st_250526_zed_38007749_left_1748248620.487.jpg,382,267,828,1001
/home/najo/NAS/DIP/datasets/Fr5_intertek_dataset/Fr5_intertek_1st_250526/left/zed_38007749_left_1748248620.339.jpg,38007749,left,1748248620.339,/home/najo/NAS/DIP/datasets/Fr5_intertek_dataset/Fr5_intertek_1st_250526/joint/joint_38007749_1748248620.339.json,1748248620.339,0.0,-60.6619353341584,-95.85930248298268,117.4375386757425,-111.5669235380569,-90.00021755105197,29.33588915532178,/home/najo/NAS/DIP/datasets/Fr5_intertek_dataset/preprocessed_roi/Fr5_intertek_1st_250526_zed_38007749_left_1748248620.339.jpg,382,265,840,1001
/home/najo/NAS/DIP/datasets/Fr5_intertek_dataset/Fr5_intertek_1st_250526/left/zed_38007749_right_1748248620.487.jpg,38007749,right,1748248620.487,/home/najo/NAS/DIP/datasets/Fr5_intertek_dataset/Fr5_intertek_1st_250526/joint/joint_38007749_1748248620.487.json,1748248620.487,0.0,-61.35004931157178,-97.1213161355198,116.518603032178,-109.3931534266708,-90.0,28.64103109529703,/home/najo/NAS/DIP/datasets/Fr5_intertek_dataset/preprocessed_roi/Fr5_intertek_1st_250526_zed_38007749_right_1748248620.487.jpg,247,267,622,1004
/home/najo/NAS/DIP/datasets/Fr5_intertek_dataset/Fr5_intertek_1st_250526/top/zed_30779426_right_1748248620.496.jpg,30779426,right,1748248620.496,/home/najo/NAS/DIP/datasets/Fr5_intertek_dataset/Fr5_intertek_1st_250526/joint/joint_30779426_1748248620.496.json,1748248620.496,0.0,-61.4057423808787,-97.22269492574256,116.4407197555693,-109.2204178913985,-89.99934734684406,28.58142210705445,/home/najo/NAS/DIP/datasets/Fr5_intertek_dataset/preprocessed_roi/Fr5_intertek_1st_250526_zed_30779426_right_1748248620.496.jpg,795,390,1327,778
/home/najo/NAS/DIP/datasets/Fr5_intertek_dataset/Fr5_intertek_1st_250526/top/zed_30779426_left_1748248620.496.jpg,30779426,left,1748248620.496,/home/najo/NAS/DIP/datasets/Fr5_intertek_dataset/Fr5_intertek_1st_250526/joint/joint_30779426_1748248620.496.json,1748248620.496,0.0,-61.4057423808787,-97.22269492574256,116.4407197555693,-109.2204178913985,-89.99934734684406,28.58142210705445,/home/najo/NAS/DIP/datasets/Fr5_intertek_dataset/preprocessed_roi/Fr5_intertek_1st_250526_zed_30779426_left_1748248620.496.jpg,918,390,1440,780
/home/najo/NAS/DIP/datasets/Fr5_intertek_dataset/Fr5_intertek_1st_250526/right/zed_34850673_right_1748248620.624.jpg,34850673,right,1748248620.624,/home/najo/NAS/DIP/datasets/Fr5_intertek_dataset/Fr5_intertek_1st_250526/joint/joint_34850673_1748248620.624.json,1748248620.624,0.0,-62.04338451423267,-98.29630936726484,115.5546343208539,-107.2600653620049,-90.0,27.9546575262995,/home/najo/NAS/DIP/datasets/Fr5_intertek_dataset/preprocessed_roi/Fr5_intertek_1st_250526_zed_34850673_right_1748248620.624.jpg,975,194,1477,1029
/home/najo/NAS/DIP/datasets/Fr5_intertek_dataset/Fr5_intertek_1st_250526/left/zed_38007749_left_1748248620.628.jpg,38007749,left,1748248620.628,/home/najo/NAS/DIP/datasets/Fr5_intertek_dataset/Fr5_intertek_1st_250526/joint/joint_34850673_1748248620.624.json,1748248620.624,0.0039999485015869,-62.04338451423267,-98.29630936726484,115.5546343208539,-107.2600653620049,-90.0,27.9546575262995,/home/najo/NAS/DIP/datasets/Fr5_intertek_dataset/preprocessed_roi/Fr5_intertek_1st_250526_zed_38007749_left_1748248620.628.jpg,386,270,817,1001
/home/najo/NAS/DIP/datasets/Fr5_intertek_dataset/Fr5_intertek_1st_250526/left/zed_38007749_right_1748248620.628.jpg,38007749,right,1748248620.628,/home/najo/NAS/DIP/datasets/Fr5_intertek_dataset/Fr5_intertek_1st_250526/joint/joint_34850673_1748248620.624.json,1748248620.624,0.0039999485015869,-62.04338451423267,-98.29630936726484,115.5546343208539,-107.2600653620049,-90.0,27.9546575262995,/home/najo/NAS/DIP/datasets/Fr5_intertek_dataset/preprocessed_roi/Fr5_intertek_1st_250526_zed_38007749_right_1748248620.628.jpg,236,270,611,1004
/home/najo/NAS/DIP/datasets/Fr5_intertek_dataset/Fr5_intertek_1st_250526/right/zed_34850673_left_1748248620.624.jpg,34850673,left,1748248620.624,/home/najo/NAS/DIP/datasets/Fr5_intertek_dataset/Fr5_intertek_1st_250526/joint/joint_34850673_1748248620.624.json,1748248620.624,0.0,-62.04338451423267,-98.29630936726484,115.5546343208539,-107.2600653620049,-90.0,27.9546575262995,/home/najo/NAS/DIP/datasets/Fr5_intertek_dataset/preprocessed_roi/Fr5_intertek_1st_250526_zed_34850673_left_1748248620.624.jpg,1080,194,1638,1029
/home/najo/NAS/DIP/datasets/Fr5_intertek_dataset/Fr5_intertek_1st_250526/left/zed_38007749_right_1748248620.763.jpg,38007749,right,1748248620.763,/home/najo/NAS/DIP/datasets/Fr5_intertek_dataset/Fr5_intertek_1st_250526/joint/joint_38007749_1748248620.763.json,1748248620.763,0.0,-62.74846747370049,-99.37601523824256,114.5156104965965,-105.138942605198,-90.0,27.25523089418316,/home/najo/NAS/DIP/datasets/Fr5_intertek_dataset/preprocessed_roi/Fr5_intertek_1st_250526_zed_38007749_right_1748248620.763.jpg,228,272,603,1001
/home/najo/NAS/DIP/datasets/Fr5_intertek_dataset/Fr5_intertek_1st_250526/top/zed_30779426_left_1748248620.636.jpg,30779426,left,1748248620.636,/home/najo/NAS/DIP/datasets/Fr5_intertek_dataset/Fr5_intertek_1st_250526/joint/joint_30779426_1748248620.636.json,1748248620.636,0.0,-62.09951268564356,-98.39181427908416,115.4671787979579,-107.0849367651609,-89.99956489789604,27.89374323174505,/home/najo/NAS/DIP/datasets/Fr5_intertek_dataset/preprocessed_roi/Fr5_intertek_1st_250526_zed_30779426_left_1748248620.636.jpg,911,392,1443,782
/home/najo/NAS/DIP/datasets/Fr5_intertek_dataset/Fr5_intertek_1st_250526/top/zed_30779426_right_1748248620.636.jpg,30779426,right,1748248620.636,/home/najo/NAS/DIP/datasets/Fr5_intertek_dataset/Fr5_intertek_1st_250526/joint/joint_30779426_1748248620.636.json,1748248620.636,0.0,-62.09951268564356,-98.39181427908416,115.4671787979579,-107.0849367651609,-89.99956489789604,27.89374323174505,/home/najo/NAS/DIP/datasets/Fr5_intertek_dataset/preprocessed_roi/Fr5_intertek_1st_250526_zed_30779426_right_1748248620.636.jpg,791,392,1331,782
/home/najo/NAS/DIP/datasets/Fr5_intertek_dataset/Fr5_intertek_1st_250526/right/zed_34850673_right_1748248620.768.jpg,34850673,right,1748248620.768,/home/najo/NAS/DIP/datasets/Fr5_intertek_dataset/Fr5_intertek_1st_250526/joint/joint_34850673_1748248620.768.json,1748248620.768,0.0,-62.73867767636138,-99.36078666460396,114.530839070235,-105.170052405631,-90.0,27.2656733446782,/home/najo/NAS/DIP/datasets/Fr5_intertek_dataset/preprocessed_roi/Fr5_intertek_1st_250526_zed_34850673_right_1748248620.768.jpg,978,194,1485,1029
/home/najo/NAS/DIP/datasets/Fr5_intertek_dataset/Fr5_intertek_1st_250526/left/zed_38007749_left_1748248620.763.jpg,38007749,left,1748248620.763,/home/najo/NAS/DIP/datasets/Fr5_intertek_dataset/Fr5_intertek_1st_250526/joint/joint_38007749_1748248620.763.json,1748248620.763,0.0,-62.74846747370049,-99.37601523824256,114.5156104965965,-105.138942605198,-90.0,27.25523089418316,/home/najo/NAS/DIP/datasets/Fr5_intertek_dataset/preprocessed_roi/Fr5_intertek_1st_250526_zed_38007749_left_1748248620.763.jpg,386,272,810,999
/home/najo/NAS/DIP/datasets/Fr5_intertek_dataset/Fr5_intertek_1st_250526/right/zed_34850673_left_1748248620.768.jpg,34850673,left,1748248620.768,/home/najo/NAS/DIP/datasets/Fr5_intertek_dataset/Fr5_intertek_1st_250526/joint/joint_34850673_1748248620.768.json,1748248620.768,0.0,-62.73867767636138,-99.36078666460396,114.530839070235,-105.170052405631,-90.0,27.2656733446782,/home/najo/NAS/DIP/datasets/Fr5_intertek_dataset/preprocessed_roi/Fr5_intertek_1st_250526_zed_34850673_left_1748248620.768.jpg,1083,194,1646,1029
/home/najo/NAS/DIP/datasets/Fr5_intertek_dataset/Fr5_intertek_1st_250526/top/zed_30779426_left_1748248620.776.jpg,30779426,left,1748248620.776,/home/najo/NAS/DIP/datasets/Fr5_intertek_dataset/Fr5_intertek_1st_250526/joint/joint_30779426_1748248620.776.json,1748248620.776,0.0,-62.80590095142327,-99.46716912902228,114.4255443610767,-104.9566348236386,-90.0,27.19192353805693,/home/najo/NAS/DIP/datasets/Fr5_intertek_dataset/preprocessed_roi/Fr5_intertek_1st_250526_zed_30779426_left_1748248620.776.jpg,907,396,1451,784
/home/najo/NAS/DIP/datasets/Fr5_intertek_dataset/Fr5_intertek_1st_250526/top/zed_30779426_right_1748248620.776.jpg,30779426,right,1748248620.776,/home/najo/NAS/DIP/datasets/Fr5_intertek_dataset/Fr5_intertek_1st_250526/joint/joint_30779426_1748248620.776.json,1748248620.776,0.0,-62.80590095142327,-99.46716912902228,114.4255443610767,-104.9566348236386,-90.0,27.19192353805693,/home/najo/NAS/DIP/datasets/Fr5_intertek_dataset/preprocessed_roi/Fr5_intertek_1st_250526_zed_30779426_right_1748248620.776.jpg,783,396,1335,784
/home/najo/NAS/DIP/datasets/Fr5_intertek_dataset/Fr5_intertek_1st_250526/right/zed_34850673_left_1748248620.905.jpg,34850673,left,1748248620.905,/home/najo/NAS/DIP/datasets/Fr5_intertek_dataset/Fr5_intertek_1st_250526/joint/joint_38007749_1748248620.909.json,1748248620.909,0.0039999485015869,-63.45507329053217,-100.4013333462252,113.4189356435643,-103.0154267868193,-90.0,26.5384001779084,/home/najo/NAS/DIP/datasets/Fr5_intertek_dataset/preprocessed_roi/Fr5_intertek_1st_250526_zed_34850673_left_1748248620.905.jpg,1091,194,1657,1029
/home/najo/NAS/DIP/datasets/Fr5_intertek_dataset/Fr5_intertek_1st_250526/right/zed_34850673_right_1748248620.905.jpg,34850673,right,1748248620.905,/home/najo/NAS/DIP/datasets/Fr5_intertek_dataset/Fr5_intertek_1st_250526/joint/joint_38007749_1748248620.909.json,1748248620.909,0.0039999485015869,-63.45507329053217,-100.4013333462252,113.4189356435643,-103.0154267868193,-90.0,26.5384001779084,/home/najo/NAS/DIP/datasets/Fr5_intertek_dataset/preprocessed_roi/Fr5_intertek_1st_250526_zed_34850673_right_1748248620.905.jpg,986,194,1496,1029
/home/najo/NAS/DIP/datasets/Fr5_intertek_dataset/Fr5_intertek_1st_250526/left/zed_38007749_right_1748248620.909.jpg,38007749,right,1748248620.909,/home/najo/NAS/DIP/datasets/Fr5_intertek_dataset/Fr5_intertek_1st_250526/joint/joint_38007749_1748248620.909.json,1748248620.909,0.0,-63.45507329053217,-100.4013333462252,113.4189356435643,-103.0154267868193,-90.0,26.5384001779084,/home/najo/NAS/DIP/datasets/Fr5_intertek_dataset/preprocessed_roi/Fr5_intertek_1st_250526_zed_38007749_right_1748248620.909.jpg,221,276,592,999
/home/najo/NAS/DIP/datasets/Fr5_intertek_dataset/Fr5_intertek_1st_250526/left/zed_38007749_left_1748248620.909.jpg,38007749,left,1748248620.909,/home/najo/NAS/DIP/datasets/Fr5_intertek_dataset/Fr5_intertek_1st_250526/joint/joint_38007749_1748248620.909.json,1748248620.909,0.0,-63.45507329053217,-100.4013333462252,113.4189356435643,-103.0154267868193,-90.0,26.5384001779084,/home/najo/NAS/DIP/datasets/Fr5_intertek_dataset/preprocessed_roi/Fr5_intertek_1st_250526_zed_38007749_left_1748248620.909.jpg,386,276,802,999
/home/najo/NAS/DIP/datasets/Fr5_intertek_dataset/Fr5_intertek_1st_250526/top/zed_30779426_right_1748248620.918.jpg,30779426,right,1748248620.918,/home/najo/NAS/DIP/datasets/Fr5_intertek_dataset/Fr5_intertek_1st_250526/joint/joint_30779426_1748248620.918.json,1748248620.918,0.0,-63.5051100324876,-100.469426825495,113.3406172648515,-102.8729308477723,-90.00043510210396,26.48531772122524,/home/najo/NAS/DIP/datasets/Fr5_intertek_dataset/preprocessed_roi/Fr5_intertek_1st_250526_zed_30779426_right_1748248620.918.jpg,776,400,1338,786
/home/najo/NAS/DIP/datasets/Fr5_intertek_dataset/Fr5_intertek_1st_250526/top/zed_30779426_left_1748248620.918.jpg,30779426,left,1748248620.918,/home/najo/NAS/DIP/datasets/Fr5_intertek_dataset/Fr5_intertek_1st_250526/joint/joint_30779426_1748248620.918.json,1748248620.918,0.0,-63.5051100324876,-100.469426825495,113.3406172648515,-102.8729308477723,-90.00043510210396,26.48531772122524,/home/najo/NAS/DIP/datasets/Fr5_intertek_dataset/preprocessed_roi/Fr5_intertek_1st_250526_zed_30779426_left_1748248620.918.jpg,903,400,1455,788
/home/najo/NAS/DIP/datasets/Fr5_intertek_dataset/Fr5_intertek_1st_250526/right/zed_34850673_right_1748248621.045.jpg,34850673,right,1748248621.045,/home/najo/NAS/DIP/datasets/Fr5_intertek_dataset/Fr5_intertek_1st_250526/joint/joint_38007749_1748248621.049.json,1748248621.049,0.0039999485015869,-64.16385461788364,-101.3089563350866,112.2924562964109,-100.9802366955445,-90.0,25.8407139542079,/home/najo/NAS/DIP/datasets/Fr5_intertek_dataset/preprocessed_roi/Fr5_intertek_1st_250526_zed_34850673_right_1748248621.045.jpg,990,194,1503,1029
/home/najo/NAS/DIP/datasets/Fr5_intertek_dataset/Fr5_intertek_1st_250526/right/zed_34850673_left_1748248621.045.jpg,34850673,left,1748248621.045,/home/najo/NAS/DIP/datasets/Fr5_intertek_dataset/Fr5_intertek_1st_250526/joint/joint_38007749_1748248621.049.json,1748248621.049,0.0039999485015869,-64.16385461788364,-101.3089563350866,112.2924562964109,-100.9802366955445,-90.0,25.8407139542079,/home/najo/NAS/DIP/datasets/Fr5_intertek_dataset/preprocessed_roi/Fr5_intertek_1st_250526_zed_34850673_left_1748248621.045.jpg,1095,194,1668,1029
/home/najo/NAS/DIP/datasets/Fr5_intertek_dataset/Fr5_intertek_1st_250526/left/zed_38007749_right_1748248621.049.jpg,38007749,right,1748248621.049,/home/najo/NAS/DIP/datasets/Fr5_intertek_dataset/Fr5_intertek_1st_250526/joint/joint_38007749_1748248621.049.json,1748248621.049,0.0,-64.16385461788364,-101.3089563350866,112.2924562964109,-100.9802366955445,-90.0,25.8407139542079,/home/najo/NAS/DIP/datasets/Fr5_intertek_dataset/preprocessed_roi/Fr5_intertek_1st_250526_zed_38007749_right_1748248621.049.jpg,213,278,588,1001
/home/najo/NAS/DIP/datasets/Fr5_intertek_dataset/Fr5_intertek_1st_250526/left/zed_38007749_left_1748248621.049.jpg,38007749,left,1748248621.049,/home/najo/NAS/DIP/datasets/Fr5_intertek_dataset/Fr5_intertek_1st_250526/joint/joint_38007749_1748248621.049.json,1748248621.049,0.0,-64.16385461788364,-101.3089563350866,112.2924562964109,-100.9802366955445,-90.0,25.8407139542079,/home/najo/NAS/DIP/datasets/Fr5_intertek_dataset/preprocessed_roi/Fr5_intertek_1st_250526_zed_38007749_left_1748248621.049.jpg,386,278,787,999
/home/najo/NAS/DIP/datasets/Fr5_intertek_dataset/Fr5_intertek_1st_250526/top/zed_30779426_right_1748248621.057.jpg,30779426,right,1748248621.057,/home/najo/NAS/DIP/datasets/Fr5_intertek_dataset/Fr5_intertek_1st_250526/joint/joint_30779426_1748248621.057.json,1748248621.057,0.0,-64.23782197555693,-101.4042436958539,112.1677995436262,-100.754418703589,-90.00065265315594,25.76130782023515,/home/najo/NAS/DIP/datasets/Fr5_intertek_dataset/preprocessed_roi/Fr5_intertek_1st_250526_zed_30779426_right_1748248621.057.jpg,772,405,1342,788
/home/najo/NAS/DIP/datasets/Fr5_intertek_dataset/Fr5_intertek_1st_250526/top/zed_30779426_left_1748248621.057.jpg,30779426,left,1748248621.057,/home/najo/NAS/DIP/datasets/Fr5_intertek_dataset/Fr5_intertek_1st_250526/joint/joint_30779426_1748248621.057.json,1748248621.057,0.0,-64.23782197555693,-101.4042436958539,112.1677995436262,-100.754418703589,-90.00065265315594,25.76130782023515,/home/najo/NAS/DIP/datasets/Fr5_intertek_dataset/preprocessed_roi/Fr5_intertek_1st_250526_zed_30779426_left_1748248621.057.jpg,896,402,1462,791
/home/najo/NAS/DIP/datasets/Fr5_intertek_dataset/Fr5_intertek_1st_250526/right/zed_34850673_right_1748248621.183.jpg,34850673,right,1748248621.183,/home/najo/NAS/DIP/datasets/Fr5_intertek_dataset/Fr5_intertek_1st_250526/joint/joint_34850673_1748248621.183.json,1748248621.183,0.0,-64.90113513304455,-102.1735042156559,111.0656859142945,-98.88870088180693,-90.00021755105197,25.09299098855198,/home/najo/NAS/DIP/datasets/Fr5_intertek_dataset/preprocessed_roi/Fr5_intertek_1st_250526_zed_34850673_right_1748248621.183.jpg,993,191,1511,1029
/home/najo/NAS/DIP/datasets/Fr5_intertek_dataset/Fr5_intertek_1st_250526/right/zed_34850673_left_1748248621.183.jpg,34850673,left,1748248621.183,/home/najo/NAS/DIP/datasets/Fr5_intertek_dataset/Fr5_intertek_1st_250526/joint/joint_34850673_1748248621.183.json,1748248621.183,0.0,-64.90113513304455,-102.1735042156559,111.0656859142945,-98.88870088180693,-90.00021755105197,25.09299098855198,/home/najo/NAS/DIP/datasets/Fr5_intertek_dataset/preprocessed_roi/Fr5_intertek_1st_250526_zed_34850673_left_1748248621.183.jpg,1098,194,1676,1029
/home/najo/NAS/DIP/datasets/Fr5_intertek_dataset/Fr5_intertek_1st_250526/left/zed_38007749_right_1748248621.187.jpg,38007749,right,1748248621.187,/home/najo/NAS/DIP/datasets/Fr5_intertek_dataset/Fr5_intertek_1st_250526/joint/joint_34850673_1748248621.183.json,1748248621.183,0.0039999485015869,-64.90113513304455,-102.1735042156559,111.0656859142945,-98.88870088180693,-90.00021755105197,25.09299098855198,/home/najo/NAS/DIP/datasets/Fr5_intertek_dataset/preprocessed_roi/Fr5_intertek_1st_250526_zed_38007749_right_1748248621.187.jpg,206,280,682,999
/home/najo/NAS/DIP/datasets/Fr5_intertek_dataset/Fr5_intertek_1st_250526/left/zed_38007749_left_1748248621.187.jpg,38007749,left,1748248621.187,/home/najo/NAS/DIP/datasets/Fr5_intertek_dataset/Fr5_intertek_1st_250526/joint/joint_34850673_1748248621.183.json,1748248621.183,0.0039999485015869,-64.90113513304455,-102.1735042156559,111.0656859142945,-98.88870088180693,-90.00021755105197,25.09299098855198,/home/najo/NAS/DIP/datasets/Fr5_intertek_dataset/preprocessed_roi/Fr5_intertek_1st_250526_zed_38007749_left_1748248621.187.jpg,386,282,776,999
/home/najo/NAS/DIP/datasets/Fr5_intertek_dataset/Fr5_intertek_1st_250526/top/zed_30779426_left_1748248621.197.jpg,30779426,left,1748248621.197,/home/najo/NAS/DIP/datasets/Fr5_intertek_dataset/Fr5_intertek_1st_250526/joint/joint_30779426_1748248621.197.json,1748248621.197,0.0,-64.96792330600248,-102.249211981745,110.9469030399133,-98.6944277923886,-90.0,25.02206934560643,/home/najo/NAS/DIP/datasets/Fr5_intertek_dataset/preprocessed_roi/Fr5_intertek_1st_250526_zed_30779426_left_1748248621.197.jpg,892,407,1466,791
/home/najo/NAS/DIP/datasets/Fr5_intertek_dataset/Fr5_intertek_1st_250526/top/zed_30779426_right_1748248621.197.jpg,30779426,right,1748248621.197,/home/najo/NAS/DIP/datasets/Fr5_intertek_dataset/Fr5_intertek_1st_250526/joint/joint_30779426_1748248621.197.json,1748248621.197,0.0,-64.96792330600248,-102.249211981745,110.9469030399133,-98.6944277923886,-90.0,25.02206934560643,/home/najo/NAS/DIP/datasets/Fr5_intertek_dataset/preprocessed_roi/Fr5_intertek_1st_250526_zed_30779426_right_1748248621.197.jpg,768,409,1346,791
/home/najo/NAS/DIP/datasets/Fr5_intertek_dataset/Fr5_intertek_1st_250526/left/zed_38007749_left_1748248621.324.jpg,38007749,left,1748248621.324,/home/najo/NAS/DIP/datasets/Fr5_intertek_dataset/Fr5_intertek_1st_250526/joint/joint_34850673_1748248621.329.json,1748248621.329,0.0050001144409179,-65.64167891398515,-102.9551651454208,109.7932298112624,-96.83349609375,-90.00021755105197,24.35527537128713,/home/najo/NAS/DIP/datasets/Fr5_intertek_dataset/preprocessed_roi/Fr5_intertek_1st_250526_zed_38007749_left_1748248621.324.jpg,386,259,772,999
/home/najo/NAS/DIP/datasets/Fr5_intertek_dataset/Fr5_intertek_1st_250526/left/zed_38007749_right_1748248621.324.jpg,38007749,right,1748248621.324,/home/najo/NAS/DIP/datasets/Fr5_intertek_dataset/Fr5_intertek_1st_250526/joint/joint_34850673_1748248621.329.json,1748248621.329,0.0050001144409179,-65.64167891398515,-102.9551651454208,109.7932298112624,-96.83349609375,-90.00021755105197,24.35527537128713,/home/najo/NAS/DIP/datasets/Fr5_intertek_dataset/preprocessed_roi/Fr5_intertek_1st_250526_zed_38007749_right_1748248621.324.jpg,198,259,678,999
/home/najo/NAS/DIP/datasets/Fr5_intertek_dataset/Fr5_intertek_1st_250526/right/zed_34850673_right_1748248621.329.jpg,34850673,right,1748248621.329,/home/najo/NAS/DIP/datasets/Fr5_intertek_dataset/Fr5_intertek_1st_250526/joint/joint_34850673_1748248621.329.json,1748248621.329,0.0,-65.64167891398515,-102.9551651454208,109.7932298112624,-96.83349609375,-90.00021755105197,24.35527537128713,/home/najo/NAS/DIP/datasets/Fr5_intertek_dataset/preprocessed_roi/Fr5_intertek_1st_250526_zed_34850673_right_1748248621.329.jpg,1001,191,1515,1029
/home/najo/NAS/DIP/datasets/Fr5_intertek_dataset/Fr5_intertek_1st_250526/right/zed_34850673_left_1748248621.329.jpg,34850673,left,1748248621.329,/home/najo/NAS/DIP/datasets/Fr5_intertek_dataset/Fr5_intertek_1st_250526/joint/joint_34850673_1748248621.329.json,1748248621.329,0.0,-65.64167891398515,-102.9551651454208,109.7932298112624,-96.83349609375,-90.00021755105197,24.35527537128713,/home/najo/NAS/DIP/datasets/Fr5_intertek_dataset/preprocessed_roi/Fr5_intertek_1st_250526_zed_34850673_left_1748248621.329.jpg,1106,194,1683,1029
/home/najo/NAS/DIP/datasets/Fr5_intertek_dataset/Fr5_intertek_1st_250526/top/zed_30779426_right_1748248621.336.jpg,30779426,right,1748248621.336,/home/najo/NAS/DIP/datasets/Fr5_intertek_dataset/Fr5_intertek_1st_250526/joint/joint_30779426_1748248621.336.json,1748248621.336,0.0,-65.70759688273515,-103.0254341352104,109.6718363242574,-96.64183361695544,-90.0,24.28457127939356,/home/najo/NAS/DIP/datasets/Fr5_intertek_dataset/preprocessed_roi/Fr5_intertek_1st_250526_zed_30779426_right_1748248621.336.jpg,765,413,1353,793
/home/najo/NAS/DIP/datasets/Fr5_intertek_dataset/Fr5_intertek_1st_250526/top/zed_30779426_left_1748248621.336.jpg,30779426,left,1748248621.336,/home/najo/NAS/DIP/datasets/Fr5_intertek_dataset/Fr5_intertek_1st_250526/joint/joint_30779426_1748248621.336.json,1748248621.336,0.0,-65.70759688273515,-103.0254341352104,109.6718363242574,-96.64183361695544,-90.0,24.28457127939356,/home/najo/NAS/DIP/datasets/Fr5_intertek_dataset/preprocessed_roi/Fr5_intertek_1st_250526_zed_30779426_left_1748248621.336.jpg,888,411,1473,793
/home/najo/NAS/DIP/datasets/Fr5_intertek_dataset/Fr5_intertek_1st_250526/left/zed_38007749_right_1748248621.466.jpg,38007749,right,1748248621.466,/home/najo/NAS/DIP/datasets/Fr5_intertek_dataset/Fr5_intertek_1st_250526/joint/joint_38007749_1748248621.466.json,1748248621.466,0.0,-66.40267249381186,-103.666121983292,108.4587716584158,-94.79025661355196,-89.99956489789604,23.59058342357673,/home/najo/NAS/DIP/datasets/Fr5_intertek_dataset/preprocessed_roi/Fr5_intertek_1st_250526_zed_38007749_right_1748248621.466.jpg,191,236,585,999
/home/najo/NAS/DIP/datasets/Fr5_intertek_dataset/Fr5_intertek_1st_250526/left/zed_38007749_left_1748248621.466.jpg,38007749,left,1748248621.466,/home/najo/NAS/DIP/datasets/Fr5_intertek_dataset/Fr5_intertek_1st_250526/joint/joint_38007749_1748248621.466.json,1748248621.466,0.0,-66.40267249381186,-103.666121983292,108.4587716584158,-94.79025661355196,-89.99956489789604,23.59058342357673,/home/najo/NAS/DIP/datasets/Fr5_intertek_dataset/preprocessed_roi/Fr5_intertek_1st_250526_zed_38007749_left_1748248621.466.jpg,386,236,761,999
/home/najo/NAS/DIP/datasets/Fr5_intertek_dataset/Fr5_intertek_1st_250526/right/zed_34850673_right_1748248621.471.jpg,34850673,right,1748248621.471,/home/najo/NAS/DIP/datasets/Fr5_intertek_dataset/Fr5_intertek_1st_250526/joint/joint_34850673_1748248621.471.json,1748248621.471,0.0,-66.4396561726485,-103.700059947401,108.390678179146,-94.69018312964108,-89.99956489789604,23.5533821936881,/home/najo/NAS/DIP/datasets/Fr5_intertek_dataset/preprocessed_roi/Fr5_intertek_1st_250526_zed_34850673_right_1748248621.471.jpg,1005,194,1518,1029
/home/najo/NAS/DIP/datasets/Fr5_intertek_dataset/Fr5_intertek_1st_250526/right/zed_34850673_left_1748248621.471.jpg,34850673,left,1748248621.471,/home/najo/NAS/DIP/datasets/Fr5_intertek_dataset/Fr5_intertek_1st_250526/joint/joint_34850673_1748248621.471.json,1748248621.471,0.0,-66.4396561726485,-103.700059947401,108.390678179146,-94.69018312964108,-89.99956489789604,23.5533821936881,/home/najo/NAS/DIP/datasets/Fr5_intertek_dataset/preprocessed_roi/Fr5_intertek_1st_250526_zed_34850673_left_1748248621.471.jpg,1110,194,1687,1029
/home/najo/NAS/DIP/datasets/Fr5_intertek_dataset/Fr5_intertek_1st_250526/top/zed_30779426_left_1748248621.479.jpg,30779426,left,1748248621.479,/home/najo/NAS/DIP/datasets/Fr5_intertek_dataset/Fr5_intertek_1st_250526/joint/joint_30779426_1748248621.479.json,1748248621.479,0.0,-66.46597984993812,-103.7244256652227,108.3406414371906,-94.61795618038364,-89.99934734684406,23.52640586324257,/home/najo/NAS/DIP/datasets/Fr5_intertek_dataset/preprocessed_roi/Fr5_intertek_1st_250526_zed_30779426_left_1748248621.479.jpg,885,415,1481,793
/home/najo/NAS/DIP/datasets/Fr5_intertek_dataset/Fr5_intertek_1st_250526/top/zed_30779426_right_1748248621.479.jpg,30779426,right,1748248621.479,/home/najo/NAS/DIP/datasets/Fr5_intertek_dataset/Fr5_intertek_1st_250526/joint/joint_30779426_1748248621.479.json,1748248621.479,0.0,-66.46597984993812,-103.7244256652227,108.3406414371906,-94.61795618038364,-89.99934734684406,23.52640586324257,/home/najo/NAS/DIP/datasets/Fr5_intertek_dataset/preprocessed_roi/Fr5_intertek_1st_250526_zed_30779426_right_1748248621.479.jpg,761,417,1357,793
/home/najo/NAS/DIP/datasets/Fr5_intertek_dataset/Fr5_intertek_1st_250526/left/zed_38007749_left_1748248621.606.jpg,38007749,left,1748248621.606,/home/najo/NAS/DIP/datasets/Fr5_intertek_dataset/Fr5_intertek_1st_250526/joint/joint_38007749_1748248621.606.json,1748248621.606,0.0,-67.16410117574257,-104.2972375850866,107.059483292079,-92.77877958694307,-89.99978244894803,22.82632657797029,/home/najo/NAS/DIP/datasets/Fr5_intertek_dataset/preprocessed_roi/Fr5_intertek_1st_250526_zed_38007749_left_1748248621.606.jpg,386,213,750,999
/home/najo/NAS/DIP/datasets/Fr5_intertek_dataset/Fr5_intertek_1st_250526/left/zed_38007749_right_1748248621.606.jpg,38007749,right,1748248621.606,/home/najo/NAS/DIP/datasets/Fr5_intertek_dataset/Fr5_intertek_1st_250526/joint/joint_38007749_1748248621.606.json,1748248621.606,0.0,-67.16410117574257,-104.2972375850866,107.059483292079,-92.77877958694307,-89.99978244894803,22.82632657797029,/home/najo/NAS/DIP/datasets/Fr5_intertek_dataset/preprocessed_roi/Fr5_intertek_1st_250526_zed_38007749_right_1748248621.606.jpg,183,213,585,999
/home/najo/NAS/DIP/datasets/Fr5_intertek_dataset/Fr5_intertek_1st_250526/right/zed_34850673_right_1748248621.612.jpg,34850673,right,1748248621.612,/home/najo/NAS/DIP/datasets/Fr5_intertek_dataset/Fr5_intertek_1st_250526/joint/joint_34850673_1748248621.612.json,1748248621.612,0.0,-67.18629138304455,-104.313989016089,107.0203241027227,-92.7211285581683,-89.99956489789604,22.80587677908416,/home/najo/NAS/DIP/datasets/Fr5_intertek_dataset/preprocessed_roi/Fr5_intertek_1st_250526_zed_34850673_right_1748248621.612.jpg,1008,194,1526,1029
/home/najo/NAS/DIP/datasets/Fr5_intertek_dataset/Fr5_intertek_1st_250526/right/zed_34850673_left_1748248621.612.jpg,34850673,left,1748248621.612,/home/najo/NAS/DIP/datasets/Fr5_intertek_dataset/Fr5_intertek_1st_250526/joint/joint_34850673_1748248621.612.json,1748248621.612,0.0,-67.18629138304455,-104.313989016089,107.0203241027227,-92.7211285581683,-89.99956489789604,22.80587677908416,/home/najo/NAS/DIP/datasets/Fr5_intertek_dataset/preprocessed_roi/Fr5_intertek_1st_250526_zed_34850673_left_1748248621.612.jpg,1113,194,1695,1029
/home/najo/NAS/DIP/datasets/Fr5_intertek_dataset/Fr5_intertek_1st_250526/top/zed_30779426_right_1748248621.618.jpg,30779426,right,1748248621.618,/home/najo/NAS/DIP/datasets/Fr5_intertek_dataset/Fr5_intertek_1st_250526/joint/joint_30779426_1748248621.618.json,1748248621.618,0.0,-67.23480526763613,-104.3505375928218,106.9367844987624,-92.59864731590346,-90.00021755105197,22.76171391553217,/home/najo/NAS/DIP/datasets/Fr5_intertek_dataset/preprocessed_roi/Fr5_intertek_1st_250526_zed_30779426_right_1748248621.618.jpg,761,421,1361,795
/home/najo/NAS/DIP/datasets/Fr5_intertek_dataset/Fr5_intertek_1st_250526/top/zed_30779426_left_1748248621.618.jpg,30779426,left,1748248621.618,/home/najo/NAS/DIP/datasets/Fr5_intertek_dataset/Fr5_intertek_1st_250526/joint/joint_30779426_1748248621.618.json,1748248621.618,0.0,-67.23480526763613,-104.3505375928218,106.9367844987624,-92.59864731590346,-90.00021755105197,22.76171391553217,/home/najo/NAS/DIP/datasets/Fr5_intertek_dataset/preprocessed_roi/Fr5_intertek_1st_250526_zed_30779426_left_1748248621.618.jpg,881,421,1488,793
/home/najo/NAS/DIP/datasets/Fr5_intertek_dataset/Fr5_intertek_1st_250526/left/zed_38007749_right_1748248621.745.jpg,38007749,right,1748248621.745,/home/najo/NAS/DIP/datasets/Fr5_intertek_dataset/Fr5_intertek_1st_250526/joint/joint_38007749_1748248621.745.json,1748248621.745,0.0,-67.7132000309406,-104.6968788675742,106.0483060024752,-91.35316754331684,-90.00021755105197,22.28527711169554,/home/najo/NAS/DIP/datasets/Fr5_intertek_dataset/preprocessed_roi/Fr5_intertek_1st_250526_zed_38007749_right_1748248621.745.jpg,176,185,585,999
/home/najo/NAS/DIP/datasets/Fr5_intertek_dataset/Fr5_intertek_1st_250526/left/zed_38007749_left_1748248621.745.jpg,38007749,left,1748248621.745,/home/najo/NAS/DIP/datasets/Fr5_intertek_dataset/Fr5_intertek_1st_250526/joint/joint_38007749_1748248621.745.json,1748248621.745,0.0,-67.7132000309406,-104.6968788675742,106.0483060024752,-91.35316754331684,-90.00021755105197,22.28527711169554,/home/najo/NAS/DIP/datasets/Fr5_intertek_dataset/preprocessed_roi/Fr5_intertek_1st_250526_zed_38007749_left_1748248621.745.jpg,386,187,738,999
/home/najo/NAS/DIP/datasets/Fr5_intertek_dataset/Fr5_intertek_1st_250526/right/zed_34850673_left_1748248621.751.jpg,34850673,left,1748248621.751,/home/najo/NAS/DIP/datasets/Fr5_intertek_dataset/Fr5_intertek_1st_250526/joint/joint_34850673_1748248621.751.json,1748248621.751,0.0,-67.71537554146039,-104.69861927599,106.0435198793317,-91.3470761138614,-90.00043510210396,22.28266649907178,/home/najo/NAS/DIP/datasets/Fr5_intertek_dataset/preprocessed_roi/Fr5_intertek_1st_250526_zed_34850673_left_1748248621.751.jpg,1121,194,1698,1029
/home/najo/NAS/DIP/datasets/Fr5_intertek_dataset/Fr5_intertek_1st_250526/right/zed_34850673_right_1748248621.751.jpg,34850673,right,1748248621.751,/home/najo/NAS/DIP/datasets/Fr5_intertek_dataset/Fr5_intertek_1st_250526/joint/joint_34850673_1748248621.751.json,1748248621.751,0.0,-67.71537554146039,-104.69861927599,106.0435198793317,-91.3470761138614,-90.00043510210396,22.28266649907178,/home/najo/NAS/DIP/datasets/Fr5_intertek_dataset/preprocessed_roi/Fr5_intertek_1st_250526_zed_34850673_right_1748248621.751.jpg,1016,194,1530,1029
/home/najo/NAS/DIP/datasets/Fr5_intertek_dataset/Fr5_intertek_1st_250526/top/zed_30779426_right_1748248621.758.jpg,30779426,right,1748248621.758,/home/najo/NAS/DIP/datasets/Fr5_intertek_dataset/Fr5_intertek_1st_250526/joint/joint_30779426_1748248621.758.json,1748248621.758,0.0,-67.73364982982673,-104.7138478496287,106.0045782410272,-91.29529896349008,-90.00043510210396,22.26069384282178,/home/najo/NAS/DIP/datasets/Fr5_intertek_dataset/preprocessed_roi/Fr5_intertek_1st_250526_zed_30779426_right_1748248621.758.jpg,757,426,1368,795
/home/najo/NAS/DIP/datasets/Fr5_intertek_dataset/Fr5_intertek_1st_250526/top/zed_30779426_left_1748248621.758.jpg,30779426,left,1748248621.758,/home/najo/NAS/DIP/datasets/Fr5_intertek_dataset/Fr5_intertek_1st_250526/joint/joint_30779426_1748248621.758.json,1748248621.758,0.0,-67.73364982982673,-104.7138478496287,106.0045782410272,-91.29529896349008,-90.00043510210396,22.26069384282178,/home/najo/NAS/DIP/datasets/Fr5_intertek_dataset/preprocessed_roi/Fr5_intertek_1st_250526_zed_30779426_left_1748248621.758.jpg,881,423,1492,793
/home/najo/NAS/DIP/datasets/Fr5_intertek_dataset/Fr5_intertek_1st_250526/left/zed_38007749_right_1748248621.885.jpg,38007749,right,1748248621.885,/home/najo/NAS/DIP/datasets/Fr5_intertek_dataset/Fr5_intertek_1st_250526/joint/joint_38007749_1748248621.885.json,1748248621.885,0.0,-67.8374216816213,-104.7623617342203,105.753959429146,-90.98463606126238,-90.00021755105197,22.159315052599,/home/najo/NAS/DIP/datasets/Fr5_intertek_dataset/preprocessed_roi/Fr5_intertek_1st_250526_zed_38007749_right_1748248621.885.jpg,172,175,585,999
/home/najo/NAS/DIP/datasets/Fr5_intertek_dataset/Fr5_intertek_1st_250526/left/zed_38007749_left_1748248621.885.jpg,38007749,left,1748248621.885,/home/najo/NAS/DIP/datasets/Fr5_intertek_dataset/Fr5_intertek_1st_250526/joint/joint_38007749_1748248621.885.json,1748248621.885,0.0,-67.8374216816213,-104.7623617342203,105.753959429146,-90.98463606126238,-90.00021755105197,22.159315052599,/home/najo/NAS/DIP/datasets/Fr5_intertek_dataset/preprocessed_roi/Fr5_intertek_1st_250526_zed_38007749_left_1748248621.885.jpg,382,175,735,999
/home/najo/NAS/DIP/datasets/Fr5_intertek_dataset/Fr5_intertek_1st_250526/right/zed_34850673_right_1748248621.890.jpg,34850673,right,1748248621.89,/home/najo/NAS/DIP/datasets/Fr5_intertek_dataset/Fr5_intertek_1st_250526/joint/joint_34850673_1748248621.890.json,1748248621.89,0.0,-67.83524617110149,-104.7586633663366,105.7476504486386,-90.9842009591584,-90.00043510210396,22.1625783183787,/home/najo/NAS/DIP/datasets/Fr5_intertek_dataset/preprocessed_roi/Fr5_intertek_1st_250526_zed_34850673_right_1748248621.890.jpg,1016,196,1530,1029
/home/najo/NAS/DIP/datasets/Fr5_intertek_dataset/Fr5_intertek_1st_250526/right/zed_34850673_left_1748248621.890.jpg,34850673,left,1748248621.89,/home/najo/NAS/DIP/datasets/Fr5_intertek_dataset/Fr5_intertek_1st_250526/joint/joint_34850673_1748248621.890.json,1748248621.89,0.0,-67.83524617110149,-104.7586633663366,105.7476504486386,-90.9842009591584,-90.00043510210396,22.1625783183787,/home/najo/NAS/DIP/datasets/Fr5_intertek_dataset/preprocessed_roi/Fr5_intertek_1st_250526_zed_34850673_left_1748248621.890.jpg,1121,196,1698,1029
/home/najo/NAS/DIP/datasets/Fr5_intertek_dataset/Fr5_intertek_1st_250526/top/zed_30779426_right_1748248621.896.jpg,30779426,right,1748248621.896,/home/najo/NAS/DIP/datasets/Fr5_intertek_dataset/Fr5_intertek_1st_250526/joint/joint_30779426_1748248621.896.json,1748248621.896,0.0,-67.82001759746286,-104.7364731590346,105.7132773824257,-90.98028504022275,-90.00087020420793,22.18368077042079,/home/najo/NAS/DIP/datasets/Fr5_intertek_dataset/preprocessed_roi/Fr5_intertek_1st_250526_zed_30779426_right_1748248621.896.jpg,757,428,1368,795
/home/najo/NAS/DIP/datasets/Fr5_intertek_dataset/Fr5_intertek_1st_250526/top/zed_30779426_left_1748248621.896.jpg,30779426,left,1748248621.896,/home/najo/NAS/DIP/datasets/Fr5_intertek_dataset/Fr5_intertek_1st_250526/joint/joint_30779426_1748248621.896.json,1748248621.896,0.0,-67.82001759746286,-104.7364731590346,105.7132773824257,-90.98028504022275,-90.00087020420793,22.18368077042079,/home/najo/NAS/DIP/datasets/Fr5_intertek_dataset/preprocessed_roi/Fr5_intertek_1st_250526_zed_30779426_left_1748248621.896.jpg,881,426,1496,793
/home/najo/NAS/DIP/datasets/Fr5_intertek_dataset/Fr5_intertek_1st_250526/left/zed_38007749_left_1748248622.024.jpg,38007749,left,1748248622.024,/home/najo/NAS/DIP/datasets/Fr5_intertek_dataset/Fr5_intertek_1st_250526/joint/joint_38007749_1748248622.024.json,1748248622.024,0.0,-66.99288849783416,-103.8179726175742,104.7795482673267,-90.96396871132426,-90.0,23.0064588490099,/home/najo/NAS/DIP/datasets/Fr5_intertek_dataset/preprocessed_roi/Fr5_intertek_1st_250526_zed_38007749_left_1748248622.024.jpg,382,172,738,999
/home/najo/NAS/DIP/datasets/Fr5_intertek_dataset/Fr5_intertek_1st_250526/left/zed_38007749_right_1748248622.024.jpg,38007749,right,1748248622.024,/home/najo/NAS/DIP/datasets/Fr5_intertek_dataset/Fr5_intertek_1st_250526/joint/joint_38007749_1748248622.024.json,1748248622.024,0.0,-66.99288849783416,-103.8179726175742,104.7795482673267,-90.96396871132426,-90.0,23.0064588490099,/home/najo/NAS/DIP/datasets/Fr5_intertek_dataset/preprocessed_roi/Fr5_intertek_1st_250526_zed_38007749_right_1748248622.024.jpg,172,172,585,999
/home/najo/NAS/DIP/datasets/Fr5_intertek_dataset/Fr5_intertek_1st_250526/right/zed_34850673_right_1748248622.030.jpg,34850673,right,1748248622.03,/home/najo/NAS/DIP/datasets/Fr5_intertek_dataset/Fr5_intertek_1st_250526/joint/joint_34850673_1748248622.030.json,1748248622.03,0.0,-66.97091584158416,-103.7949122060643,104.7560527537128,-90.9633160581683,-90.0,23.02690864789604,/home/najo/NAS/DIP/datasets/Fr5_intertek_dataset/preprocessed_roi/Fr5_intertek_1st_250526_zed_34850673_right_1748248622.030.jpg,1016,194,1526,1029
/home/najo/NAS/DIP/datasets/Fr5_intertek_dataset/Fr5_intertek_1st_250526/right/zed_34850673_left_1748248622.030.jpg,34850673,left,1748248622.03,/home/najo/NAS/DIP/datasets/Fr5_intertek_dataset/Fr5_intertek_1st_250526/joint/joint_34850673_1748248622.030.json,1748248622.03,0.0,-66.97091584158416,-103.7949122060643,104.7560527537128,-90.9633160581683,-90.0,23.02690864789604,/home/najo/NAS/DIP/datasets/Fr5_intertek_dataset/preprocessed_roi/Fr5_intertek_1st_250526_zed_34850673_left_1748248622.030.jpg,1121,194,1698,1029
/home/najo/NAS/DIP/datasets/Fr5_intertek_dataset/Fr5_intertek_1st_250526/top/zed_30779426_right_1748248622.035.jpg,30779426,right,1748248622.035,/home/najo/NAS/DIP/datasets/Fr5_intertek_dataset/Fr5_intertek_1st_250526/joint/joint_30779426_1748248622.035.json,1748248622.035,0.0,-66.88193746132426,-103.698319538985,104.6579372292698,-90.9633160581683,-90.00021755105197,23.10979559870049,/home/najo/NAS/DIP/datasets/Fr5_intertek_dataset/preprocessed_roi/Fr5_intertek_1st_250526_zed_30779426_right_1748248622.035.jpg,757,423,1368,795
/home/najo/NAS/DIP/datasets/Fr5_intertek_dataset/Fr5_intertek_1st_250526/top/zed_30779426_left_1748248622.035.jpg,30779426,left,1748248622.035,/home/najo/NAS/DIP/datasets/Fr5_intertek_dataset/Fr5_intertek_1st_250526/joint/joint_30779426_1748248622.035.json,1748248622.035,0.0,-66.88193746132426,-103.698319538985,104.6579372292698,-90.9633160581683,-90.00021755105197,23.10979559870049,/home/najo/NAS/DIP/datasets/Fr5_intertek_dataset/preprocessed_roi/Fr5_intertek_1st_250526_zed_30779426_left_1748248622.035.jpg,881,421,1496,793
/home/najo/NAS/DIP/datasets/Fr5_intertek_dataset/Fr5_intertek_1st_250526/left/zed_38007749_left_1748248622.164.jpg,38007749,left,1748248622.164,/home/najo/NAS/DIP/datasets/Fr5_intertek_dataset/Fr5_intertek_1st_250526/joint/joint_38007749_1748248622.164.json,1748248622.164,0.0,-65.05081025680693,-101.6187490331064,102.5853283570544,-90.9646213644802,-90.00087020420793,24.96463586788366,/home/najo/NAS/DIP/datasets/Fr5_intertek_dataset/preprocessed_roi/Fr5_intertek_1st_250526_zed_38007749_left_1748248622.164.jpg,386,166,757,999
/home/najo/NAS/DIP/datasets/Fr5_intertek_dataset/Fr5_intertek_1st_250526/left/zed_38007749_right_1748248622.164.jpg,38007749,right,1748248622.164,/home/najo/NAS/DIP/datasets/Fr5_intertek_dataset/Fr5_intertek_1st_250526/joint/joint_38007749_1748248622.164.json,1748248622.164,0.0,-65.05081025680693,-101.6187490331064,102.5853283570544,-90.9646213644802,-90.00087020420793,24.96463586788366,/home/najo/NAS/DIP/datasets/Fr5_intertek_dataset/preprocessed_roi/Fr5_intertek_1st_250526_zed_38007749_right_1748248622.164.jpg,183,166,585,999
/home/najo/NAS/DIP/datasets/Fr5_intertek_dataset/Fr5_intertek_1st_250526/right/zed_34850673_right_1748248622.169.jpg,34850673,right,1748248622.169,/home/najo/NAS/DIP/datasets/Fr5_intertek_dataset/Fr5_intertek_1st_250526/joint/joint_38007749_1748248622.164.json,1748248622.164,0.0049998760223388,-65.05081025680693,-101.6187490331064,102.5853283570544,-90.9646213644802,-90.00087020420793,24.96463586788366,/home/najo/NAS/DIP/datasets/Fr5_intertek_dataset/preprocessed_roi/Fr5_intertek_1st_250526_zed_34850673_right_1748248622.169.jpg,1005,194,1518,1029
/home/najo/NAS/DIP/datasets/Fr5_intertek_dataset/Fr5_intertek_1st_250526/right/zed_34850673_left_1748248622.169.jpg,34850673,left,1748248622.169,/home/najo/NAS/DIP/datasets/Fr5_intertek_dataset/Fr5_intertek_1st_250526/joint/joint_38007749_1748248622.164.json,1748248622.164,0.0049998760223388,-65.05081025680693,-101.6187490331064,102.5853283570544,-90.9646213644802,-90.00087020420793,24.96463586788366,/home/najo/NAS/DIP/datasets/Fr5_intertek_dataset/preprocessed_roi/Fr5_intertek_1st_250526_zed_34850673_left_1748248622.169.jpg,1110,194,1687,1029
/home/najo/NAS/DIP/datasets/Fr5_intertek_dataset/Fr5_intertek_1st_250526/top/zed_30779426_right_1748248622.175.jpg,30779426,right,1748248622.175,/home/najo/NAS/DIP/datasets/Fr5_intertek_dataset/Fr5_intertek_1st_250526/joint/joint_30779426_1748248622.175.json,1748248622.175,0.0,-64.89373839727723,-101.4429677831064,102.4084593517945,-90.96396871132426,-90.00130530631186,25.12040242110148,/home/najo/NAS/DIP/datasets/Fr5_intertek_dataset/preprocessed_roi/Fr5_intertek_1st_250526_zed_30779426_right_1748248622.175.jpg,765,409,1376,791
/home/najo/NAS/DIP/datasets/Fr5_intertek_dataset/Fr5_intertek_1st_250526/top/zed_30779426_left_1748248622.175.jpg,30779426,left,1748248622.175,/home/najo/NAS/DIP/datasets/Fr5_intertek_dataset/Fr5_intertek_1st_250526/joint/joint_30779426_1748248622.175.json,1748248622.175,0.0,-64.89373839727723,-101.4429677831064,102.4084593517945,-90.96396871132426,-90.00130530631186,25.12040242110148,/home/najo/NAS/DIP/datasets/Fr5_intertek_dataset/preprocessed_roi/Fr5_intertek_1st_250526_zed_30779426_left_1748248622.175.jpg,892,409,1503,791
/home/najo/NAS/DIP/datasets/Fr5_intertek_dataset/Fr5_intertek_1st_250526/right/zed_34850673_right_1748248622.304.jpg,34850673,right,1748248622.304,/home/najo/NAS/DIP/datasets/Fr5_intertek_dataset/Fr5_intertek_1st_250526/joint/joint_30779426_1748248622.315.json,1748248622.315,0.0110001564025878,-62.67645807549505,-98.96158048422028,99.90901531559406,-90.96353360922028,-90.00043510210396,27.34225131497524,/home/najo/NAS/DIP/datasets/Fr5_intertek_dataset/preprocessed_roi/Fr5_intertek_1st_250526_zed_34850673_right_1748248622.304.jpg,990,194,1503,1029
/home/najo/NAS/DIP/datasets/Fr5_intertek_dataset/Fr5_intertek_1st_250526/right/zed_34850673_left_1748248622.304.jpg,34850673,left,1748248622.304,/home/najo/NAS/DIP/datasets/Fr5_intertek_dataset/Fr5_intertek_1st_250526/joint/joint_30779426_1748248622.315.json,1748248622.315,0.0110001564025878,-62.67645807549505,-98.96158048422028,99.90901531559406,-90.96353360922028,-90.00043510210396,27.34225131497524,/home/najo/NAS/DIP/datasets/Fr5_intertek_dataset/preprocessed_roi/Fr5_intertek_1st_250526_zed_34850673_left_1748248622.304.jpg,1091,194,1665,1029
/home/najo/NAS/DIP/datasets/Fr5_intertek_dataset/Fr5_intertek_1st_250526/left/zed_38007749_left_1748248622.308.jpg,38007749,left,1748248622.308,/home/najo/NAS/DIP/datasets/Fr5_intertek_dataset/Fr5_intertek_1st_250526/joint/joint_30779426_1748248622.315.json,1748248622.315,0.0069999694824218,-62.67645807549505,-98.96158048422028,99.90901531559406,-90.96353360922028,-90.00043510210396,27.34225131497524,/home/najo/NAS/DIP/datasets/Fr5_intertek_dataset/preprocessed_roi/Fr5_intertek_1st_250526_zed_38007749_left_1748248622.308.jpg,386,156,791,999
/home/najo/NAS/DIP/datasets/Fr5_intertek_dataset/Fr5_intertek_1st_250526/left/zed_38007749_right_1748248622.308.jpg,38007749,right,1748248622.308,/home/najo/NAS/DIP/datasets/Fr5_intertek_dataset/Fr5_intertek_1st_250526/joint/joint_30779426_1748248622.315.json,1748248622.315,0.0069999694824218,-62.67645807549505,-98.96158048422028,99.90901531559406,-90.96353360922028,-90.00043510210396,27.34225131497524,/home/najo/NAS/DIP/datasets/Fr5_intertek_dataset/preprocessed_roi/Fr5_intertek_1st_250526_zed_38007749_right_1748248622.308.jpg,202,156,588,999
/home/najo/NAS/DIP/datasets/Fr5_intertek_dataset/Fr5_intertek_1st_250526/top/zed_30779426_right_1748248622.315.jpg,30779426,right,1748248622.315,/home/najo/NAS/DIP/datasets/Fr5_intertek_dataset/Fr5_intertek_1st_250526/joint/joint_30779426_1748248622.315.json,1748248622.315,0.0,-62.67645807549505,-98.96158048422028,99.90901531559406,-90.96353360922028,-90.00043510210396,27.34225131497524,/home/najo/NAS/DIP/datasets/Fr5_intertek_dataset/preprocessed_roi/Fr5_intertek_1st_250526_zed_30779426_right_1748248622.315.jpg,776,388,1383,786
/home/najo/NAS/DIP/datasets/Fr5_intertek_dataset/Fr5_intertek_1st_250526/top/zed_30779426_left_1748248622.315.jpg,30779426,left,1748248622.315,/home/najo/NAS/DIP/datasets/Fr5_intertek_dataset/Fr5_intertek_1st_250526/joint/joint_30779426_1748248622.315.json,1748248622.315,0.0,-62.67645807549505,-98.96158048422028,99.90901531559406,-90.96353360922028,-90.00043510210396,27.34225131497524,/home/najo/NAS/DIP/datasets/Fr5_intertek_dataset/preprocessed_roi/Fr5_intertek_1st_250526_zed_30779426_left_1748248622.315.jpg,900,386,1511,788
/home/najo/NAS/DIP/datasets/Fr5_intertek_dataset/Fr5_intertek_1st_250526/left/zed_38007749_right_1748248622.445.jpg,38007749,right,1748248622.445,/home/najo/NAS/DIP/datasets/Fr5_intertek_dataset/Fr5_intertek_1st_250526/joint/joint_38007749_1748248622.445.json,1748248622.445,0.0,-60.6192953279703,-96.65140586324256,97.60819538985147,-90.95722462871286,-90.0,29.38375038675742,/home/najo/NAS/DIP/datasets/Fr5_intertek_dataset/preprocessed_roi/Fr5_intertek_1st_250526_zed_38007749_right_1748248622.445.jpg,225,149,611,1001
/home/najo/NAS/DIP/datasets/Fr5_intertek_dataset/Fr5_intertek_1st_250526/left/zed_38007749_left_1748248622.445.jpg,38007749,left,1748248622.445,/home/najo/NAS/DIP/datasets/Fr5_intertek_dataset/Fr5_intertek_1st_250526/joint/joint_38007749_1748248622.445.json,1748248622.445,0.0,-60.6192953279703,-96.65140586324256,97.60819538985147,-90.95722462871286,-90.0,29.38375038675742,/home/najo/NAS/DIP/datasets/Fr5_intertek_dataset/preprocessed_roi/Fr5_intertek_1st_250526_zed_38007749_left_1748248622.445.jpg,386,149,825,999
/home/najo/NAS/DIP/datasets/Fr5_intertek_dataset/Fr5_intertek_1st_250526/right/zed_34850673_left_1748248622.450.jpg,34850673,left,1748248622.45,/home/najo/NAS/DIP/datasets/Fr5_intertek_dataset/Fr5_intertek_1st_250526/joint/joint_34850673_1748248622.450.json,1748248622.45,0.0,-60.55555286974009,-96.57678585241337,97.53640354269804,-90.95483156714108,-90.00043510210396,29.44727529393564,/home/najo/NAS/DIP/datasets/Fr5_intertek_dataset/preprocessed_roi/Fr5_intertek_1st_250526_zed_34850673_left_1748248622.450.jpg,1068,194,1642,1029
/home/najo/NAS/DIP/datasets/Fr5_intertek_dataset/Fr5_intertek_1st_250526/right/zed_34850673_right_1748248622.450.jpg,34850673,right,1748248622.45,/home/najo/NAS/DIP/datasets/Fr5_intertek_dataset/Fr5_intertek_1st_250526/joint/joint_34850673_1748248622.450.json,1748248622.45,0.0,-60.55555286974009,-96.57678585241337,97.53640354269804,-90.95483156714108,-90.00043510210396,29.44727529393564,/home/najo/NAS/DIP/datasets/Fr5_intertek_dataset/preprocessed_roi/Fr5_intertek_1st_250526_zed_34850673_right_1748248622.450.jpg,967,194,1481,1029
/home/najo/NAS/DIP/datasets/Fr5_intertek_dataset/Fr5_intertek_1st_250526/top/zed_30779426_right_1748248622.455.jpg,30779426,right,1748248622.455,/home/najo/NAS/DIP/datasets/Fr5_intertek_dataset/Fr5_intertek_1st_250526/joint/joint_30779426_1748248622.455.json,1748248622.455,0.0,-60.41392713490098,-96.4084013381807,97.371717396349,-90.95309115872524,-90.00065265315594,29.58585531404703,/home/najo/NAS/DIP/datasets/Fr5_intertek_dataset/preprocessed_roi/Fr5_intertek_1st_250526_zed_30779426_right_1748248622.455.jpg,791,364,1387,782
/home/najo/NAS/DIP/datasets/Fr5_intertek_dataset/Fr5_intertek_1st_250526/top/zed_30779426_left_1748248622.455.jpg,30779426,left,1748248622.455,/home/najo/NAS/DIP/datasets/Fr5_intertek_dataset/Fr5_intertek_1st_250526/joint/joint_30779426_1748248622.455.json,1748248622.455,0.0,-60.41392713490098,-96.4084013381807,97.371717396349,-90.95309115872524,-90.00065265315594,29.58585531404703,/home/najo/NAS/DIP/datasets/Fr5_intertek_dataset/preprocessed_roi/Fr5_intertek_1st_250526_zed_30779426_left_1748248622.455.jpg,911,364,1518,782
/home/najo/NAS/DIP/datasets/Fr5_intertek_dataset/Fr5_intertek_1st_250526/left/zed_38007749_right_1748248622.583.jpg,38007749,right,1748248622.583,/home/najo/NAS/DIP/datasets/Fr5_intertek_dataset/Fr5_intertek_1st_250526/joint/joint_38007749_1748248622.583.json,1748248622.583,0.0,-58.36981745049505,-94.10584100402228,95.05653910117574,-90.95069809715346,-90.0,31.63235806002475,/home/najo/NAS/DIP/datasets/Fr5_intertek_dataset/preprocessed_roi/Fr5_intertek_1st_250526_zed_38007749_right_1748248622.583.jpg,247,141,656,999
/home/najo/NAS/DIP/datasets/Fr5_intertek_dataset/Fr5_intertek_1st_250526/left/zed_38007749_left_1748248622.583.jpg,38007749,left,1748248622.583,/home/najo/NAS/DIP/datasets/Fr5_intertek_dataset/Fr5_intertek_1st_250526/joint/joint_38007749_1748248622.583.json,1748248622.583,0.0,-58.36981745049505,-94.10584100402228,95.05653910117574,-90.95069809715346,-90.0,31.63235806002475,/home/najo/NAS/DIP/datasets/Fr5_intertek_dataset/preprocessed_roi/Fr5_intertek_1st_250526_zed_38007749_left_1748248622.583.jpg,386,139,873,999
/home/najo/NAS/DIP/datasets/Fr5_intertek_dataset/Fr5_intertek_1st_250526/right/zed_34850673_left_1748248622.588.jpg,34850673,left,1748248622.588,/home/najo/NAS/DIP/datasets/Fr5_intertek_dataset/Fr5_intertek_1st_250526/joint/joint_34850673_1748248622.588.json,1748248622.588,0.0,-58.35350112159653,-94.08821936881186,95.03804726175744,-90.95048054610147,-90.00021755105197,31.64780418471534,/home/najo/NAS/DIP/datasets/Fr5_intertek_dataset/preprocessed_roi/Fr5_intertek_1st_250526_zed_34850673_left_1748248622.588.jpg,1050,196,1616,1029
/home/najo/NAS/DIP/datasets/Fr5_intertek_dataset/Fr5_intertek_1st_250526/right/zed_34850673_right_1748248622.588.jpg,34850673,right,1748248622.588,/home/najo/NAS/DIP/datasets/Fr5_intertek_dataset/Fr5_intertek_1st_250526/joint/joint_34850673_1748248622.588.json,1748248622.588,0.0,-58.35350112159653,-94.08821936881186,95.03804726175744,-90.95048054610147,-90.00021755105197,31.64780418471534,/home/najo/NAS/DIP/datasets/Fr5_intertek_dataset/preprocessed_roi/Fr5_intertek_1st_250526_zed_34850673_right_1748248622.588.jpg,948,196,1470,1029
/home/najo/NAS/DIP/datasets/Fr5_intertek_dataset/Fr5_intertek_1st_250526/top/zed_30779426_right_1748248622.595.jpg,30779426,right,1748248622.595,/home/najo/NAS/DIP/datasets/Fr5_intertek_dataset/Fr5_intertek_1st_250526/joint/joint_30779426_1748248622.595.json,1748248622.595,0.0,-58.20839456992574,-93.92940710086634,94.87379621751238,-90.9493927908416,-89.99956489789604,31.78921236850247,/home/najo/NAS/DIP/datasets/Fr5_intertek_dataset/preprocessed_roi/Fr5_intertek_1st_250526_zed_30779426_right_1748248622.595.jpg,798,341,1395,774
/home/najo/NAS/DIP/datasets/Fr5_intertek_dataset/Fr5_intertek_1st_250526/top/zed_30779426_left_1748248622.595.jpg,30779426,left,1748248622.595,/home/najo/NAS/DIP/datasets/Fr5_intertek_dataset/Fr5_intertek_1st_250526/joint/joint_30779426_1748248622.595.json,1748248622.595,0.0,-58.20839456992574,-93.92940710086634,94.87379621751238,-90.9493927908416,-89.99956489789604,31.78921236850247,/home/najo/NAS/DIP/datasets/Fr5_intertek_dataset/preprocessed_roi/Fr5_intertek_1st_250526_zed_30779426_left_1748248622.595.jpg,922,339,1522,776
/home/najo/NAS/DIP/datasets/Fr5_intertek_dataset/Fr5_intertek_1st_250526/left/zed_38007749_right_1748248622.723.jpg,38007749,right,1748248622.723,/home/najo/NAS/DIP/datasets/Fr5_intertek_dataset/Fr5_intertek_1st_250526/joint/joint_38007749_1748248622.723.json,1748248622.723,0.0,-56.15841100711633,-91.6401173808787,92.5727587407178,-90.94438911664604,-90.00021755105197,33.83397470606435,/home/najo/NAS/DIP/datasets/Fr5_intertek_dataset/preprocessed_roi/Fr5_intertek_1st_250526_zed_38007749_right_1748248622.723.jpg,247,137,693,1001
/home/najo/NAS/DIP/datasets/Fr5_intertek_dataset/Fr5_intertek_1st_250526/left/zed_38007749_left_1748248622.723.jpg,38007749,left,1748248622.723,/home/najo/NAS/DIP/datasets/Fr5_intertek_dataset/Fr5_intertek_1st_250526/joint/joint_38007749_1748248622.723.json,1748248622.723,0.0,-56.15841100711633,-91.6401173808787,92.5727587407178,-90.94438911664604,-90.00021755105197,33.83397470606435,/home/najo/NAS/DIP/datasets/Fr5_intertek_dataset/preprocessed_roi/Fr5_intertek_1st_250526_zed_38007749_left_1748248622.723.jpg,386,137,915,999
/home/najo/NAS/DIP/datasets/Fr5_intertek_dataset/Fr5_intertek_1st_250526/right/zed_34850673_left_1748248622.727.jpg,34850673,left,1748248622.727,/home/najo/NAS/DIP/datasets/Fr5_intertek_dataset/Fr5_intertek_1st_250526/joint/joint_34850673_1748248622.727.json,1748248622.727,0.0,-56.14318243347772,-91.62184309251238,92.55513710550744,-90.94417156559406,-90.00021755105197,33.85029103496287,/home/najo/NAS/DIP/datasets/Fr5_intertek_dataset/preprocessed_roi/Fr5_intertek_1st_250526_zed_34850673_left_1748248622.727.jpg,1031,198,1616,1029
/home/najo/NAS/DIP/datasets/Fr5_intertek_dataset/Fr5_intertek_1st_250526/right/zed_34850673_right_1748248622.727.jpg,34850673,right,1748248622.727,/home/najo/NAS/DIP/datasets/Fr5_intertek_dataset/Fr5_intertek_1st_250526/joint/joint_34850673_1748248622.727.json,1748248622.727,0.0,-56.14318243347772,-91.62184309251238,92.55513710550744,-90.94417156559406,-90.00021755105197,33.85029103496287,/home/najo/NAS/DIP/datasets/Fr5_intertek_dataset/preprocessed_roi/Fr5_intertek_1st_250526_zed_34850673_right_1748248622.727.jpg,930,198,1470,1029
/home/najo/NAS/DIP/datasets/Fr5_intertek_dataset/Fr5_intertek_1st_250526/top/zed_30779426_right_1748248622.734.jpg,30779426,right,1748248622.734,/home/najo/NAS/DIP/datasets/Fr5_intertek_dataset/Fr5_intertek_1st_250526/joint/joint_30779426_1748248622.734.json,1748248622.734,0.0,-56.0344069074876,-91.49675123762376,92.4333085163985,-90.9426487082302,-90.00021755105197,33.96211227568069,/home/najo/NAS/DIP/datasets/Fr5_intertek_dataset/preprocessed_roi/Fr5_intertek_1st_250526_zed_30779426_right_1748248622.734.jpg,810,318,1398,765
/home/najo/NAS/DIP/datasets/Fr5_intertek_dataset/Fr5_intertek_1st_250526/top/zed_30779426_left_1748248622.734.jpg,30779426,left,1748248622.734,/home/najo/NAS/DIP/datasets/Fr5_intertek_dataset/Fr5_intertek_1st_250526/joint/joint_30779426_1748248622.734.json,1748248622.734,0.0,-56.0344069074876,-91.49675123762376,92.4333085163985,-90.9426487082302,-90.00021755105197,33.96211227568069,/home/najo/NAS/DIP/datasets/Fr5_intertek_dataset/preprocessed_roi/Fr5_intertek_1st_250526_zed_30779426_left_1748248622.734.jpg,933,316,1526,767
/home/najo/NAS/DIP/datasets/Fr5_intertek_dataset/Fr5_intertek_1st_250526/left/zed_38007749_left_1748248622.861.jpg,38007749,left,1748248622.861,/home/najo/NAS/DIP/datasets/Fr5_intertek_dataset/Fr5_intertek_1st_250526/joint/joint_38007749_1748248622.861.json,1748248622.861,0.0,-53.9681070157797,-89.14872273360149,90.0922416460396,-90.9361221766708,-89.99978244894803,36.0384195157797,/home/najo/NAS/DIP/datasets/Fr5_intertek_dataset/preprocessed_roi/Fr5_intertek_1st_250526_zed_38007749_left_1748248622.861.jpg,386,135,956,999
/home/najo/NAS/DIP/datasets/Fr5_intertek_dataset/Fr5_intertek_1st_250526/left/zed_38007749_right_1748248622.861.jpg,38007749,right,1748248622.861,/home/najo/NAS/DIP/datasets/Fr5_intertek_dataset/Fr5_intertek_1st_250526/joint/joint_38007749_1748248622.861.json,1748248622.861,0.0,-53.9681070157797,-89.14872273360149,90.0922416460396,-90.9361221766708,-89.99978244894803,36.0384195157797,/home/najo/NAS/DIP/datasets/Fr5_intertek_dataset/preprocessed_roi/Fr5_intertek_1st_250526_zed_38007749_right_1748248622.861.jpg,247,137,738,1001
/home/najo/NAS/DIP/datasets/Fr5_intertek_dataset/Fr5_intertek_1st_250526/right/zed_34850673_right_1748248622.866.jpg,34850673,right,1748248622.866,/home/najo/NAS/DIP/datasets/Fr5_intertek_dataset/Fr5_intertek_1st_250526/joint/joint_34850673_1748248622.866.json,1748248622.866,0.0,-53.93677966429455,-89.11173905476485,90.05547551825495,-90.9361221766708,-90.0,36.07105217357673,/home/najo/NAS/DIP/datasets/Fr5_intertek_dataset/preprocessed_roi/Fr5_intertek_1st_250526_zed_34850673_right_1748248622.866.jpg,911,202,1470,1029
/home/najo/NAS/DIP/datasets/Fr5_intertek_dataset/Fr5_intertek_1st_250526/top/zed_30779426_left_1748248622.871.jpg,30779426,left,1748248622.871,/home/najo/NAS/DIP/datasets/Fr5_intertek_dataset/Fr5_intertek_1st_250526/joint/joint_30779426_1748248622.871.json,1748248622.871,0.0,-53.88957108601485,-89.0573512917698,90.00065265315594,-90.9361221766708,-90.0,36.1197836092203,/home/najo/NAS/DIP/datasets/Fr5_intertek_dataset/preprocessed_roi/Fr5_intertek_1st_250526_zed_30779426_left_1748248622.871.jpg,948,286,1530,755
/home/najo/NAS/DIP/datasets/Fr5_intertek_dataset/Fr5_intertek_1st_250526/right/zed_34850673_left_1748248622.866.jpg,34850673,left,1748248622.866,/home/najo/NAS/DIP/datasets/Fr5_intertek_dataset/Fr5_intertek_1st_250526/joint/joint_34850673_1748248622.866.json,1748248622.866,0.0,-53.93677966429455,-89.11173905476485,90.05547551825495,-90.9361221766708,-90.0,36.07105217357673,/home/najo/NAS/DIP/datasets/Fr5_intertek_dataset/preprocessed_roi/Fr5_intertek_1st_250526_zed_34850673_left_1748248622.866.jpg,1012,200,1616,1029
/home/najo/NAS/DIP/datasets/Fr5_intertek_dataset/Fr5_intertek_1st_250526/top/zed_30779426_right_1748248622.871.jpg,30779426,right,1748248622.871,/home/najo/NAS/DIP/datasets/Fr5_intertek_dataset/Fr5_intertek_1st_250526/joint/joint_30779426_1748248622.871.json,1748248622.871,0.0,-53.88957108601485,-89.0573512917698,90.00065265315594,-90.9361221766708,-90.0,36.1197836092203,/home/najo/NAS/DIP/datasets/Fr5_intertek_dataset/preprocessed_roi/Fr5_intertek_1st_250526_zed_30779426_right_1748248622.871.jpg,825,286,1398,755
/home/najo/NAS/DIP/datasets/Fr5_intertek_dataset/Fr5_intertek_1st_250526/left/zed_38007749_left_1748248622.999.jpg,38007749,left,1748248622.999,/home/najo/NAS/DIP/datasets/Fr5_intertek_dataset/Fr5_intertek_1st_250526/joint/joint_34850673_1748248623.004.json,1748248623.004,0.0049998760223388,-51.81870262221534,-86.72781462716584,87.65501721070545,-90.93090095142328,-90.00043510210396,38.19369778774752,/home/najo/NAS/DIP/datasets/Fr5_intertek_dataset/preprocessed_roi/Fr5_intertek_1st_250526_zed_38007749_left_1748248622.999.jpg,386,137,997,999
/home/najo/NAS/DIP/datasets/Fr5_intertek_dataset/Fr5_intertek_1st_250526/left/zed_38007749_right_1748248622.999.jpg,38007749,right,1748248622.999,/home/najo/NAS/DIP/datasets/Fr5_intertek_dataset/Fr5_intertek_1st_250526/joint/joint_34850673_1748248623.004.json,1748248623.004,0.0049998760223388,-51.81870262221534,-86.72781462716584,87.65501721070545,-90.93090095142328,-90.00043510210396,38.19369778774752,/home/najo/NAS/DIP/datasets/Fr5_intertek_dataset/preprocessed_roi/Fr5_intertek_1st_250526_zed_38007749_right_1748248622.999.jpg,247,137,780,1001
/home/najo/NAS/DIP/datasets/Fr5_intertek_dataset/Fr5_intertek_1st_250526/right/zed_34850673_left_1748248623.004.jpg,34850673,left,1748248623.004,/home/najo/NAS/DIP/datasets/Fr5_intertek_dataset/Fr5_intertek_1st_250526/joint/joint_34850673_1748248623.004.json,1748248623.004,0.0,-51.81870262221534,-86.72781462716584,87.65501721070545,-90.93090095142328,-90.00043510210396,38.19369778774752,/home/najo/NAS/DIP/datasets/Fr5_intertek_dataset/preprocessed_roi/Fr5_intertek_1st_250526_zed_34850673_left_1748248623.004.jpg,990,204,1616,1029
/home/najo/NAS/DIP/datasets/Fr5_intertek_dataset/Fr5_intertek_1st_250526/right/zed_34850673_right_1748248623.004.jpg,34850673,right,1748248623.004,/home/najo/NAS/DIP/datasets/Fr5_intertek_dataset/Fr5_intertek_1st_250526/joint/joint_34850673_1748248623.004.json,1748248623.004,0.0,-51.81870262221534,-86.72781462716584,87.65501721070545,-90.93090095142328,-90.00043510210396,38.19369778774752,/home/najo/NAS/DIP/datasets/Fr5_intertek_dataset/preprocessed_roi/Fr5_intertek_1st_250526_zed_34850673_right_1748248623.004.jpg,888,204,1470,1029
/home/najo/NAS/DIP/datasets/Fr5_intertek_dataset/Fr5_intertek_1st_250526/top/zed_30779426_right_1748248623.009.jpg,30779426,right,1748248623.009,/home/najo/NAS/DIP/datasets/Fr5_intertek_dataset/Fr5_intertek_1st_250526/joint/joint_30779426_1748248623.009.json,1748248623.009,0.0,-51.5739576887376,-86.46392520111387,87.38133798731435,-90.92916054300744,-90.0,38.42974067914603,/home/najo/NAS/DIP/datasets/Fr5_intertek_dataset/preprocessed_roi/Fr5_intertek_1st_250526_zed_30779426_right_1748248623.009.jpg,832,261,1402,744
/home/najo/NAS/DIP/datasets/Fr5_intertek_dataset/Fr5_intertek_1st_250526/top/zed_30779426_left_1748248623.009.jpg,30779426,left,1748248623.009,/home/najo/NAS/DIP/datasets/Fr5_intertek_dataset/Fr5_intertek_1st_250526/joint/joint_30779426_1748248623.009.json,1748248623.009,0.0,-51.5739576887376,-86.46392520111387,87.38133798731435,-90.92916054300744,-90.0,38.42974067914603,/home/najo/NAS/DIP/datasets/Fr5_intertek_dataset/preprocessed_roi/Fr5_intertek_1st_250526_zed_30779426_left_1748248623.009.jpg,952,261,1530,744
/home/najo/NAS/DIP/datasets/Fr5_intertek_dataset/Fr5_intertek_1st_250526/left/zed_38007749_left_1748248623.134.jpg,38007749,left,1748248623.134,/home/najo/NAS/DIP/datasets/Fr5_intertek_dataset/Fr5_intertek_1st_250526/joint/joint_38007749_1748248623.134.json,1748248623.134,0.0,-49.56813698948019,-84.22097385519803,85.1416499071782,-90.92437441986388,-89.99956489789604,40.41815729424505,/home/najo/NAS/DIP/datasets/Fr5_intertek_dataset/preprocessed_roi/Fr5_intertek_1st_250526_zed_38007749_left_1748248623.134.jpg,386,145,1042,999
/home/najo/NAS/DIP/datasets/Fr5_intertek_dataset/Fr5_intertek_1st_250526/left/zed_38007749_right_1748248623.134.jpg,38007749,right,1748248623.134,/home/najo/NAS/DIP/datasets/Fr5_intertek_dataset/Fr5_intertek_1st_250526/joint/joint_38007749_1748248623.134.json,1748248623.134,0.0,-49.56813698948019,-84.22097385519803,85.1416499071782,-90.92437441986388,-89.99956489789604,40.41815729424505,/home/najo/NAS/DIP/datasets/Fr5_intertek_dataset/preprocessed_roi/Fr5_intertek_1st_250526_zed_38007749_right_1748248623.134.jpg,247,139,821,1001
/home/najo/NAS/DIP/datasets/Fr5_intertek_dataset/Fr5_intertek_1st_250526/right/zed_34850673_left_1748248623.139.jpg,34850673,left,1748248623.139,/home/najo/NAS/DIP/datasets/Fr5_intertek_dataset/Fr5_intertek_1st_250526/joint/joint_38007749_1748248623.134.json,1748248623.134,0.0049998760223388,-49.56813698948019,-84.22097385519803,85.1416499071782,-90.92437441986388,-89.99956489789604,40.41815729424505,/home/najo/NAS/DIP/datasets/Fr5_intertek_dataset/preprocessed_roi/Fr5_intertek_1st_250526_zed_34850673_left_1748248623.139.jpg,971,208,1616,1029
/home/najo/NAS/DIP/datasets/Fr5_intertek_dataset/Fr5_intertek_1st_250526/right/zed_34850673_right_1748248623.139.jpg,34850673,right,1748248623.139,/home/najo/NAS/DIP/datasets/Fr5_intertek_dataset/Fr5_intertek_1st_250526/joint/joint_38007749_1748248623.134.json,1748248623.134,0.0049998760223388,-49.56813698948019,-84.22097385519803,85.1416499071782,-90.92437441986388,-89.99956489789604,40.41815729424505,/home/najo/NAS/DIP/datasets/Fr5_intertek_dataset/preprocessed_roi/Fr5_intertek_1st_250526_zed_34850673_right_1748248623.139.jpg,870,210,1470,1029
/home/najo/NAS/DIP/datasets/Fr5_intertek_dataset/Fr5_intertek_1st_250526/top/zed_30779426_right_1748248623.148.jpg,30779426,right,1748248623.148,/home/najo/NAS/DIP/datasets/Fr5_intertek_dataset/Fr5_intertek_1st_250526/joint/joint_30779426_1748248623.148.json,1748248623.148,0.0,-49.37603941058168,-84.00211749690594,84.92888497834159,-90.9228515625,-89.99978244894803,40.61156017945544,/home/najo/NAS/DIP/datasets/Fr5_intertek_dataset/preprocessed_roi/Fr5_intertek_1st_250526_zed_30779426_right_1748248623.148.jpg,843,236,1398,731
/home/najo/NAS/DIP/datasets/Fr5_intertek_dataset/Fr5_intertek_1st_250526/top/zed_30779426_left_1748248623.148.jpg,30779426,left,1748248623.148,/home/najo/NAS/DIP/datasets/Fr5_intertek_dataset/Fr5_intertek_1st_250526/joint/joint_30779426_1748248623.148.json,1748248623.148,0.0,-49.37603941058168,-84.00211749690594,84.92888497834159,-90.9228515625,-89.99978244894803,40.61156017945544,/home/najo/NAS/DIP/datasets/Fr5_intertek_dataset/preprocessed_roi/Fr5_intertek_1st_250526_zed_30779426_left_1748248623.148.jpg,952,236,1526,731
/home/najo/NAS/DIP/datasets/Fr5_intertek_dataset/Fr5_intertek_1st_250526/right/zed_34850673_left_1748248623.273.jpg,34850673,left,1748248623.273,/home/najo/NAS/DIP/datasets/Fr5_intertek_dataset/Fr5_intertek_1st_250526/joint/joint_34850673_1748248623.273.json,1748248623.273,0.0,-47.36434483292079,-81.72022451268565,82.6432936262376,-90.91697768409654,-89.99956489789604,42.63195679919554,/home/najo/NAS/DIP/datasets/Fr5_intertek_dataset/preprocessed_roi/Fr5_intertek_1st_250526_zed_34850673_left_1748248623.273.jpg,948,215,1616,1029
/home/najo/NAS/DIP/datasets/Fr5_intertek_dataset/Fr5_intertek_1st_250526/right/zed_34850673_right_1748248623.273.jpg,34850673,right,1748248623.273,/home/najo/NAS/DIP/datasets/Fr5_intertek_dataset/Fr5_intertek_1st_250526/joint/joint_34850673_1748248623.273.json,1748248623.273,0.0,-47.36434483292079,-81.72022451268565,82.6432936262376,-90.91697768409654,-89.99956489789604,42.63195679919554,/home/najo/NAS/DIP/datasets/Fr5_intertek_dataset/preprocessed_roi/Fr5_intertek_1st_250526_zed_34850673_right_1748248623.273.jpg,847,215,1470,1029
/home/najo/NAS/DIP/datasets/Fr5_intertek_dataset/Fr5_intertek_1st_250526/left/zed_38007749_right_1748248623.280.jpg,38007749,right,1748248623.28,/home/najo/NAS/DIP/datasets/Fr5_intertek_dataset/Fr5_intertek_1st_250526/joint/joint_38007749_1748248623.280.json,1748248623.28,0.0,-47.28885461788366,-81.6349445003094,82.55518545018565,-90.9150197246287,-90.0,42.71114538211633,/home/najo/NAS/DIP/datasets/Fr5_intertek_dataset/preprocessed_roi/Fr5_intertek_1st_250526_zed_38007749_right_1748248623.280.jpg,247,145,866,999
/home/najo/NAS/DIP/datasets/Fr5_intertek_dataset/Fr5_intertek_1st_250526/left/zed_38007749_left_1748248623.280.jpg,38007749,left,1748248623.28,/home/najo/NAS/DIP/datasets/Fr5_intertek_dataset/Fr5_intertek_1st_250526/joint/joint_38007749_1748248623.280.json,1748248623.28,0.0,-47.28885461788366,-81.6349445003094,82.55518545018565,-90.9150197246287,-90.0,42.71114538211633,/home/najo/NAS/DIP/datasets/Fr5_intertek_dataset/preprocessed_roi/Fr5_intertek_1st_250526_zed_38007749_left_1748248623.280.jpg,386,147,1087,999
/home/najo/NAS/DIP/datasets/Fr5_intertek_dataset/Fr5_intertek_1st_250526/top/zed_30779426_left_1748248623.287.jpg,30779426,left,1748248623.287,/home/najo/NAS/DIP/datasets/Fr5_intertek_dataset/Fr5_intertek_1st_250526/joint/joint_30779426_1748248623.287.json,1748248623.287,0.0,-47.18312480662128,-81.51115795173267,82.4292233910891,-90.9150197246287,-90.00043510210396,42.82383682704208,/home/najo/NAS/DIP/datasets/Fr5_intertek_dataset/preprocessed_roi/Fr5_intertek_1st_250526_zed_30779426_left_1748248623.287.jpg,948,210,1522,721
/home/najo/NAS/DIP/datasets/Fr5_intertek_dataset/Fr5_intertek_1st_250526/top/zed_30779426_right_1748248623.287.jpg,30779426,right,1748248623.287,/home/najo/NAS/DIP/datasets/Fr5_intertek_dataset/Fr5_intertek_1st_250526/joint/joint_30779426_1748248623.287.json,1748248623.287,0.0,-47.18312480662128,-81.51115795173267,82.4292233910891,-90.9150197246287,-90.00043510210396,42.82383682704208,/home/najo/NAS/DIP/datasets/Fr5_intertek_dataset/preprocessed_roi/Fr5_intertek_1st_250526_zed_30779426_right_1748248623.287.jpg,851,210,1395,721
/home/najo/NAS/DIP/datasets/Fr5_intertek_dataset/Fr5_intertek_1st_250526/right/zed_34850673_left_1748248623.413.jpg,34850673,left,1748248623.413,/home/najo/NAS/DIP/datasets/Fr5_intertek_dataset/Fr5_intertek_1st_250526/joint/joint_34850673_1748248623.413.json,1748248623.413,0.0,-45.16599145266089,-79.24558129641089,80.1462426516089,-90.911756458849,-90.0,44.84140528310643,/home/najo/NAS/DIP/datasets/Fr5_intertek_dataset/preprocessed_roi/Fr5_intertek_1st_250526_zed_34850673_left_1748248623.413.jpg,926,221,1616,1029
/home/najo/NAS/DIP/datasets/Fr5_intertek_dataset/Fr5_intertek_1st_250526/right/zed_34850673_right_1748248623.413.jpg,34850673,right,1748248623.413,/home/najo/NAS/DIP/datasets/Fr5_intertek_dataset/Fr5_intertek_1st_250526/joint/joint_34850673_1748248623.413.json,1748248623.413,0.0,-45.16599145266089,-79.24558129641089,80.1462426516089,-90.911756458849,-90.0,44.84140528310643,/home/najo/NAS/DIP/datasets/Fr5_intertek_dataset/preprocessed_roi/Fr5_intertek_1st_250526_zed_34850673_right_1748248623.413.jpg,821,221,1470,1029
/home/najo/NAS/DIP/datasets/Fr5_intertek_dataset/Fr5_intertek_1st_250526/left/zed_38007749_right_1748248623.418.jpg,38007749,right,1748248623.418,/home/najo/NAS/DIP/datasets/Fr5_intertek_dataset/Fr5_intertek_1st_250526/joint/joint_38007749_1748248623.418.json,1748248623.418,0.0,-45.13335879486386,-79.20946782178218,80.11034672803218,-90.911756458849,-90.0,44.8725150835396,/home/najo/NAS/DIP/datasets/Fr5_intertek_dataset/preprocessed_roi/Fr5_intertek_1st_250526_zed_38007749_right_1748248623.418.jpg,247,156,922,1001
/home/najo/NAS/DIP/datasets/Fr5_intertek_dataset/Fr5_intertek_1st_250526/left/zed_38007749_left_1748248623.418.jpg,38007749,left,1748248623.418,/home/najo/NAS/DIP/datasets/Fr5_intertek_dataset/Fr5_intertek_1st_250526/joint/joint_38007749_1748248623.418.json,1748248623.418,0.0,-45.13335879486386,-79.20946782178218,80.11034672803218,-90.911756458849,-90.0,44.8725150835396,/home/najo/NAS/DIP/datasets/Fr5_intertek_dataset/preprocessed_roi/Fr5_intertek_1st_250526_zed_38007749_left_1748248623.418.jpg,386,156,1140,999
/home/najo/NAS/DIP/datasets/Fr5_intertek_dataset/Fr5_intertek_1st_250526/top/zed_30779426_left_1748248623.425.jpg,30779426,left,1748248623.425,/home/najo/NAS/DIP/datasets/Fr5_intertek_dataset/Fr5_intertek_1st_250526/joint/joint_30779426_1748248623.425.json,1748248623.425,0.0,-44.9571424427599,-79.01650003867574,79.91737894492574,-90.91088625464108,-90.00043510210396,45.05134204826733,/home/najo/NAS/DIP/datasets/Fr5_intertek_dataset/preprocessed_roi/Fr5_intertek_1st_250526_zed_30779426_left_1748248623.425.jpg,945,185,1518,721
/home/najo/NAS/DIP/datasets/Fr5_intertek_dataset/Fr5_intertek_1st_250526/top/zed_30779426_right_1748248623.425.jpg,30779426,right,1748248623.425,/home/najo/NAS/DIP/datasets/Fr5_intertek_dataset/Fr5_intertek_1st_250526/joint/joint_30779426_1748248623.425.json,1748248623.425,0.0,-44.9571424427599,-79.01650003867574,79.91737894492574,-90.91088625464108,-90.00043510210396,45.05134204826733,/home/najo/NAS/DIP/datasets/Fr5_intertek_dataset/preprocessed_roi/Fr5_intertek_1st_250526_zed_30779426_right_1748248623.425.jpg,858,185,1391,721
/home/najo/NAS/DIP/datasets/Fr5_intertek_dataset/Fr5_intertek_1st_250526/right/zed_34850673_left_1748248623.552.jpg,34850673,left,1748248623.552,/home/najo/NAS/DIP/datasets/Fr5_intertek_dataset/Fr5_intertek_1st_250526/joint/joint_34850673_1748248623.552.json,1748248623.552,0.0,-42.97372950185643,-76.79530379795793,77.70684270575495,-90.90261931466584,-89.99934734684406,47.01887376237624,/home/najo/NAS/DIP/datasets/Fr5_intertek_dataset/preprocessed_roi/Fr5_intertek_1st_250526_zed_34850673_left_1748248623.552.jpg,903,229,1616,1029
/home/najo/NAS/DIP/datasets/Fr5_intertek_dataset/Fr5_intertek_1st_250526/right/zed_34850673_right_1748248623.552.jpg,34850673,right,1748248623.552,/home/najo/NAS/DIP/datasets/Fr5_intertek_dataset/Fr5_intertek_1st_250526/joint/joint_34850673_1748248623.552.json,1748248623.552,0.0,-42.97372950185643,-76.79530379795793,77.70684270575495,-90.90261931466584,-89.99934734684406,47.01887376237624,/home/najo/NAS/DIP/datasets/Fr5_intertek_dataset/preprocessed_roi/Fr5_intertek_1st_250526_zed_34850673_right_1748248623.552.jpg,798,229,1470,1029
/home/najo/NAS/DIP/datasets/Fr5_intertek_dataset/Fr5_intertek_1st_250526/left/zed_38007749_right_1748248623.557.jpg,38007749,right,1748248623.557,/home/najo/NAS/DIP/datasets/Fr5_intertek_dataset/Fr5_intertek_1st_250526/joint/joint_38007749_1748248623.557.json,1748248623.557,0.0,-42.92869643409653,-76.74570215810644,77.65941657642327,-90.90153155940594,-89.99912979579207,47.06129621751238,/home/najo/NAS/DIP/datasets/Fr5_intertek_dataset/preprocessed_roi/Fr5_intertek_1st_250526_zed_38007749_right_1748248623.557.jpg,247,166,967,999
/home/najo/NAS/DIP/datasets/Fr5_intertek_dataset/Fr5_intertek_1st_250526/left/zed_38007749_left_1748248623.557.jpg,38007749,left,1748248623.557,/home/najo/NAS/DIP/datasets/Fr5_intertek_dataset/Fr5_intertek_1st_250526/joint/joint_38007749_1748248623.557.json,1748248623.557,0.0,-42.92869643409653,-76.74570215810644,77.65941657642327,-90.90153155940594,-89.99912979579207,47.06129621751238,/home/najo/NAS/DIP/datasets/Fr5_intertek_dataset/preprocessed_roi/Fr5_intertek_1st_250526_zed_38007749_left_1748248623.557.jpg,386,166,1181,999
/home/najo/NAS/DIP/datasets/Fr5_intertek_dataset/Fr5_intertek_1st_250526/top/zed_30779426_right_1748248623.564.jpg,30779426,right,1748248623.564,/home/najo/NAS/DIP/datasets/Fr5_intertek_dataset/Fr5_intertek_1st_250526/joint/joint_30779426_1748248623.564.json,1748248623.564,0.0,-42.813611927599,-76.62017520111387,77.53563002784654,-90.90174911045791,-89.99804204053218,47.16898398824257,/home/najo/NAS/DIP/datasets/Fr5_intertek_dataset/preprocessed_roi/Fr5_intertek_1st_250526_zed_30779426_right_1748248623.564.jpg,851,160,1391,723
/home/najo/NAS/DIP/datasets/Fr5_intertek_dataset/Fr5_intertek_1st_250526/top/zed_30779426_left_1748248623.564.jpg,30779426,left,1748248623.564,/home/najo/NAS/DIP/datasets/Fr5_intertek_dataset/Fr5_intertek_1st_250526/joint/joint_30779426_1748248623.564.json,1748248623.564,0.0,-42.813611927599,-76.62017520111387,77.53563002784654,-90.90174911045791,-89.99804204053218,47.16898398824257,/home/najo/NAS/DIP/datasets/Fr5_intertek_dataset/preprocessed_roi/Fr5_intertek_1st_250526_zed_30779426_left_1748248623.564.jpg,941,160,1515,721
/home/najo/NAS/DIP/datasets/Fr5_intertek_dataset/Fr5_intertek_1st_250526/right/zed_34850673_left_1748248623.691.jpg,34850673,left,1748248623.691,/home/najo/NAS/DIP/datasets/Fr5_intertek_dataset/Fr5_intertek_1st_250526/joint/joint_34850673_1748248623.691.json,1748248623.691,0.0,-41.58444848391089,-75.23894357209159,76.14330329517327,-90.89935604888612,-89.9976069384282,48.40532661664603,/home/najo/NAS/DIP/datasets/Fr5_intertek_dataset/preprocessed_roi/Fr5_intertek_1st_250526_zed_34850673_left_1748248623.691.jpg,885,236,1616,1029
/home/najo/NAS/DIP/datasets/Fr5_intertek_dataset/Fr5_intertek_1st_250526/right/zed_34850673_right_1748248623.691.jpg,34850673,right,1748248623.691,/home/najo/NAS/DIP/datasets/Fr5_intertek_dataset/Fr5_intertek_1st_250526/joint/joint_34850673_1748248623.691.json,1748248623.691,0.0,-41.58444848391089,-75.23894357209159,76.14330329517327,-90.89935604888612,-89.9976069384282,48.40532661664603,/home/najo/NAS/DIP/datasets/Fr5_intertek_dataset/preprocessed_roi/Fr5_intertek_1st_250526_zed_34850673_right_1748248623.691.jpg,780,236,1470,1029
/home/najo/NAS/DIP/datasets/Fr5_intertek_dataset/Fr5_intertek_1st_250526/left/zed_38007749_right_1748248623.696.jpg,38007749,right,1748248623.696,/home/najo/NAS/DIP/datasets/Fr5_intertek_dataset/Fr5_intertek_1st_250526/joint/joint_38007749_1748248623.696.json,1748248623.696,0.0,-41.5690023592203,-75.21979907951733,76.12350614944307,-90.89913849783416,-89.9978244894802,48.4220780476485,/home/najo/NAS/DIP/datasets/Fr5_intertek_dataset/preprocessed_roi/Fr5_intertek_1st_250526_zed_38007749_right_1748248623.696.jpg,247,181,1005,999
/home/najo/NAS/DIP/datasets/Fr5_intertek_dataset/Fr5_intertek_1st_250526/left/zed_38007749_left_1748248623.696.jpg,38007749,left,1748248623.696,/home/najo/NAS/DIP/datasets/Fr5_intertek_dataset/Fr5_intertek_1st_250526/joint/joint_38007749_1748248623.696.json,1748248623.696,0.0,-41.5690023592203,-75.21979907951733,76.12350614944307,-90.89913849783416,-89.9978244894802,48.4220780476485,/home/najo/NAS/DIP/datasets/Fr5_intertek_dataset/preprocessed_roi/Fr5_intertek_1st_250526_zed_38007749_left_1748248623.696.jpg,386,177,1226,999
/home/najo/NAS/DIP/datasets/Fr5_intertek_dataset/Fr5_intertek_1st_250526/top/zed_30779426_left_1748248623.701.jpg,30779426,left,1748248623.701,/home/najo/NAS/DIP/datasets/Fr5_intertek_dataset/Fr5_intertek_1st_250526/joint/joint_30779426_1748248623.701.json,1748248623.701,0.0,-41.53288888459158,-75.17237295018565,76.07412206064356,-90.89957359993812,-89.99825959158416,48.46624091120049,/home/najo/NAS/DIP/datasets/Fr5_intertek_dataset/preprocessed_roi/Fr5_intertek_1st_250526_zed_30779426_left_1748248623.701.jpg,941,137,1511,721
/home/najo/NAS/DIP/datasets/Fr5_intertek_dataset/Fr5_intertek_1st_250526/top/zed_30779426_right_1748248623.701.jpg,30779426,right,1748248623.701,/home/najo/NAS/DIP/datasets/Fr5_intertek_dataset/Fr5_intertek_1st_250526/joint/joint_30779426_1748248623.701.json,1748248623.701,0.0,-41.53288888459158,-75.17237295018565,76.07412206064356,-90.89957359993812,-89.99825959158416,48.46624091120049,/home/najo/NAS/DIP/datasets/Fr5_intertek_dataset/preprocessed_roi/Fr5_intertek_1st_250526_zed_30779426_right_1748248623.701.jpg,847,135,1387,723
/home/najo/NAS/DIP/datasets/Fr5_intertek_dataset/Fr5_intertek_1st_250526/right/zed_34850673_right_1748248623.828.jpg,34850673,right,1748248623.828,/home/najo/NAS/DIP/datasets/Fr5_intertek_dataset/Fr5_intertek_1st_250526/joint/joint_38007749_1748248623.833.json,1748248623.833,0.0049998760223388,-41.3314366104579,-74.91979617883663,75.87179958230197,-90.96636177289604,-90.00130530631186,48.68640257580445,/home/najo/NAS/DIP/datasets/Fr5_intertek_dataset/preprocessed_roi/Fr5_intertek_1st_250526_zed_34850673_right_1748248623.828.jpg,768,238,1470,1029
/home/najo/NAS/DIP/datasets/Fr5_intertek_dataset/Fr5_intertek_1st_250526/right/zed_34850673_left_1748248623.828.jpg,34850673,left,1748248623.828,/home/najo/NAS/DIP/datasets/Fr5_intertek_dataset/Fr5_intertek_1st_250526/joint/joint_38007749_1748248623.833.json,1748248623.833,0.0049998760223388,-41.3314366104579,-74.91979617883663,75.87179958230197,-90.96636177289604,-90.00130530631186,48.68640257580445,/home/najo/NAS/DIP/datasets/Fr5_intertek_dataset/preprocessed_roi/Fr5_intertek_1st_250526_zed_34850673_left_1748248623.828.jpg,873,238,1616,1029
/home/najo/NAS/DIP/datasets/Fr5_intertek_dataset/Fr5_intertek_1st_250526/left/zed_38007749_left_1748248623.833.jpg,38007749,left,1748248623.833,/home/najo/NAS/DIP/datasets/Fr5_intertek_dataset/Fr5_intertek_1st_250526/joint/joint_38007749_1748248623.833.json,1748248623.833,0.0,-41.3314366104579,-74.91979617883663,75.87179958230197,-90.96636177289604,-90.00130530631186,48.68640257580445,/home/najo/NAS/DIP/datasets/Fr5_intertek_dataset/preprocessed_roi/Fr5_intertek_1st_250526_zed_38007749_left_1748248623.833.jpg,386,183,1237,999
/home/najo/NAS/DIP/datasets/Fr5_intertek_dataset/Fr5_intertek_1st_250526/left/zed_38007749_right_1748248623.833.jpg,38007749,right,1748248623.833,/home/najo/NAS/DIP/datasets/Fr5_intertek_dataset/Fr5_intertek_1st_250526/joint/joint_38007749_1748248623.833.json,1748248623.833,0.0,-41.3314366104579,-74.91979617883663,75.87179958230197,-90.96636177289604,-90.00130530631186,48.68640257580445,/home/najo/NAS/DIP/datasets/Fr5_intertek_dataset/preprocessed_roi/Fr5_intertek_1st_250526_zed_38007749_right_1748248623.833.jpg,247,185,1023,999
/home/najo/NAS/DIP/datasets/Fr5_intertek_dataset/Fr5_intertek_1st_250526/top/zed_30779426_left_1748248623.841.jpg,30779426,left,1748248623.841,/home/najo/NAS/DIP/datasets/Fr5_intertek_dataset/Fr5_intertek_1st_250526/joint/joint_30779426_1748248623.841.json,1748248623.841,0.0,-41.32686803836633,-74.9089186262376,75.90203917852723,-90.99768912438118,-90.0010877552599,48.69031849474009,/home/najo/NAS/DIP/datasets/Fr5_intertek_dataset/preprocessed_roi/Fr5_intertek_1st_250526_zed_30779426_left_1748248623.841.jpg,941,126,1511,721
/home/najo/NAS/DIP/datasets/Fr5_intertek_dataset/Fr5_intertek_1st_250526/top/zed_30779426_right_1748248623.841.jpg,30779426,right,1748248623.841,/home/najo/NAS/DIP/datasets/Fr5_intertek_dataset/Fr5_intertek_1st_250526/joint/joint_30779426_1748248623.841.json,1748248623.841,0.0,-41.32686803836633,-74.9089186262376,75.90203917852723,-90.99768912438118,-90.0010877552599,48.69031849474009,/home/najo/NAS/DIP/datasets/Fr5_intertek_dataset/preprocessed_roi/Fr5_intertek_1st_250526_zed_30779426_right_1748248623.841.jpg,847,124,1383,723
/home/najo/NAS/DIP/datasets/Fr5_intertek_dataset/Fr5_intertek_1st_250526/right/zed_34850673_right_1748248623.967.jpg,34850673,right,1748248623.967,/home/najo/NAS/DIP/datasets/Fr5_intertek_dataset/Fr5_intertek_1st_250526/joint/joint_34850673_1748248623.967.json,1748248623.967,0.0,-41.30141456528465,-74.86888923267327,76.8183642094678,-91.95143293626238,-90.00021755105197,48.69945563892327,/home/najo/NAS/DIP/datasets/Fr5_intertek_dataset/preprocessed_roi/Fr5_intertek_1st_250526_zed_34850673_right_1748248623.967.jpg,768,238,1470,1029
/home/najo/NAS/DIP/datasets/Fr5_intertek_dataset/Fr5_intertek_1st_250526/right/zed_34850673_left_1748248623.967.jpg,34850673,left,1748248623.967,/home/najo/NAS/DIP/datasets/Fr5_intertek_dataset/Fr5_intertek_1st_250526/joint/joint_34850673_1748248623.967.json,1748248623.967,0.0,-41.30141456528465,-74.86888923267327,76.8183642094678,-91.95143293626238,-90.00021755105197,48.69945563892327,/home/najo/NAS/DIP/datasets/Fr5_intertek_dataset/preprocessed_roi/Fr5_intertek_1st_250526_zed_34850673_left_1748248623.967.jpg,873,238,1616,1029
/home/najo/NAS/DIP/datasets/Fr5_intertek_dataset/Fr5_intertek_1st_250526/left/zed_38007749_left_1748248623.972.jpg,38007749,left,1748248623.972,/home/najo/NAS/DIP/datasets/Fr5_intertek_dataset/Fr5_intertek_1st_250526/joint/joint_38007749_1748248623.972.json,1748248623.972,0.0,-41.30206721844059,-74.86975943688118,76.77485399907178,-91.90879293007426,-90.00043510210396,48.69923808787128,/home/najo/NAS/DIP/datasets/Fr5_intertek_dataset/preprocessed_roi/Fr5_intertek_1st_250526_zed_38007749_left_1748248623.972.jpg,386,187,1237,999
/home/najo/NAS/DIP/datasets/Fr5_intertek_dataset/Fr5_intertek_1st_250526/left/zed_38007749_right_1748248623.972.jpg,38007749,right,1748248623.972,/home/najo/NAS/DIP/datasets/Fr5_intertek_dataset/Fr5_intertek_1st_250526/joint/joint_38007749_1748248623.972.json,1748248623.972,0.0,-41.30206721844059,-74.86975943688118,76.77485399907178,-91.90879293007426,-90.00043510210396,48.69923808787128,/home/najo/NAS/DIP/datasets/Fr5_intertek_dataset/preprocessed_roi/Fr5_intertek_1st_250526_zed_38007749_right_1748248623.972.jpg,247,189,1023,999
/home/najo/NAS/DIP/datasets/Fr5_intertek_dataset/Fr5_intertek_1st_250526/top/zed_30779426_right_1748248623.982.jpg,30779426,right,1748248623.982,/home/najo/NAS/DIP/datasets/Fr5_intertek_dataset/Fr5_intertek_1st_250526/joint/joint_30779426_1748248623.982.json,1748248623.982,0.0,-41.29380027846534,-74.86453821163364,76.96281810798267,-92.0950166305693,-89.99956489789604,48.6990205368193,/home/najo/NAS/DIP/datasets/Fr5_intertek_dataset/preprocessed_roi/Fr5_intertek_1st_250526_zed_30779426_right_1748248623.982.jpg,847,124,1383,723
/home/najo/NAS/DIP/datasets/Fr5_intertek_dataset/Fr5_intertek_1st_250526/top/zed_30779426_left_1748248623.982.jpg,30779426,left,1748248623.982,/home/najo/NAS/DIP/datasets/Fr5_intertek_dataset/Fr5_intertek_1st_250526/joint/joint_30779426_1748248623.982.json,1748248623.982,0.0,-41.29380027846534,-74.86453821163364,76.96281810798267,-92.0950166305693,-89.99956489789604,48.6990205368193,/home/najo/NAS/DIP/datasets/Fr5_intertek_dataset/preprocessed_roi/Fr5_intertek_1st_250526_zed_30779426_left_1748248623.982.jpg,941,128,1507,721
/home/najo/NAS/DIP/datasets/Fr5_intertek_dataset/Fr5_intertek_1st_250526/left/zed_38007749_right_1748248624.109.jpg,38007749,right,1748248624.109,/home/najo/NAS/DIP/datasets/Fr5_intertek_dataset/Fr5_intertek_1st_250526/joint/joint_38007749_1748248624.109.json,1748248624.109,0.0,-41.30271987159653,-74.80732228496286,78.25093788675743,-93.45210009282178,-89.99956489789604,48.69445196472772,/home/najo/NAS/DIP/datasets/Fr5_intertek_dataset/preprocessed_roi/Fr5_intertek_1st_250526_zed_38007749_right_1748248624.109.jpg,247,202,1023,999
/home/najo/NAS/DIP/datasets/Fr5_intertek_dataset/Fr5_intertek_1st_250526/left/zed_38007749_left_1748248624.109.jpg,38007749,left,1748248624.109,/home/najo/NAS/DIP/datasets/Fr5_intertek_dataset/Fr5_intertek_1st_250526/joint/joint_38007749_1748248624.109.json,1748248624.109,0.0,-41.30271987159653,-74.80732228496286,78.25093788675743,-93.45210009282178,-89.99956489789604,48.69445196472772,/home/najo/NAS/DIP/datasets/Fr5_intertek_dataset/preprocessed_roi/Fr5_intertek_1st_250526_zed_38007749_left_1748248624.109.jpg,386,202,1237,999
/home/najo/NAS/DIP/datasets/Fr5_intertek_dataset/Fr5_intertek_1st_250526/right/zed_34850673_left_1748248624.116.jpg,34850673,left,1748248624.116,/home/najo/NAS/DIP/datasets/Fr5_intertek_dataset/Fr5_intertek_1st_250526/joint/joint_34850673_1748248624.116.json,1748248624.116,0.0,-41.30097946318069,-74.80492922339108,78.29249013768565,-93.49865601794556,-89.99978244894803,48.69445196472772,/home/najo/NAS/DIP/datasets/Fr5_intertek_dataset/preprocessed_roi/Fr5_intertek_1st_250526_zed_34850673_left_1748248624.116.jpg,873,238,1616,1029
/home/najo/NAS/DIP/datasets/Fr5_intertek_dataset/Fr5_intertek_1st_250526/right/zed_34850673_right_1748248624.116.jpg,34850673,right,1748248624.116,/home/najo/NAS/DIP/datasets/Fr5_intertek_dataset/Fr5_intertek_1st_250526/joint/joint_34850673_1748248624.116.json,1748248624.116,0.0,-41.30097946318069,-74.80492922339108,78.29249013768565,-93.49865601794556,-89.99978244894803,48.69445196472772,/home/najo/NAS/DIP/datasets/Fr5_intertek_dataset/preprocessed_roi/Fr5_intertek_1st_250526_zed_34850673_right_1748248624.116.jpg,768,238,1470,1029
/home/najo/NAS/DIP/datasets/Fr5_intertek_dataset/Fr5_intertek_1st_250526/top/zed_30779426_left_1748248624.126.jpg,30779426,left,1748248624.126,/home/najo/NAS/DIP/datasets/Fr5_intertek_dataset/Fr5_intertek_1st_250526/joint/joint_30779426_1748248624.126.json,1748248624.126,0.0,-41.29684599319306,-74.79731493657178,78.4434705677599,-93.66247196008663,-90.0,48.69379931157178,/home/najo/NAS/DIP/datasets/Fr5_intertek_dataset/preprocessed_roi/Fr5_intertek_1st_250526_zed_30779426_left_1748248624.126.jpg,941,130,1503,721
/home/najo/NAS/DIP/datasets/Fr5_intertek_dataset/Fr5_intertek_1st_250526/top/zed_30779426_right_1748248624.126.jpg,30779426,right,1748248624.126,/home/najo/NAS/DIP/datasets/Fr5_intertek_dataset/Fr5_intertek_1st_250526/joint/joint_30779426_1748248624.126.json,1748248624.126,0.0,-41.29684599319306,-74.79731493657178,78.4434705677599,-93.66247196008663,-90.0,48.69379931157178,/home/najo/NAS/DIP/datasets/Fr5_intertek_dataset/preprocessed_roi/Fr5_intertek_1st_250526_zed_30779426_right_1748248624.126.jpg,847,128,1380,723
/home/najo/NAS/DIP/datasets/Fr5_intertek_dataset/Fr5_intertek_1st_250526/left/zed_38007749_left_1748248624.249.jpg,38007749,left,1748248624.249,/home/najo/NAS/DIP/datasets/Fr5_intertek_dataset/Fr5_intertek_1st_250526/joint/joint_38007749_1748248624.249.json,1748248624.249,0.0,-41.30641823948019,-74.6994169631807,79.77749361850248,-95.07503094059406,-90.0,48.69053604579208,/home/najo/NAS/DIP/datasets/Fr5_intertek_dataset/preprocessed_roi/Fr5_intertek_1st_250526_zed_38007749_left_1748248624.249.jpg,386,223,1233,999
/home/najo/NAS/DIP/datasets/Fr5_intertek_dataset/Fr5_intertek_1st_250526/left/zed_38007749_right_1748248624.249.jpg,38007749,right,1748248624.249,/home/najo/NAS/DIP/datasets/Fr5_intertek_dataset/Fr5_intertek_1st_250526/joint/joint_38007749_1748248624.249.json,1748248624.249,0.0,-41.30641823948019,-74.6994169631807,79.77749361850248,-95.07503094059406,-90.0,48.69053604579208,/home/najo/NAS/DIP/datasets/Fr5_intertek_dataset/preprocessed_roi/Fr5_intertek_1st_250526_zed_38007749_right_1748248624.249.jpg,247,223,1023,999
/home/najo/NAS/DIP/datasets/Fr5_intertek_dataset/Fr5_intertek_1st_250526/right/zed_34850673_right_1748248624.255.jpg,34850673,right,1748248624.255,/home/najo/NAS/DIP/datasets/Fr5_intertek_dataset/Fr5_intertek_1st_250526/joint/joint_34850673_1748248624.255.json,1748248624.255,0.0,-41.3053304842203,-74.69571859529702,79.80751566367574,-95.10940400680693,-89.99978244894803,48.69053604579208,/home/najo/NAS/DIP/datasets/Fr5_intertek_dataset/preprocessed_roi/Fr5_intertek_1st_250526_zed_34850673_right_1748248624.255.jpg,768,238,1470,1029
/home/najo/NAS/DIP/datasets/Fr5_intertek_dataset/Fr5_intertek_1st_250526/right/zed_34850673_left_1748248624.255.jpg,34850673,left,1748248624.255,/home/najo/NAS/DIP/datasets/Fr5_intertek_dataset/Fr5_intertek_1st_250526/joint/joint_34850673_1748248624.255.json,1748248624.255,0.0,-41.3053304842203,-74.69571859529702,79.80751566367574,-95.10940400680693,-89.99978244894803,48.69053604579208,/home/najo/NAS/DIP/datasets/Fr5_intertek_dataset/preprocessed_roi/Fr5_intertek_1st_250526_zed_34850673_left_1748248624.255.jpg,873,240,1616,1029
/home/najo/NAS/DIP/datasets/Fr5_intertek_dataset/Fr5_intertek_1st_250526/top/zed_30779426_right_1748248624.266.jpg,30779426,right,1748248624.266,/home/najo/NAS/DIP/datasets/Fr5_intertek_dataset/Fr5_intertek_1st_250526/joint/joint_30779426_1748248624.266.json,1748248624.266,0.0,-41.30359007580445,-74.68331818533416,79.92782139542079,-95.25146484375,-89.99978244894803,48.69053604579208,/home/najo/NAS/DIP/datasets/Fr5_intertek_dataset/preprocessed_roi/Fr5_intertek_1st_250526_zed_30779426_right_1748248624.266.jpg,847,135,1376,723
/home/najo/NAS/DIP/datasets/Fr5_intertek_dataset/Fr5_intertek_1st_250526/top/zed_30779426_left_1748248624.266.jpg,30779426,left,1748248624.266,/home/najo/NAS/DIP/datasets/Fr5_intertek_dataset/Fr5_intertek_1st_250526/joint/joint_30779426_1748248624.266.json,1748248624.266,0.0,-41.30359007580445,-74.68331818533416,79.92782139542079,-95.25146484375,-89.99978244894803,48.69053604579208,/home/najo/NAS/DIP/datasets/Fr5_intertek_dataset/preprocessed_roi/Fr5_intertek_1st_250526_zed_30779426_left_1748248624.266.jpg,941,135,1500,721
/home/najo/NAS/DIP/datasets/Fr5_intertek_dataset/Fr5_intertek_1st_250526/left/zed_38007749_right_1748248624.389.jpg,38007749,right,1748248624.389,/home/najo/NAS/DIP/datasets/Fr5_intertek_dataset/Fr5_intertek_1st_250526/joint/joint_38007749_1748248624.389.json,1748248624.389,0.0,-41.308376198948,-74.54408551206683,81.22768893100248,-96.67903484684406,-90.00021755105197,48.68857808632425,/home/najo/NAS/DIP/datasets/Fr5_intertek_dataset/preprocessed_roi/Fr5_intertek_1st_250526_zed_38007749_right_1748248624.389.jpg,247,248,1020,999
/home/najo/NAS/DIP/datasets/Fr5_intertek_dataset/Fr5_intertek_1st_250526/left/zed_38007749_left_1748248624.389.jpg,38007749,left,1748248624.389,/home/najo/NAS/DIP/datasets/Fr5_intertek_dataset/Fr5_intertek_1st_250526/joint/joint_38007749_1748248624.389.json,1748248624.389,0.0,-41.308376198948,-74.54408551206683,81.22768893100248,-96.67903484684406,-90.00021755105197,48.68857808632425,/home/najo/NAS/DIP/datasets/Fr5_intertek_dataset/preprocessed_roi/Fr5_intertek_1st_250526_zed_38007749_left_1748248624.389.jpg,386,248,1233,999
/home/najo/NAS/DIP/datasets/Fr5_intertek_dataset/Fr5_intertek_1st_250526/right/zed_34850673_left_1748248624.394.jpg,34850673,left,1748248624.394,/home/najo/NAS/DIP/datasets/Fr5_intertek_dataset/Fr5_intertek_1st_250526/joint/joint_38007749_1748248624.389.json,1748248624.389,0.0050001144409179,-41.308376198948,-74.54408551206683,81.22768893100248,-96.67903484684406,-90.00021755105197,48.68857808632425,/home/najo/NAS/DIP/datasets/Fr5_intertek_dataset/preprocessed_roi/Fr5_intertek_1st_250526_zed_34850673_left_1748248624.394.jpg,873,240,1616,1029
/home/najo/NAS/DIP/datasets/Fr5_intertek_dataset/Fr5_intertek_1st_250526/right/zed_34850673_right_1748248624.394.jpg,34850673,right,1748248624.394,/home/najo/NAS/DIP/datasets/Fr5_intertek_dataset/Fr5_intertek_1st_250526/joint/joint_38007749_1748248624.389.json,1748248624.389,0.0050001144409179,-41.308376198948,-74.54408551206683,81.22768893100248,-96.67903484684406,-90.00021755105197,48.68857808632425,/home/najo/NAS/DIP/datasets/Fr5_intertek_dataset/preprocessed_roi/Fr5_intertek_1st_250526_zed_34850673_right_1748248624.394.jpg,768,240,1470,1029
/home/najo/NAS/DIP/datasets/Fr5_intertek_dataset/Fr5_intertek_1st_250526/top/zed_30779426_left_1748248624.405.jpg,30779426,left,1748248624.405,/home/najo/NAS/DIP/datasets/Fr5_intertek_dataset/Fr5_intertek_1st_250526/joint/joint_30779426_1748248624.405.json,1748248624.405,0.0,-41.30685334158416,-74.52929204053218,81.33907506961634,-96.80412670173268,-89.99978244894803,48.68857808632425,/home/najo/NAS/DIP/datasets/Fr5_intertek_dataset/preprocessed_roi/Fr5_intertek_1st_250526_zed_30779426_left_1748248624.405.jpg,941,139,1492,721
/home/najo/NAS/DIP/datasets/Fr5_intertek_dataset/Fr5_intertek_1st_250526/top/zed_30779426_right_1748248624.405.jpg,30779426,right,1748248624.405,/home/najo/NAS/DIP/datasets/Fr5_intertek_dataset/Fr5_intertek_1st_250526/joint/joint_30779426_1748248624.405.json,1748248624.405,0.0,-41.30685334158416,-74.52929204053218,81.33907506961634,-96.80412670173268,-89.99978244894803,48.68857808632425,/home/najo/NAS/DIP/datasets/Fr5_intertek_dataset/preprocessed_roi/Fr5_intertek_1st_250526_zed_30779426_right_1748248624.405.jpg,847,139,1372,723
/home/najo/NAS/DIP/datasets/Fr5_intertek_dataset/Fr5_intertek_1st_250526/right/zed_34850673_right_1748248624.531.jpg,34850673,right,1748248624.531,/home/najo/NAS/DIP/datasets/Fr5_intertek_dataset/Fr5_intertek_1st_250526/joint/joint_34850673_1748248624.531.json,1748248624.531,0.0,-41.31011660736386,-74.34720181002476,82.58542504641089,-98.23365466429456,-90.0,48.68770788211633,/home/najo/NAS/DIP/datasets/Fr5_intertek_dataset/preprocessed_roi/Fr5_intertek_1st_250526_zed_34850673_right_1748248624.531.jpg,768,240,1470,1029
/home/najo/NAS/DIP/datasets/Fr5_intertek_dataset/Fr5_intertek_1st_250526/right/zed_34850673_left_1748248624.531.jpg,34850673,left,1748248624.531,/home/najo/NAS/DIP/datasets/Fr5_intertek_dataset/Fr5_intertek_1st_250526/joint/joint_34850673_1748248624.531.json,1748248624.531,0.0,-41.31011660736386,-74.34720181002476,82.58542504641089,-98.23365466429456,-90.0,48.68770788211633,/home/najo/NAS/DIP/datasets/Fr5_intertek_dataset/preprocessed_roi/Fr5_intertek_1st_250526_zed_34850673_left_1748248624.531.jpg,873,240,1616,1029
/home/najo/NAS/DIP/datasets/Fr5_intertek_dataset/Fr5_intertek_1st_250526/left/zed_38007749_left_1748248624.537.jpg,38007749,left,1748248624.537,/home/najo/NAS/DIP/datasets/Fr5_intertek_dataset/Fr5_intertek_1st_250526/joint/joint_38007749_1748248624.537.json,1748248624.537,0.0,-41.31055170946782,-74.34263323793317,82.61348913211634,-98.2638942605198,-90.0,48.68770788211633,/home/najo/NAS/DIP/datasets/Fr5_intertek_dataset/preprocessed_roi/Fr5_intertek_1st_250526_zed_38007749_left_1748248624.537.jpg,386,261,1233,999
/home/najo/NAS/DIP/datasets/Fr5_intertek_dataset/Fr5_intertek_1st_250526/top/zed_30779426_right_1748248624.543.jpg,30779426,right,1748248624.543,/home/najo/NAS/DIP/datasets/Fr5_intertek_dataset/Fr5_intertek_1st_250526/joint/joint_30779426_1748248624.543.json,1748248624.543,0.0,-41.3107692605198,-74.33936997215346,82.63393893100248,-98.2858669167698,-89.99978244894803,48.6879254331683,/home/najo/NAS/DIP/datasets/Fr5_intertek_dataset/preprocessed_roi/Fr5_intertek_1st_250526_zed_30779426_right_1748248624.543.jpg,847,143,1368,723
/home/najo/NAS/DIP/datasets/Fr5_intertek_dataset/Fr5_intertek_1st_250526/left/zed_38007749_right_1748248624.537.jpg,38007749,right,1748248624.537,/home/najo/NAS/DIP/datasets/Fr5_intertek_dataset/Fr5_intertek_1st_250526/joint/joint_38007749_1748248624.537.json,1748248624.537,0.0,-41.31055170946782,-74.34263323793317,82.61348913211634,-98.2638942605198,-90.0,48.68770788211633,/home/najo/NAS/DIP/datasets/Fr5_intertek_dataset/preprocessed_roi/Fr5_intertek_1st_250526_zed_38007749_right_1748248624.537.jpg,247,261,1023,999
/home/najo/NAS/DIP/datasets/Fr5_intertek_dataset/Fr5_intertek_1st_250526/top/zed_30779426_left_1748248624.543.jpg,30779426,left,1748248624.543,/home/najo/NAS/DIP/datasets/Fr5_intertek_dataset/Fr5_intertek_1st_250526/joint/joint_30779426_1748248624.543.json,1748248624.543,0.0,-41.3107692605198,-74.33936997215346,82.63393893100248,-98.2858669167698,-89.99978244894803,48.6879254331683,/home/najo/NAS/DIP/datasets/Fr5_intertek_dataset/preprocessed_roi/Fr5_intertek_1st_250526_zed_30779426_left_1748248624.543.jpg,941,145,1485,721
/home/najo/NAS/DIP/datasets/Fr5_intertek_dataset/Fr5_intertek_1st_250526/right/zed_34850673_left_1748248624.670.jpg,34850673,left,1748248624.67,/home/najo/NAS/DIP/datasets/Fr5_intertek_dataset/Fr5_intertek_1st_250526/joint/joint_34850673_1748248624.670.json,1748248624.67,0.0,-41.31207456683168,-74.1213838180693,83.87202196782178,-99.76151570235147,-89.99956489789604,48.68749033106435,/home/najo/NAS/DIP/datasets/Fr5_intertek_dataset/preprocessed_roi/Fr5_intertek_1st_250526_zed_34850673_left_1748248624.670.jpg,877,240,1616,1029
