Najongs/2025_ICRA_Multi_View_Robot_Pose_Estimation/dataset/Fr5/Fr5_4th_250526/matched_index_with_roi.csv
img.path,img.serial,img.view,img.ts,joint.path,joint.ts,abs_dt,joint.0,joint.1,joint.2,joint.3,joint.4,joint.5,roi.path,roi.x1,roi.y1,roi.x2,roi.y2
/home/najo/NAS/DIP/datasets/Fr5_intertek_dataset/Fr5_intertek_4th_250526/right/zed_34850673_left_1748249112.387.jpg,34850673,left,1748249112.387,/home/najo/NAS/DIP/datasets/Fr5_intertek_dataset/Fr5_intertek_4th_250526/joint/joint_34850673_1748249112.387.json,1748249112.387,0.0,20.8113687345297,-67.14517423422029,96.78976833230196,-119.6452467512376,-90.00021755105197,110.8113687345297,/home/najo/NAS/DIP/datasets/Fr5_intertek_dataset/preprocessed_roi/Fr5_intertek_4th_250526_zed_34850673_left_1748249112.387.jpg,772,200,1818,1077
/home/najo/NAS/DIP/datasets/Fr5_intertek_dataset/Fr5_intertek_4th_250526/right/zed_34850673_right_1748249112.387.jpg,34850673,right,1748249112.387,/home/najo/NAS/DIP/datasets/Fr5_intertek_dataset/Fr5_intertek_4th_250526/joint/joint_34850673_1748249112.387.json,1748249112.387,0.0,20.8113687345297,-67.14517423422029,96.78976833230196,-119.6452467512376,-90.00021755105197,110.8113687345297,/home/najo/NAS/DIP/datasets/Fr5_intertek_dataset/preprocessed_roi/Fr5_intertek_4th_250526_zed_34850673_right_1748249112.387.jpg,543,200,1646,1077
/home/najo/NAS/DIP/datasets/Fr5_intertek_dataset/Fr5_intertek_4th_250526/top/zed_30779426_left_1748249112.398.jpg,30779426,left,1748249112.398,/home/najo/NAS/DIP/datasets/Fr5_intertek_dataset/Fr5_intertek_4th_250526/joint/joint_34850673_1748249112.387.json,1748249112.387,0.0109999179840087,20.8113687345297,-67.14517423422029,96.78976833230196,-119.6452467512376,-90.00021755105197,110.8113687345297,/home/najo/NAS/DIP/datasets/Fr5_intertek_dataset/preprocessed_roi/Fr5_intertek_4th_250526_zed_30779426_left_1748249112.398.jpg,776,198,1121,763
/home/najo/NAS/DIP/datasets/Fr5_intertek_dataset/Fr5_intertek_4th_250526/top/zed_30779426_right_1748249112.398.jpg,30779426,right,1748249112.398,/home/najo/NAS/DIP/datasets/Fr5_intertek_dataset/Fr5_intertek_4th_250526/joint/joint_34850673_1748249112.387.json,1748249112.387,0.0109999179840087,20.8113687345297,-67.14517423422029,96.78976833230196,-119.6452467512376,-90.00021755105197,110.8113687345297,/home/najo/NAS/DIP/datasets/Fr5_intertek_dataset/preprocessed_roi/Fr5_intertek_4th_250526_zed_30779426_right_1748249112.398.jpg,671,196,1031,763
/home/najo/NAS/DIP/datasets/Fr5_intertek_dataset/Fr5_intertek_4th_250526/left/zed_38007749_right_1748249112.409.jpg,38007749,right,1748249112.409,/home/najo/NAS/DIP/datasets/Fr5_intertek_dataset/Fr5_intertek_4th_250526/joint/joint_38007749_1748249112.409.json,1748249112.409,0.0,20.81115118347772,-67.2187064897896,96.71667117883663,-119.4942663211633,-90.0,110.8113687345297,/home/najo/NAS/DIP/datasets/Fr5_intertek_dataset/preprocessed_roi/Fr5_intertek_4th_250526_zed_38007749_right_1748249112.409.jpg,247,312,975,1008
/home/najo/NAS/DIP/datasets/Fr5_intertek_dataset/Fr5_intertek_4th_250526/left/zed_38007749_left_1748249112.409.jpg,38007749,left,1748249112.409,/home/najo/NAS/DIP/datasets/Fr5_intertek_dataset/Fr5_intertek_4th_250526/joint/joint_38007749_1748249112.409.json,1748249112.409,0.0,20.81115118347772,-67.2187064897896,96.71667117883663,-119.4942663211633,-90.0,110.8113687345297,/home/najo/NAS/DIP/datasets/Fr5_intertek_dataset/preprocessed_roi/Fr5_intertek_4th_250526_zed_38007749_left_1748249112.409.jpg,386,312,1076,1008
/home/najo/NAS/DIP/datasets/Fr5_intertek_dataset/Fr5_intertek_4th_250526/top/zed_30779426_left_1748249112.539.jpg,30779426,left,1748249112.539,/home/najo/NAS/DIP/datasets/Fr5_intertek_dataset/Fr5_intertek_4th_250526/joint/joint_30779426_1748249112.539.json,1748249112.539,0.0,20.81093363242574,-68.04801109993812,95.83537186726484,-117.782357093131,-89.99978244894803,110.8115862855817,/home/najo/NAS/DIP/datasets/Fr5_intertek_dataset/preprocessed_roi/Fr5_intertek_4th_250526_zed_30779426_left_1748249112.539.jpg,776,194,1121,763
/home/najo/NAS/DIP/datasets/Fr5_intertek_dataset/Fr5_intertek_4th_250526/top/zed_30779426_right_1748249112.539.jpg,30779426,right,1748249112.539,/home/najo/NAS/DIP/datasets/Fr5_intertek_dataset/Fr5_intertek_4th_250526/joint/joint_30779426_1748249112.539.json,1748249112.539,0.0,20.81093363242574,-68.04801109993812,95.83537186726484,-117.782357093131,-89.99978244894803,110.8115862855817,/home/najo/NAS/DIP/datasets/Fr5_intertek_dataset/preprocessed_roi/Fr5_intertek_4th_250526_zed_30779426_right_1748249112.539.jpg,667,194,1031,763
/home/najo/NAS/DIP/datasets/Fr5_intertek_dataset/Fr5_intertek_4th_250526/right/zed_34850673_right_1748249112.543.jpg,34850673,right,1748249112.543,/home/najo/NAS/DIP/datasets/Fr5_intertek_dataset/Fr5_intertek_4th_250526/joint/joint_34850673_1748249112.543.json,1748249112.543,0.0,20.81093363242574,-68.04801109993812,95.83537186726484,-117.782357093131,-89.99978244894803,110.8115862855817,/home/najo/NAS/DIP/datasets/Fr5_intertek_dataset/preprocessed_roi/Fr5_intertek_4th_250526_zed_34850673_right_1748249112.543.jpg,543,196,1646,1077
/home/najo/NAS/DIP/datasets/Fr5_intertek_dataset/Fr5_intertek_4th_250526/right/zed_34850673_left_1748249112.543.jpg,34850673,left,1748249112.543,/home/najo/NAS/DIP/datasets/Fr5_intertek_dataset/Fr5_intertek_4th_250526/joint/joint_34850673_1748249112.543.json,1748249112.543,0.0,20.81093363242574,-68.04801109993812,95.83537186726484,-117.782357093131,-89.99978244894803,110.8115862855817,/home/najo/NAS/DIP/datasets/Fr5_intertek_dataset/preprocessed_roi/Fr5_intertek_4th_250526_zed_34850673_left_1748249112.543.jpg,768,196,1818,1077
/home/najo/NAS/DIP/datasets/Fr5_intertek_dataset/Fr5_intertek_4th_250526/left/zed_38007749_right_1748249112.553.jpg,38007749,right,1748249112.553,/home/najo/NAS/DIP/datasets/Fr5_intertek_dataset/Fr5_intertek_4th_250526/joint/joint_38007749_1748249112.553.json,1748249112.553,0.0,20.8113687345297,-68.12545927444307,95.74704614016088,-117.6139725788985,-90.0,110.8115862855817,/home/najo/NAS/DIP/datasets/Fr5_intertek_dataset/preprocessed_roi/Fr5_intertek_4th_250526_zed_38007749_right_1748249112.553.jpg,243,310,978,1008
/home/najo/NAS/DIP/datasets/Fr5_intertek_dataset/Fr5_intertek_4th_250526/left/zed_38007749_left_1748249112.553.jpg,38007749,left,1748249112.553,/home/najo/NAS/DIP/datasets/Fr5_intertek_dataset/Fr5_intertek_4th_250526/joint/joint_38007749_1748249112.553.json,1748249112.553,0.0,20.8113687345297,-68.12545927444307,95.74704614016088,-117.6139725788985,-90.0,110.8115862855817,/home/najo/NAS/DIP/datasets/Fr5_intertek_dataset/preprocessed_roi/Fr5_intertek_4th_250526_zed_38007749_left_1748249112.553.jpg,386,310,1076,1008
/home/najo/NAS/DIP/datasets/Fr5_intertek_dataset/Fr5_intertek_4th_250526/top/zed_30779426_left_1748249112.678.jpg,30779426,left,1748249112.678,/home/najo/NAS/DIP/datasets/Fr5_intertek_dataset/Fr5_intertek_4th_250526/joint/joint_30779426_1748249112.678.json,1748249112.678,0.0,20.81158628558168,-68.8818842821782,94.8198435566213,-115.9392645807549,-90.0,110.8115862855817,/home/najo/NAS/DIP/datasets/Fr5_intertek_dataset/preprocessed_roi/Fr5_intertek_4th_250526_zed_30779426_left_1748249112.678.jpg,772,189,1121,763
/home/najo/NAS/DIP/datasets/Fr5_intertek_dataset/Fr5_intertek_4th_250526/top/zed_30779426_right_1748249112.678.jpg,30779426,right,1748249112.678,/home/najo/NAS/DIP/datasets/Fr5_intertek_dataset/Fr5_intertek_4th_250526/joint/joint_30779426_1748249112.678.json,1748249112.678,0.0,20.81158628558168,-68.8818842821782,94.8198435566213,-115.9392645807549,-90.0,110.8115862855817,/home/najo/NAS/DIP/datasets/Fr5_intertek_dataset/preprocessed_roi/Fr5_intertek_4th_250526_zed_30779426_right_1748249112.678.jpg,667,189,1031,763
/home/najo/NAS/DIP/datasets/Fr5_intertek_dataset/Fr5_intertek_4th_250526/right/zed_34850673_left_1748249112.683.jpg,34850673,left,1748249112.683,/home/najo/NAS/DIP/datasets/Fr5_intertek_dataset/Fr5_intertek_4th_250526/joint/joint_34850673_1748249112.683.json,1748249112.683,0.0,20.81158628558168,-68.91147122524752,94.7800317141089,-115.8639919167698,-90.0,110.8115862855817,/home/najo/NAS/DIP/datasets/Fr5_intertek_dataset/preprocessed_roi/Fr5_intertek_4th_250526_zed_34850673_left_1748249112.683.jpg,768,194,1818,1077
/home/najo/NAS/DIP/datasets/Fr5_intertek_dataset/Fr5_intertek_4th_250526/right/zed_34850673_right_1748249112.683.jpg,34850673,right,1748249112.683,/home/najo/NAS/DIP/datasets/Fr5_intertek_dataset/Fr5_intertek_4th_250526/joint/joint_34850673_1748249112.683.json,1748249112.683,0.0,20.81158628558168,-68.91147122524752,94.7800317141089,-115.8639919167698,-90.0,110.8115862855817,/home/najo/NAS/DIP/datasets/Fr5_intertek_dataset/preprocessed_roi/Fr5_intertek_4th_250526_zed_34850673_right_1748249112.683.jpg,543,191,1646,1077
/home/najo/NAS/DIP/datasets/Fr5_intertek_dataset/Fr5_intertek_4th_250526/left/zed_38007749_left_1748249112.690.jpg,38007749,left,1748249112.69,/home/najo/NAS/DIP/datasets/Fr5_intertek_dataset/Fr5_intertek_4th_250526/joint/joint_38007749_1748249112.690.json,1748249112.69,0.0,20.8113687345297,-68.92321898205445,94.76415048731435,-115.8370155863242,-90.00021755105197,110.8115862855817,/home/najo/NAS/DIP/datasets/Fr5_intertek_dataset/preprocessed_roi/Fr5_intertek_4th_250526_zed_38007749_left_1748249112.690.jpg,386,305,1080,1008
/home/najo/NAS/DIP/datasets/Fr5_intertek_dataset/Fr5_intertek_4th_250526/left/zed_38007749_right_1748249112.690.jpg,38007749,right,1748249112.69,/home/najo/NAS/DIP/datasets/Fr5_intertek_dataset/Fr5_intertek_4th_250526/joint/joint_38007749_1748249112.690.json,1748249112.69,0.0,20.8113687345297,-68.92321898205445,94.76415048731435,-115.8370155863242,-90.00021755105197,110.8115862855817,/home/najo/NAS/DIP/datasets/Fr5_intertek_dataset/preprocessed_roi/Fr5_intertek_4th_250526_zed_38007749_right_1748249112.690.jpg,247,305,978,1008
/home/najo/NAS/DIP/datasets/Fr5_intertek_dataset/Fr5_intertek_4th_250526/top/zed_30779426_right_1748249112.816.jpg,30779426,right,1748249112.816,/home/najo/NAS/DIP/datasets/Fr5_intertek_dataset/Fr5_intertek_4th_250526/joint/joint_30779426_1748249112.816.json,1748249112.816,0.0,20.81158628558168,-69.66702602877476,93.73709197091584,-114.0770275758044,-90.0,110.8113687345297,/home/najo/NAS/DIP/datasets/Fr5_intertek_dataset/preprocessed_roi/Fr5_intertek_4th_250526_zed_30779426_right_1748249112.816.jpg,660,185,1031,763
/home/najo/NAS/DIP/datasets/Fr5_intertek_dataset/Fr5_intertek_4th_250526/top/zed_30779426_left_1748249112.816.jpg,30779426,left,1748249112.816,/home/najo/NAS/DIP/datasets/Fr5_intertek_dataset/Fr5_intertek_4th_250526/joint/joint_30779426_1748249112.816.json,1748249112.816,0.0,20.81158628558168,-69.66702602877476,93.73709197091584,-114.0770275758044,-90.0,110.8113687345297,/home/najo/NAS/DIP/datasets/Fr5_intertek_dataset/preprocessed_roi/Fr5_intertek_4th_250526_zed_30779426_left_1748249112.816.jpg,772,185,1121,763
/home/najo/NAS/DIP/datasets/Fr5_intertek_dataset/Fr5_intertek_4th_250526/right/zed_34850673_left_1748249112.821.jpg,34850673,left,1748249112.821,/home/najo/NAS/DIP/datasets/Fr5_intertek_dataset/Fr5_intertek_4th_250526/joint/joint_30779426_1748249112.816.json,1748249112.816,0.0050001144409179,20.81158628558168,-69.66702602877476,93.73709197091584,-114.0770275758044,-90.0,110.8113687345297,/home/najo/NAS/DIP/datasets/Fr5_intertek_dataset/preprocessed_roi/Fr5_intertek_4th_250526_zed_34850673_left_1748249112.821.jpg,768,191,1818,1067
/home/najo/NAS/DIP/datasets/Fr5_intertek_dataset/Fr5_intertek_4th_250526/right/zed_34850673_right_1748249112.821.jpg,34850673,right,1748249112.821,/home/najo/NAS/DIP/datasets/Fr5_intertek_dataset/Fr5_intertek_4th_250526/joint/joint_30779426_1748249112.816.json,1748249112.816,0.0050001144409179,20.81158628558168,-69.66702602877476,93.73709197091584,-114.0770275758044,-90.0,110.8113687345297,/home/najo/NAS/DIP/datasets/Fr5_intertek_dataset/preprocessed_roi/Fr5_intertek_4th_250526_zed_34850673_right_1748249112.821.jpg,540,189,1646,1077
/home/najo/NAS/DIP/datasets/Fr5_intertek_dataset/Fr5_intertek_4th_250526/left/zed_38007749_left_1748249112.826.jpg,38007749,left,1748249112.826,/home/najo/NAS/DIP/datasets/Fr5_intertek_dataset/Fr5_intertek_4th_250526/joint/joint_30779426_1748249112.816.json,1748249112.816,0.0099999904632568,20.81158628558168,-69.66702602877476,93.73709197091584,-114.0770275758044,-90.0,110.8113687345297,/home/najo/NAS/DIP/datasets/Fr5_intertek_dataset/preprocessed_roi/Fr5_intertek_4th_250526_zed_38007749_left_1748249112.826.jpg,386,303,1080,1008
/home/najo/NAS/DIP/datasets/Fr5_intertek_dataset/Fr5_intertek_4th_250526/left/zed_38007749_right_1748249112.826.jpg,38007749,right,1748249112.826,/home/najo/NAS/DIP/datasets/Fr5_intertek_dataset/Fr5_intertek_4th_250526/joint/joint_30779426_1748249112.816.json,1748249112.816,0.0099999904632568,20.81158628558168,-69.66702602877476,93.73709197091584,-114.0770275758044,-90.0,110.8113687345297,/home/najo/NAS/DIP/datasets/Fr5_intertek_dataset/preprocessed_roi/Fr5_intertek_4th_250526_zed_38007749_right_1748249112.826.jpg,247,303,982,1008
/home/najo/NAS/DIP/datasets/Fr5_intertek_dataset/Fr5_intertek_4th_250526/top/zed_30779426_left_1748249112.953.jpg,30779426,left,1748249112.953,/home/najo/NAS/DIP/datasets/Fr5_intertek_dataset/Fr5_intertek_4th_250526/joint/joint_30779426_1748249112.953.json,1748249112.953,0.0,20.81202138768564,-70.40735225866337,92.57972037438118,-112.1654064820544,-90.0,110.8113687345297,/home/najo/NAS/DIP/datasets/Fr5_intertek_dataset/preprocessed_roi/Fr5_intertek_4th_250526_zed_30779426_left_1748249112.953.jpg,768,181,1121,763
/home/najo/NAS/DIP/datasets/Fr5_intertek_dataset/Fr5_intertek_4th_250526/top/zed_30779426_right_1748249112.953.jpg,30779426,right,1748249112.953,/home/najo/NAS/DIP/datasets/Fr5_intertek_dataset/Fr5_intertek_4th_250526/joint/joint_30779426_1748249112.953.json,1748249112.953,0.0,20.81202138768564,-70.40735225866337,92.57972037438118,-112.1654064820544,-90.0,110.8113687345297,/home/najo/NAS/DIP/datasets/Fr5_intertek_dataset/preprocessed_roi/Fr5_intertek_4th_250526_zed_30779426_right_1748249112.953.jpg,656,181,1031,763
/home/najo/NAS/DIP/datasets/Fr5_intertek_dataset/Fr5_intertek_4th_250526/left/zed_38007749_right_1748249112.958.jpg,38007749,right,1748249112.958,/home/najo/NAS/DIP/datasets/Fr5_intertek_dataset/Fr5_intertek_4th_250526/joint/joint_38007749_1748249112.958.json,1748249112.958,0.0,20.81202138768564,-70.4123559328589,92.57123588335396,-112.1517007657797,-90.0,110.8115862855817,/home/najo/NAS/DIP/datasets/Fr5_intertek_dataset/preprocessed_roi/Fr5_intertek_4th_250526_zed_38007749_right_1748249112.958.jpg,247,301,978,1008
/home/najo/NAS/DIP/datasets/Fr5_intertek_dataset/Fr5_intertek_4th_250526/left/zed_38007749_left_1748249112.958.jpg,38007749,left,1748249112.958,/home/najo/NAS/DIP/datasets/Fr5_intertek_dataset/Fr5_intertek_4th_250526/joint/joint_38007749_1748249112.958.json,1748249112.958,0.0,20.81202138768564,-70.4123559328589,92.57123588335396,-112.1517007657797,-90.0,110.8115862855817,/home/najo/NAS/DIP/datasets/Fr5_intertek_dataset/preprocessed_roi/Fr5_intertek_4th_250526_zed_38007749_left_1748249112.958.jpg,386,301,1076,1008
/home/najo/NAS/DIP/datasets/Fr5_intertek_dataset/Fr5_intertek_4th_250526/right/zed_34850673_right_1748249112.963.jpg,34850673,right,1748249112.963,/home/najo/NAS/DIP/datasets/Fr5_intertek_dataset/Fr5_intertek_4th_250526/joint/joint_34850673_1748249112.963.json,1748249112.963,0.0,20.81180383663366,-70.4321530785891,92.53751547029702,-112.0988358601485,-90.0,110.8115862855817,/home/najo/NAS/DIP/datasets/Fr5_intertek_dataset/preprocessed_roi/Fr5_intertek_4th_250526_zed_34850673_right_1748249112.963.jpg,540,187,1646,1048
/home/najo/NAS/DIP/datasets/Fr5_intertek_dataset/Fr5_intertek_4th_250526/right/zed_34850673_left_1748249112.963.jpg,34850673,left,1748249112.963,/home/najo/NAS/DIP/datasets/Fr5_intertek_dataset/Fr5_intertek_4th_250526/joint/joint_34850673_1748249112.963.json,1748249112.963,0.0,20.81180383663366,-70.4321530785891,92.53751547029702,-112.0988358601485,-90.0,110.8115862855817,/home/najo/NAS/DIP/datasets/Fr5_intertek_dataset/preprocessed_roi/Fr5_intertek_4th_250526_zed_34850673_left_1748249112.963.jpg,768,187,1818,1044
/home/najo/NAS/DIP/datasets/Fr5_intertek_dataset/Fr5_intertek_4th_250526/top/zed_30779426_left_1748249113.091.jpg,30779426,left,1748249113.091,/home/najo/NAS/DIP/datasets/Fr5_intertek_dataset/Fr5_intertek_4th_250526/joint/joint_38007749_1748249113.095.json,1748249113.095,0.0039999485015869,20.81202138768564,-71.06783725247524,91.38449489480196,-110.3179629486386,-90.00021755105197,110.8113687345297,/home/najo/NAS/DIP/datasets/Fr5_intertek_dataset/preprocessed_roi/Fr5_intertek_4th_250526_zed_30779426_left_1748249113.091.jpg,765,177,1121,763
/home/najo/NAS/DIP/datasets/Fr5_intertek_dataset/Fr5_intertek_4th_250526/top/zed_30779426_right_1748249113.091.jpg,30779426,right,1748249113.091,/home/najo/NAS/DIP/datasets/Fr5_intertek_dataset/Fr5_intertek_4th_250526/joint/joint_38007749_1748249113.095.json,1748249113.095,0.0039999485015869,20.81202138768564,-71.06783725247524,91.38449489480196,-110.3179629486386,-90.00021755105197,110.8113687345297,/home/najo/NAS/DIP/datasets/Fr5_intertek_dataset/preprocessed_roi/Fr5_intertek_4th_250526_zed_30779426_right_1748249113.091.jpg,652,177,1031,763
/home/najo/NAS/DIP/datasets/Fr5_intertek_dataset/Fr5_intertek_4th_250526/left/zed_38007749_right_1748249113.095.jpg,38007749,right,1748249113.095,/home/najo/NAS/DIP/datasets/Fr5_intertek_dataset/Fr5_intertek_4th_250526/joint/joint_38007749_1748249113.095.json,1748249113.095,0.0,20.81202138768564,-71.06783725247524,91.38449489480196,-110.3179629486386,-90.00021755105197,110.8113687345297,/home/najo/NAS/DIP/datasets/Fr5_intertek_dataset/preprocessed_roi/Fr5_intertek_4th_250526_zed_38007749_right_1748249113.095.jpg,247,299,978,1008
/home/najo/NAS/DIP/datasets/Fr5_intertek_dataset/Fr5_intertek_4th_250526/left/zed_38007749_left_1748249113.095.jpg,38007749,left,1748249113.095,/home/najo/NAS/DIP/datasets/Fr5_intertek_dataset/Fr5_intertek_4th_250526/joint/joint_38007749_1748249113.095.json,1748249113.095,0.0,20.81202138768564,-71.06783725247524,91.38449489480196,-110.3179629486386,-90.00021755105197,110.8113687345297,/home/najo/NAS/DIP/datasets/Fr5_intertek_dataset/preprocessed_roi/Fr5_intertek_4th_250526_zed_38007749_left_1748249113.095.jpg,386,299,1080,1008
/home/najo/NAS/DIP/datasets/Fr5_intertek_dataset/Fr5_intertek_4th_250526/right/zed_34850673_left_1748249113.100.jpg,34850673,left,1748249113.1,/home/najo/NAS/DIP/datasets/Fr5_intertek_dataset/Fr5_intertek_4th_250526/joint/joint_34850673_1748249113.100.json,1748249113.1,0.0,20.81158628558168,-71.11352297339108,91.29508141243812,-110.181775990099,-90.00043510210396,110.8115862855817,/home/najo/NAS/DIP/datasets/Fr5_intertek_dataset/preprocessed_roi/Fr5_intertek_4th_250526_zed_34850673_left_1748249113.100.jpg,768,185,1818,1029
/home/najo/NAS/DIP/datasets/Fr5_intertek_dataset/Fr5_intertek_4th_250526/right/zed_34850673_right_1748249113.100.jpg,34850673,right,1748249113.1,/home/najo/NAS/DIP/datasets/Fr5_intertek_dataset/Fr5_intertek_4th_250526/joint/joint_34850673_1748249113.100.json,1748249113.1,0.0,20.81158628558168,-71.11352297339108,91.29508141243812,-110.181775990099,-90.00043510210396,110.8115862855817,/home/najo/NAS/DIP/datasets/Fr5_intertek_dataset/preprocessed_roi/Fr5_intertek_4th_250526_zed_34850673_right_1748249113.100.jpg,540,185,1646,1029
/home/najo/NAS/DIP/datasets/Fr5_intertek_dataset/Fr5_intertek_4th_250526/top/zed_30779426_right_1748249113.226.jpg,30779426,right,1748249113.226,/home/najo/NAS/DIP/datasets/Fr5_intertek_dataset/Fr5_intertek_4th_250526/joint/joint_38007749_1748249113.231.json,1748249113.231,0.0049998760223388,20.8113687345297,-71.67371693224008,90.12596205909654,-108.4489818610767,-90.00021755105197,110.8115862855817,/home/najo/NAS/DIP/datasets/Fr5_intertek_dataset/preprocessed_roi/Fr5_intertek_4th_250526_zed_30779426_right_1748249113.226.jpg,648,170,1031,763
/home/najo/NAS/DIP/datasets/Fr5_intertek_dataset/Fr5_intertek_4th_250526/top/zed_30779426_left_1748249113.226.jpg,30779426,left,1748249113.226,/home/najo/NAS/DIP/datasets/Fr5_intertek_dataset/Fr5_intertek_4th_250526/joint/joint_38007749_1748249113.231.json,1748249113.231,0.0049998760223388,20.8113687345297,-71.67371693224008,90.12596205909654,-108.4489818610767,-90.00021755105197,110.8115862855817,/home/najo/NAS/DIP/datasets/Fr5_intertek_dataset/preprocessed_roi/Fr5_intertek_4th_250526_zed_30779426_left_1748249113.226.jpg,765,172,1121,763
/home/najo/NAS/DIP/datasets/Fr5_intertek_dataset/Fr5_intertek_4th_250526/left/zed_38007749_left_1748249113.231.jpg,38007749,left,1748249113.231,/home/najo/NAS/DIP/datasets/Fr5_intertek_dataset/Fr5_intertek_4th_250526/joint/joint_38007749_1748249113.231.json,1748249113.231,0.0,20.8113687345297,-71.67371693224008,90.12596205909654,-108.4489818610767,-90.00021755105197,110.8115862855817,/home/najo/NAS/DIP/datasets/Fr5_intertek_dataset/preprocessed_roi/Fr5_intertek_4th_250526_zed_38007749_left_1748249113.231.jpg,386,297,1080,1008
/home/najo/NAS/DIP/datasets/Fr5_intertek_dataset/Fr5_intertek_4th_250526/left/zed_38007749_right_1748249113.231.jpg,38007749,right,1748249113.231,/home/najo/NAS/DIP/datasets/Fr5_intertek_dataset/Fr5_intertek_4th_250526/joint/joint_38007749_1748249113.231.json,1748249113.231,0.0,20.8113687345297,-71.67371693224008,90.12596205909654,-108.4489818610767,-90.00021755105197,110.8115862855817,/home/najo/NAS/DIP/datasets/Fr5_intertek_dataset/preprocessed_roi/Fr5_intertek_4th_250526_zed_38007749_right_1748249113.231.jpg,247,297,978,1008
/home/najo/NAS/DIP/datasets/Fr5_intertek_dataset/Fr5_intertek_4th_250526/right/zed_34850673_right_1748249113.238.jpg,34850673,right,1748249113.238,/home/najo/NAS/DIP/datasets/Fr5_intertek_dataset/Fr5_intertek_4th_250526/joint/joint_34850673_1748249113.238.json,1748249113.238,0.0,20.81158628558168,-71.71809734684406,90.03023959622524,-108.3171459235767,-90.0,110.8115862855817,/home/najo/NAS/DIP/datasets/Fr5_intertek_dataset/preprocessed_roi/Fr5_intertek_4th_250526_zed_34850673_right_1748249113.238.jpg,540,183,1646,1029
/home/najo/NAS/DIP/datasets/Fr5_intertek_dataset/Fr5_intertek_4th_250526/right/zed_34850673_left_1748249113.238.jpg,34850673,left,1748249113.238,/home/najo/NAS/DIP/datasets/Fr5_intertek_dataset/Fr5_intertek_4th_250526/joint/joint_34850673_1748249113.238.json,1748249113.238,0.0,20.81158628558168,-71.71809734684406,90.03023959622524,-108.3171459235767,-90.0,110.8115862855817,/home/najo/NAS/DIP/datasets/Fr5_intertek_dataset/preprocessed_roi/Fr5_intertek_4th_250526_zed_34850673_left_1748249113.238.jpg,768,183,1818,1029
/home/najo/NAS/DIP/datasets/Fr5_intertek_dataset/Fr5_intertek_4th_250526/top/zed_30779426_right_1748249113.362.jpg,30779426,right,1748249113.362,/home/najo/NAS/DIP/datasets/Fr5_intertek_dataset/Fr5_intertek_4th_250526/joint/joint_30779426_1748249113.362.json,1748249113.362,0.0,20.81223893873762,-72.2317353805693,88.7869353341584,-106.5464979115099,-90.0,110.8115862855817,/home/najo/NAS/DIP/datasets/Fr5_intertek_dataset/preprocessed_roi/Fr5_intertek_4th_250526_zed_30779426_right_1748249113.362.jpg,645,166,1031,763
/home/najo/NAS/DIP/datasets/Fr5_intertek_dataset/Fr5_intertek_4th_250526/top/zed_30779426_left_1748249113.362.jpg,30779426,left,1748249113.362,/home/najo/NAS/DIP/datasets/Fr5_intertek_dataset/Fr5_intertek_4th_250526/joint/joint_30779426_1748249113.362.json,1748249113.362,0.0,20.81223893873762,-72.2317353805693,88.7869353341584,-106.5464979115099,-90.0,110.8115862855817,/home/najo/NAS/DIP/datasets/Fr5_intertek_dataset/preprocessed_roi/Fr5_intertek_4th_250526_zed_30779426_left_1748249113.362.jpg,761,168,1121,763
/home/najo/NAS/DIP/datasets/Fr5_intertek_dataset/Fr5_intertek_4th_250526/left/zed_38007749_right_1748249113.366.jpg,38007749,right,1748249113.366,/home/najo/NAS/DIP/datasets/Fr5_intertek_dataset/Fr5_intertek_4th_250526/joint/joint_38007749_1748249113.366.json,1748249113.366,0.0,20.81223893873762,-72.22412109375,88.80651492883663,-106.5717338335396,-90.00021755105197,110.8115862855817,/home/najo/NAS/DIP/datasets/Fr5_intertek_dataset/preprocessed_roi/Fr5_intertek_4th_250526_zed_38007749_right_1748249113.366.jpg,247,295,978,1008
/home/najo/NAS/DIP/datasets/Fr5_intertek_dataset/Fr5_intertek_4th_250526/left/zed_38007749_left_1748249113.366.jpg,38007749,left,1748249113.366,/home/najo/NAS/DIP/datasets/Fr5_intertek_dataset/Fr5_intertek_4th_250526/joint/joint_38007749_1748249113.366.json,1748249113.366,0.0,20.81223893873762,-72.22412109375,88.80651492883663,-106.5717338335396,-90.00021755105197,110.8115862855817,/home/najo/NAS/DIP/datasets/Fr5_intertek_dataset/preprocessed_roi/Fr5_intertek_4th_250526_zed_38007749_left_1748249113.366.jpg,386,295,1080,1008
/home/najo/NAS/DIP/datasets/Fr5_intertek_dataset/Fr5_intertek_4th_250526/right/zed_34850673_left_1748249113.375.jpg,34850673,left,1748249113.375,/home/najo/NAS/DIP/datasets/Fr5_intertek_dataset/Fr5_intertek_4th_250526/joint/joint_34850673_1748249113.375.json,1748249113.375,0.0,20.81223893873762,-72.27742110148515,88.66815245977723,-106.3872505414604,-90.00021755105197,110.8115862855817,/home/najo/NAS/DIP/datasets/Fr5_intertek_dataset/preprocessed_roi/Fr5_intertek_4th_250526_zed_34850673_left_1748249113.375.jpg,768,183,1818,1029
/home/najo/NAS/DIP/datasets/Fr5_intertek_dataset/Fr5_intertek_4th_250526/right/zed_34850673_right_1748249113.375.jpg,34850673,right,1748249113.375,/home/najo/NAS/DIP/datasets/Fr5_intertek_dataset/Fr5_intertek_4th_250526/joint/joint_34850673_1748249113.375.json,1748249113.375,0.0,20.81223893873762,-72.27742110148515,88.66815245977723,-106.3872505414604,-90.00021755105197,110.8115862855817,/home/najo/NAS/DIP/datasets/Fr5_intertek_dataset/preprocessed_roi/Fr5_intertek_4th_250526_zed_34850673_right_1748249113.375.jpg,536,181,1646,1029
/home/najo/NAS/DIP/datasets/Fr5_intertek_dataset/Fr5_intertek_4th_250526/left/zed_38007749_left_1748249113.499.jpg,38007749,left,1748249113.499,/home/najo/NAS/DIP/datasets/Fr5_intertek_dataset/Fr5_intertek_4th_250526/joint/joint_38007749_1748249113.499.json,1748249113.499,0.0,20.81158628558168,-72.71382851175743,87.41788656404702,-104.709496828589,-90.00021755105197,110.8113687345297,/home/najo/NAS/DIP/datasets/Fr5_intertek_dataset/preprocessed_roi/Fr5_intertek_4th_250526_zed_38007749_left_1748249113.499.jpg,386,295,1080,1008
/home/najo/NAS/DIP/datasets/Fr5_intertek_dataset/Fr5_intertek_4th_250526/left/zed_38007749_right_1748249113.499.jpg,38007749,right,1748249113.499,/home/najo/NAS/DIP/datasets/Fr5_intertek_dataset/Fr5_intertek_4th_250526/joint/joint_38007749_1748249113.499.json,1748249113.499,0.0,20.81158628558168,-72.71382851175743,87.41788656404702,-104.709496828589,-90.00021755105197,110.8113687345297,/home/najo/NAS/DIP/datasets/Fr5_intertek_dataset/preprocessed_roi/Fr5_intertek_4th_250526_zed_38007749_right_1748249113.499.jpg,247,293,990,1008
/home/najo/NAS/DIP/datasets/Fr5_intertek_dataset/Fr5_intertek_4th_250526/top/zed_30779426_left_1748249113.503.jpg,30779426,left,1748249113.503,/home/najo/NAS/DIP/datasets/Fr5_intertek_dataset/Fr5_intertek_4th_250526/joint/joint_30779426_1748249113.503.json,1748249113.503,0.0,20.81158628558168,-72.73471341274752,87.35588451423267,-104.6255221225247,-90.0,110.8115862855817,/home/najo/NAS/DIP/datasets/Fr5_intertek_dataset/preprocessed_roi/Fr5_intertek_4th_250526_zed_30779426_left_1748249113.503.jpg,757,162,1121,763
/home/najo/NAS/DIP/datasets/Fr5_intertek_dataset/Fr5_intertek_4th_250526/top/zed_30779426_right_1748249113.503.jpg,30779426,right,1748249113.503,/home/najo/NAS/DIP/datasets/Fr5_intertek_dataset/Fr5_intertek_4th_250526/joint/joint_30779426_1748249113.503.json,1748249113.503,0.0,20.81158628558168,-72.73471341274752,87.35588451423267,-104.6255221225247,-90.0,110.8115862855817,/home/najo/NAS/DIP/datasets/Fr5_intertek_dataset/preprocessed_roi/Fr5_intertek_4th_250526_zed_30779426_right_1748249113.503.jpg,641,162,1031,763
/home/najo/NAS/DIP/datasets/Fr5_intertek_dataset/Fr5_intertek_4th_250526/left/zed_38007749_right_1748249113.633.jpg,38007749,right,1748249113.633,/home/najo/NAS/DIP/datasets/Fr5_intertek_dataset/Fr5_intertek_4th_250526/joint/joint_38007749_1748249113.633.json,1748249113.633,0.0,20.81202138768564,-73.14196898205445,86.01598758508663,-102.8818504409034,-89.99934734684406,110.8113687345297,/home/najo/NAS/DIP/datasets/Fr5_intertek_dataset/preprocessed_roi/Fr5_intertek_4th_250526_zed_38007749_right_1748249113.633.jpg,247,293,1012,1008
/home/najo/NAS/DIP/datasets/Fr5_intertek_dataset/Fr5_intertek_4th_250526/right/zed_34850673_left_1748249113.513.jpg,34850673,left,1748249113.513,/home/najo/NAS/DIP/datasets/Fr5_intertek_dataset/Fr5_intertek_4th_250526/joint/joint_34850673_1748249113.513.json,1748249113.513,0.0,20.81180383663366,-72.77365505105197,87.24471592667079,-104.468232711943,-90.00021755105197,110.8115862855817,/home/najo/NAS/DIP/datasets/Fr5_intertek_dataset/preprocessed_roi/Fr5_intertek_4th_250526_zed_34850673_left_1748249113.513.jpg,765,181,1818,1029
/home/najo/NAS/DIP/datasets/Fr5_intertek_dataset/Fr5_intertek_4th_250526/right/zed_34850673_right_1748249113.513.jpg,34850673,right,1748249113.513,/home/najo/NAS/DIP/datasets/Fr5_intertek_dataset/Fr5_intertek_4th_250526/joint/joint_34850673_1748249113.513.json,1748249113.513,0.0,20.81180383663366,-72.77365505105197,87.24471592667079,-104.468232711943,-90.00021755105197,110.8115862855817,/home/najo/NAS/DIP/datasets/Fr5_intertek_dataset/preprocessed_roi/Fr5_intertek_4th_250526_zed_34850673_right_1748249113.513.jpg,536,181,1646,1029
/home/najo/NAS/DIP/datasets/Fr5_intertek_dataset/Fr5_intertek_4th_250526/left/zed_38007749_left_1748249113.633.jpg,38007749,left,1748249113.633,/home/najo/NAS/DIP/datasets/Fr5_intertek_dataset/Fr5_intertek_4th_250526/joint/joint_38007749_1748249113.633.json,1748249113.633,0.0,20.81202138768564,-73.14196898205445,86.01598758508663,-102.8818504409034,-89.99934734684406,110.8113687345297,/home/najo/NAS/DIP/datasets/Fr5_intertek_dataset/preprocessed_roi/Fr5_intertek_4th_250526_zed_38007749_left_1748249113.633.jpg,386,293,1080,1008
/home/najo/NAS/DIP/datasets/Fr5_intertek_dataset/Fr5_intertek_4th_250526/top/zed_30779426_right_1748249113.640.jpg,30779426,right,1748249113.64,/home/najo/NAS/DIP/datasets/Fr5_intertek_dataset/Fr5_intertek_4th_250526/joint/joint_30779426_1748249113.640.json,1748249113.64,0.0,20.81223893873762,-73.1787351098391,85.87610225866337,-102.7082447014232,-90.0,110.8115862855817,/home/najo/NAS/DIP/datasets/Fr5_intertek_dataset/preprocessed_roi/Fr5_intertek_4th_250526_zed_30779426_right_1748249113.640.jpg,637,158,1031,763
/home/najo/NAS/DIP/datasets/Fr5_intertek_dataset/Fr5_intertek_4th_250526/top/zed_30779426_left_1748249113.640.jpg,30779426,left,1748249113.64,/home/najo/NAS/DIP/datasets/Fr5_intertek_dataset/Fr5_intertek_4th_250526/joint/joint_30779426_1748249113.640.json,1748249113.64,0.0,20.81223893873762,-73.1787351098391,85.87610225866337,-102.7082447014232,-90.0,110.8115862855817,/home/najo/NAS/DIP/datasets/Fr5_intertek_dataset/preprocessed_roi/Fr5_intertek_4th_250526_zed_30779426_left_1748249113.640.jpg,753,158,1121,763
/home/najo/NAS/DIP/datasets/Fr5_intertek_dataset/Fr5_intertek_4th_250526/right/zed_34850673_left_1748249113.651.jpg,34850673,left,1748249113.651,/home/najo/NAS/DIP/datasets/Fr5_intertek_dataset/Fr5_intertek_4th_250526/joint/joint_34850673_1748249113.651.json,1748249113.651,0.0,20.81202138768564,-73.2074518487005,85.7671091816213,-102.565966313428,-89.99978244894803,110.8115862855817,/home/najo/NAS/DIP/datasets/Fr5_intertek_dataset/preprocessed_roi/Fr5_intertek_4th_250526_zed_34850673_left_1748249113.651.jpg,765,179,1818,1029
/home/najo/NAS/DIP/datasets/Fr5_intertek_dataset/Fr5_intertek_4th_250526/right/zed_34850673_right_1748249113.651.jpg,34850673,right,1748249113.651,/home/najo/NAS/DIP/datasets/Fr5_intertek_dataset/Fr5_intertek_4th_250526/joint/joint_34850673_1748249113.651.json,1748249113.651,0.0,20.81202138768564,-73.2074518487005,85.7671091816213,-102.565966313428,-89.99978244894803,110.8115862855817,/home/najo/NAS/DIP/datasets/Fr5_intertek_dataset/preprocessed_roi/Fr5_intertek_4th_250526_zed_34850673_right_1748249113.651.jpg,536,179,1646,1029
/home/najo/NAS/DIP/datasets/Fr5_intertek_dataset/Fr5_intertek_4th_250526/left/zed_38007749_left_1748249113.765.jpg,38007749,left,1748249113.765,/home/najo/NAS/DIP/datasets/Fr5_intertek_dataset/Fr5_intertek_4th_250526/joint/joint_38007749_1748249113.765.json,1748249113.765,0.0,20.81180383663366,-73.5137637298886,84.52162940903466,-101.00612527073,-90.00043510210396,110.8115862855817,/home/najo/NAS/DIP/datasets/Fr5_intertek_dataset/preprocessed_roi/Fr5_intertek_4th_250526_zed_38007749_left_1748249113.765.jpg,386,291,1080,1008
/home/najo/NAS/DIP/datasets/Fr5_intertek_dataset/Fr5_intertek_4th_250526/left/zed_38007749_right_1748249113.765.jpg,38007749,right,1748249113.765,/home/najo/NAS/DIP/datasets/Fr5_intertek_dataset/Fr5_intertek_4th_250526/joint/joint_38007749_1748249113.765.json,1748249113.765,0.0,20.81180383663366,-73.5137637298886,84.52162940903466,-101.00612527073,-90.00043510210396,110.8115862855817,/home/najo/NAS/DIP/datasets/Fr5_intertek_dataset/preprocessed_roi/Fr5_intertek_4th_250526_zed_38007749_right_1748249113.765.jpg,247,291,1031,1008
/home/najo/NAS/DIP/datasets/Fr5_intertek_dataset/Fr5_intertek_4th_250526/top/zed_30779426_right_1748249113.777.jpg,30779426,right,1748249113.777,/home/najo/NAS/DIP/datasets/Fr5_intertek_dataset/Fr5_intertek_4th_250526/joint/joint_30779426_1748249113.777.json,1748249113.777,0.0,20.81158628558168,-73.55314047029702,84.34998162902228,-100.7948831992574,-90.0,110.8113687345297,/home/najo/NAS/DIP/datasets/Fr5_intertek_dataset/preprocessed_roi/Fr5_intertek_4th_250526_zed_30779426_right_1748249113.777.jpg,633,153,1031,763
/home/najo/NAS/DIP/datasets/Fr5_intertek_dataset/Fr5_intertek_4th_250526/top/zed_30779426_left_1748249113.777.jpg,30779426,left,1748249113.777,/home/najo/NAS/DIP/datasets/Fr5_intertek_dataset/Fr5_intertek_4th_250526/joint/joint_30779426_1748249113.777.json,1748249113.777,0.0,20.81158628558168,-73.55314047029702,84.34998162902228,-100.7948831992574,-90.0,110.8113687345297,/home/najo/NAS/DIP/datasets/Fr5_intertek_dataset/preprocessed_roi/Fr5_intertek_4th_250526_zed_30779426_left_1748249113.777.jpg,753,153,1121,763
/home/najo/NAS/DIP/datasets/Fr5_intertek_dataset/Fr5_intertek_4th_250526/right/zed_34850673_right_1748249113.789.jpg,34850673,right,1748249113.789,/home/najo/NAS/DIP/datasets/Fr5_intertek_dataset/Fr5_intertek_4th_250526/joint/joint_34850673_1748249113.789.json,1748249113.789,0.0,20.8113687345297,-73.5807694538985,84.2233669167698,-100.645860728651,-90.0,110.8113687345297,/home/najo/NAS/DIP/datasets/Fr5_intertek_dataset/preprocessed_roi/Fr5_intertek_4th_250526_zed_34850673_right_1748249113.789.jpg,536,177,1646,1029
/home/najo/NAS/DIP/datasets/Fr5_intertek_dataset/Fr5_intertek_4th_250526/right/zed_34850673_left_1748249113.789.jpg,34850673,left,1748249113.789,/home/najo/NAS/DIP/datasets/Fr5_intertek_dataset/Fr5_intertek_4th_250526/joint/joint_34850673_1748249113.789.json,1748249113.789,0.0,20.8113687345297,-73.5807694538985,84.2233669167698,-100.645860728651,-90.0,110.8113687345297,/home/najo/NAS/DIP/datasets/Fr5_intertek_dataset/preprocessed_roi/Fr5_intertek_4th_250526_zed_34850673_left_1748249113.789.jpg,765,179,1818,1029
/home/najo/NAS/DIP/datasets/Fr5_intertek_dataset/Fr5_intertek_4th_250526/left/zed_38007749_right_1748249113.901.jpg,38007749,right,1748249113.901,/home/najo/NAS/DIP/datasets/Fr5_intertek_dataset/Fr5_intertek_4th_250526/joint/joint_38007749_1748249113.901.json,1748249113.901,0.0,20.81158628558168,-73.84574663521039,82.9050075417698,-99.06513478496286,-89.99978244894803,110.8113687345297,/home/najo/NAS/DIP/datasets/Fr5_intertek_dataset/preprocessed_roi/Fr5_intertek_4th_250526_zed_38007749_right_1748249113.901.jpg,247,291,990,1008
/home/najo/NAS/DIP/datasets/Fr5_intertek_dataset/Fr5_intertek_4th_250526/top/zed_30779426_right_1748249113.915.jpg,30779426,right,1748249113.915,/home/najo/NAS/DIP/datasets/Fr5_intertek_dataset/Fr5_intertek_4th_250526/joint/joint_30779426_1748249113.915.json,1748249113.915,0.0,20.81202138768564,-73.8740282719678,82.74858833539604,-98.876953125,-90.0,110.8115862855817,/home/najo/NAS/DIP/datasets/Fr5_intertek_dataset/preprocessed_roi/Fr5_intertek_4th_250526_zed_30779426_right_1748249113.915.jpg,630,147,1031,763
/home/najo/NAS/DIP/datasets/Fr5_intertek_dataset/Fr5_intertek_4th_250526/left/zed_38007749_left_1748249113.901.jpg,38007749,left,1748249113.901,/home/najo/NAS/DIP/datasets/Fr5_intertek_dataset/Fr5_intertek_4th_250526/joint/joint_38007749_1748249113.901.json,1748249113.901,0.0,20.81158628558168,-73.84574663521039,82.9050075417698,-99.06513478496286,-89.99978244894803,110.8113687345297,/home/najo/NAS/DIP/datasets/Fr5_intertek_dataset/preprocessed_roi/Fr5_intertek_4th_250526_zed_38007749_left_1748249113.901.jpg,386,291,1080,1008
/home/najo/NAS/DIP/datasets/Fr5_intertek_dataset/Fr5_intertek_4th_250526/top/zed_30779426_left_1748249113.915.jpg,30779426,left,1748249113.915,/home/najo/NAS/DIP/datasets/Fr5_intertek_dataset/Fr5_intertek_4th_250526/joint/joint_30779426_1748249113.915.json,1748249113.915,0.0,20.81202138768564,-73.8740282719678,82.74858833539604,-98.876953125,-90.0,110.8115862855817,/home/najo/NAS/DIP/datasets/Fr5_intertek_dataset/preprocessed_roi/Fr5_intertek_4th_250526_zed_30779426_left_1748249113.915.jpg,750,147,1121,763
/home/najo/NAS/DIP/datasets/Fr5_intertek_dataset/Fr5_intertek_4th_250526/right/zed_34850673_left_1748249113.927.jpg,34850673,left,1748249113.927,/home/najo/NAS/DIP/datasets/Fr5_intertek_dataset/Fr5_intertek_4th_250526/joint/joint_34850673_1748249113.927.json,1748249113.927,0.0,20.81180383663366,-73.90143970451733,82.5928217821782,-98.69072942450497,-90.00021755105197,110.8115862855817,/home/najo/NAS/DIP/datasets/Fr5_intertek_dataset/preprocessed_roi/Fr5_intertek_4th_250526_zed_34850673_left_1748249113.927.jpg,765,177,1818,1029
/home/najo/NAS/DIP/datasets/Fr5_intertek_dataset/Fr5_intertek_4th_250526/right/zed_34850673_right_1748249113.927.jpg,34850673,right,1748249113.927,/home/najo/NAS/DIP/datasets/Fr5_intertek_dataset/Fr5_intertek_4th_250526/joint/joint_34850673_1748249113.927.json,1748249113.927,0.0,20.81180383663366,-73.90143970451733,82.5928217821782,-98.69072942450497,-90.00021755105197,110.8115862855817,/home/najo/NAS/DIP/datasets/Fr5_intertek_dataset/preprocessed_roi/Fr5_intertek_4th_250526_zed_34850673_right_1748249113.927.jpg,532,177,1646,1029
/home/najo/NAS/DIP/datasets/Fr5_intertek_dataset/Fr5_intertek_4th_250526/left/zed_38007749_left_1748249114.039.jpg,38007749,left,1748249114.039,/home/najo/NAS/DIP/datasets/Fr5_intertek_dataset/Fr5_intertek_4th_250526/joint/joint_38007749_1748249114.039.json,1748249114.039,0.0,20.8113687345297,-74.10637279548267,81.2187693378713,-97.10630511293316,-90.0,110.8115862855817,/home/najo/NAS/DIP/datasets/Fr5_intertek_dataset/preprocessed_roi/Fr5_intertek_4th_250526_zed_38007749_left_1748249114.039.jpg,386,291,1080,1008
/home/najo/NAS/DIP/datasets/Fr5_intertek_dataset/Fr5_intertek_4th_250526/top/zed_30779426_right_1748249114.053.jpg,30779426,right,1748249114.053,/home/najo/NAS/DIP/datasets/Fr5_intertek_dataset/Fr5_intertek_4th_250526/joint/joint_30779426_1748249114.053.json,1748249114.053,0.0,20.81158628558168,-74.1257348391089,81.06452564201733,-96.93422223081684,-90.0,110.8115862855817,/home/najo/NAS/DIP/datasets/Fr5_intertek_dataset/preprocessed_roi/Fr5_intertek_4th_250526_zed_30779426_right_1748249114.053.jpg,626,143,1031,763
/home/najo/NAS/DIP/datasets/Fr5_intertek_dataset/Fr5_intertek_4th_250526/left/zed_38007749_right_1748249114.039.jpg,38007749,right,1748249114.039,/home/najo/NAS/DIP/datasets/Fr5_intertek_dataset/Fr5_intertek_4th_250526/joint/joint_38007749_1748249114.039.json,1748249114.039,0.0,20.8113687345297,-74.10637279548267,81.2187693378713,-97.10630511293316,-90.0,110.8115862855817,/home/najo/NAS/DIP/datasets/Fr5_intertek_dataset/preprocessed_roi/Fr5_intertek_4th_250526_zed_38007749_right_1748249114.039.jpg,247,291,986,1008
/home/najo/NAS/DIP/datasets/Fr5_intertek_dataset/Fr5_intertek_4th_250526/top/zed_30779426_left_1748249114.053.jpg,30779426,left,1748249114.053,/home/najo/NAS/DIP/datasets/Fr5_intertek_dataset/Fr5_intertek_4th_250526/joint/joint_30779426_1748249114.053.json,1748249114.053,0.0,20.81158628558168,-74.1257348391089,81.06452564201733,-96.93422223081684,-90.0,110.8115862855817,/home/najo/NAS/DIP/datasets/Fr5_intertek_dataset/preprocessed_roi/Fr5_intertek_4th_250526_zed_30779426_left_1748249114.053.jpg,746,143,1121,763
/home/najo/NAS/DIP/datasets/Fr5_intertek_dataset/Fr5_intertek_4th_250526/right/zed_34850673_left_1748249114.066.jpg,34850673,left,1748249114.066,/home/najo/NAS/DIP/datasets/Fr5_intertek_dataset/Fr5_intertek_4th_250526/joint/joint_34850673_1748249114.066.json,1748249114.066,0.0,20.81180383663366,-74.14248627011139,80.93921623607673,-96.7928140470297,-89.99978244894803,110.8115862855817,/home/najo/NAS/DIP/datasets/Fr5_intertek_dataset/preprocessed_roi/Fr5_intertek_4th_250526_zed_34850673_left_1748249114.066.jpg,761,177,1818,1027
/home/najo/NAS/DIP/datasets/Fr5_intertek_dataset/Fr5_intertek_4th_250526/right/zed_34850673_right_1748249114.066.jpg,34850673,right,1748249114.066,/home/najo/NAS/DIP/datasets/Fr5_intertek_dataset/Fr5_intertek_4th_250526/joint/joint_34850673_1748249114.066.json,1748249114.066,0.0,20.81180383663366,-74.14248627011139,80.93921623607673,-96.7928140470297,-89.99978244894803,110.8115862855817,/home/najo/NAS/DIP/datasets/Fr5_intertek_dataset/preprocessed_roi/Fr5_intertek_4th_250526_zed_34850673_right_1748249114.066.jpg,532,177,1646,1027
/home/najo/NAS/DIP/datasets/Fr5_intertek_dataset/Fr5_intertek_4th_250526/left/zed_38007749_left_1748249114.180.jpg,38007749,left,1748249114.18,/home/najo/NAS/DIP/datasets/Fr5_intertek_dataset/Fr5_intertek_4th_250526/joint/joint_38007749_1748249114.180.json,1748249114.18,0.0,20.81180383663366,-74.3091303759282,79.45138459158416,-95.1315942141089,-89.99978244894803,110.8115862855817,/home/najo/NAS/DIP/datasets/Fr5_intertek_dataset/preprocessed_roi/Fr5_intertek_4th_250526_zed_38007749_left_1748249114.180.jpg,386,288,1080,1008
/home/najo/NAS/DIP/datasets/Fr5_intertek_dataset/Fr5_intertek_4th_250526/left/zed_38007749_right_1748249114.180.jpg,38007749,right,1748249114.18,/home/najo/NAS/DIP/datasets/Fr5_intertek_dataset/Fr5_intertek_4th_250526/joint/joint_38007749_1748249114.180.json,1748249114.18,0.0,20.81180383663366,-74.3091303759282,79.45138459158416,-95.1315942141089,-89.99978244894803,110.8115862855817,/home/najo/NAS/DIP/datasets/Fr5_intertek_dataset/preprocessed_roi/Fr5_intertek_4th_250526_zed_38007749_right_1748249114.180.jpg,247,288,986,1008
/home/najo/NAS/DIP/datasets/Fr5_intertek_dataset/Fr5_intertek_4th_250526/top/zed_30779426_right_1748249114.191.jpg,30779426,right,1748249114.191,/home/najo/NAS/DIP/datasets/Fr5_intertek_dataset/Fr5_intertek_4th_250526/joint/joint_30779426_1748249114.191.json,1748249114.191,0.0,20.81158628558168,-74.32153078589108,79.32041885829207,-94.99693011293316,-89.99956489789604,110.8115862855817,/home/najo/NAS/DIP/datasets/Fr5_intertek_dataset/preprocessed_roi/Fr5_intertek_4th_250526_zed_30779426_right_1748249114.191.jpg,622,139,1031,763
/home/najo/NAS/DIP/datasets/Fr5_intertek_dataset/Fr5_intertek_4th_250526/top/zed_30779426_left_1748249114.191.jpg,30779426,left,1748249114.191,/home/najo/NAS/DIP/datasets/Fr5_intertek_dataset/Fr5_intertek_4th_250526/joint/joint_30779426_1748249114.191.json,1748249114.191,0.0,20.81158628558168,-74.32153078589108,79.32041885829207,-94.99693011293316,-89.99956489789604,110.8115862855817,/home/najo/NAS/DIP/datasets/Fr5_intertek_dataset/preprocessed_roi/Fr5_intertek_4th_250526_zed_30779426_left_1748249114.191.jpg,742,139,1121,763
/home/najo/NAS/DIP/datasets/Fr5_intertek_dataset/Fr5_intertek_4th_250526/right/zed_34850673_right_1748249114.201.jpg,34850673,right,1748249114.201,/home/najo/NAS/DIP/datasets/Fr5_intertek_dataset/Fr5_intertek_4th_250526/joint/joint_34850673_1748249114.201.json,1748249114.201,0.0,20.81093363242574,-74.33741201268565,79.16160659034654,-94.8305035581683,-89.99978244894803,110.8115862855817,/home/najo/NAS/DIP/datasets/Fr5_intertek_dataset/preprocessed_roi/Fr5_intertek_4th_250526_zed_34850673_right_1748249114.201.jpg,532,177,1646,1029
/home/najo/NAS/DIP/datasets/Fr5_intertek_dataset/Fr5_intertek_4th_250526/right/zed_34850673_left_1748249114.201.jpg,34850673,left,1748249114.201,/home/najo/NAS/DIP/datasets/Fr5_intertek_dataset/Fr5_intertek_4th_250526/joint/joint_34850673_1748249114.201.json,1748249114.201,0.0,20.81093363242574,-74.33741201268565,79.16160659034654,-94.8305035581683,-89.99978244894803,110.8115862855817,/home/najo/NAS/DIP/datasets/Fr5_intertek_dataset/preprocessed_roi/Fr5_intertek_4th_250526_zed_34850673_left_1748249114.201.jpg,761,177,1818,1029
/home/najo/NAS/DIP/datasets/Fr5_intertek_dataset/Fr5_intertek_4th_250526/left/zed_38007749_right_1748249114.318.jpg,38007749,right,1748249114.318,/home/najo/NAS/DIP/datasets/Fr5_intertek_dataset/Fr5_intertek_4th_250526/joint/joint_38007749_1748249114.318.json,1748249114.318,0.0,20.81180383663366,-74.45032100866337,77.62439085705445,-93.16776086788364,-90.0,110.8115862855817,/home/najo/NAS/DIP/datasets/Fr5_intertek_dataset/preprocessed_roi/Fr5_intertek_4th_250526_zed_38007749_right_1748249114.318.jpg,247,288,978,1008
/home/najo/NAS/DIP/datasets/Fr5_intertek_dataset/Fr5_intertek_4th_250526/left/zed_38007749_left_1748249114.318.jpg,38007749,left,1748249114.318,/home/najo/NAS/DIP/datasets/Fr5_intertek_dataset/Fr5_intertek_4th_250526/joint/joint_38007749_1748249114.318.json,1748249114.318,0.0,20.81180383663366,-74.45032100866337,77.62439085705445,-93.16776086788364,-90.0,110.8115862855817,/home/najo/NAS/DIP/datasets/Fr5_intertek_dataset/preprocessed_roi/Fr5_intertek_4th_250526_zed_38007749_left_1748249114.318.jpg,386,288,1080,1008
/home/najo/NAS/DIP/datasets/Fr5_intertek_dataset/Fr5_intertek_4th_250526/top/zed_30779426_left_1748249114.328.jpg,30779426,left,1748249114.328,/home/najo/NAS/DIP/datasets/Fr5_intertek_dataset/Fr5_intertek_4th_250526/joint/joint_30779426_1748249114.328.json,1748249114.328,0.0,20.81158628558168,-74.45728264232673,77.48472308168317,-93.02722288830444,-90.0,110.8115862855817,/home/najo/NAS/DIP/datasets/Fr5_intertek_dataset/preprocessed_roi/Fr5_intertek_4th_250526_zed_30779426_left_1748249114.328.jpg,738,132,1121,763
/home/najo/NAS/DIP/datasets/Fr5_intertek_dataset/Fr5_intertek_4th_250526/top/zed_30779426_right_1748249114.328.jpg,30779426,right,1748249114.328,/home/najo/NAS/DIP/datasets/Fr5_intertek_dataset/Fr5_intertek_4th_250526/joint/joint_30779426_1748249114.328.json,1748249114.328,0.0,20.81158628558168,-74.45728264232673,77.48472308168317,-93.02722288830444,-90.0,110.8115862855817,/home/najo/NAS/DIP/datasets/Fr5_intertek_dataset/preprocessed_roi/Fr5_intertek_4th_250526_zed_30779426_right_1748249114.328.jpg,615,132,1031,763
/home/najo/NAS/DIP/datasets/Fr5_intertek_dataset/Fr5_intertek_4th_250526/right/zed_34850673_right_1748249114.338.jpg,34850673,right,1748249114.338,/home/najo/NAS/DIP/datasets/Fr5_intertek_dataset/Fr5_intertek_4th_250526/joint/joint_34850673_1748249114.338.json,1748249114.338,0.0,20.81158628558168,-74.46467937809406,77.34636061262377,-92.89429919554456,-89.99934734684406,110.8113687345297,/home/najo/NAS/DIP/datasets/Fr5_intertek_dataset/preprocessed_roi/Fr5_intertek_4th_250526_zed_34850673_right_1748249114.338.jpg,532,175,1646,1029
/home/najo/NAS/DIP/datasets/Fr5_intertek_dataset/Fr5_intertek_4th_250526/right/zed_34850673_left_1748249114.338.jpg,34850673,left,1748249114.338,/home/najo/NAS/DIP/datasets/Fr5_intertek_dataset/Fr5_intertek_4th_250526/joint/joint_34850673_1748249114.338.json,1748249114.338,0.0,20.81158628558168,-74.46467937809406,77.34636061262377,-92.89429919554456,-89.99934734684406,110.8113687345297,/home/najo/NAS/DIP/datasets/Fr5_intertek_dataset/preprocessed_roi/Fr5_intertek_4th_250526_zed_34850673_left_1748249114.338.jpg,761,177,1818,1029
/home/najo/NAS/DIP/datasets/Fr5_intertek_dataset/Fr5_intertek_4th_250526/left/zed_38007749_left_1748249114.457.jpg,38007749,left,1748249114.457,/home/najo/NAS/DIP/datasets/Fr5_intertek_dataset/Fr5_intertek_4th_250526/joint/joint_38007749_1748249114.457.json,1748249114.457,0.0,20.81158628558168,-74.51645652846534,75.9834032719678,-91.45628674195544,-90.0,110.8113687345297,/home/najo/NAS/DIP/datasets/Fr5_intertek_dataset/preprocessed_roi/Fr5_intertek_4th_250526_zed_38007749_left_1748249114.457.jpg,386,288,1080,1008
/home/najo/NAS/DIP/datasets/Fr5_intertek_dataset/Fr5_intertek_4th_250526/left/zed_38007749_right_1748249114.457.jpg,38007749,right,1748249114.457,/home/najo/NAS/DIP/datasets/Fr5_intertek_dataset/Fr5_intertek_4th_250526/joint/joint_38007749_1748249114.457.json,1748249114.457,0.0,20.81158628558168,-74.51645652846534,75.9834032719678,-91.45628674195544,-90.0,110.8113687345297,/home/najo/NAS/DIP/datasets/Fr5_intertek_dataset/preprocessed_roi/Fr5_intertek_4th_250526_zed_38007749_right_1748249114.457.jpg,247,288,978,1008
/home/najo/NAS/DIP/datasets/Fr5_intertek_dataset/Fr5_intertek_4th_250526/top/zed_30779426_left_1748249114.465.jpg,30779426,left,1748249114.465,/home/najo/NAS/DIP/datasets/Fr5_intertek_dataset/Fr5_intertek_4th_250526/joint/joint_30779426_1748249114.465.json,1748249114.465,0.0,20.81158628558168,-74.5168916305693,75.95011796101485,-91.4247418394183,-89.99978244894803,110.8113687345297,/home/najo/NAS/DIP/datasets/Fr5_intertek_dataset/preprocessed_roi/Fr5_intertek_4th_250526_zed_30779426_left_1748249114.465.jpg,738,126,1121,763
/home/najo/NAS/DIP/datasets/Fr5_intertek_dataset/Fr5_intertek_4th_250526/top/zed_30779426_right_1748249114.465.jpg,30779426,right,1748249114.465,/home/najo/NAS/DIP/datasets/Fr5_intertek_dataset/Fr5_intertek_4th_250526/joint/joint_30779426_1748249114.465.json,1748249114.465,0.0,20.81158628558168,-74.5168916305693,75.95011796101485,-91.4247418394183,-89.99978244894803,110.8113687345297,/home/najo/NAS/DIP/datasets/Fr5_intertek_dataset/preprocessed_roi/Fr5_intertek_4th_250526_zed_30779426_right_1748249114.465.jpg,611,126,1031,763
/home/najo/NAS/DIP/datasets/Fr5_intertek_dataset/Fr5_intertek_4th_250526/right/zed_34850673_right_1748249114.476.jpg,34850673,right,1748249114.476,/home/najo/NAS/DIP/datasets/Fr5_intertek_dataset/Fr5_intertek_4th_250526/joint/joint_34850673_1748249114.476.json,1748249114.476,0.0,20.81115118347772,-74.5190671410891,75.84569345606435,-91.32445080445544,-90.0,110.8113687345297,/home/najo/NAS/DIP/datasets/Fr5_intertek_dataset/preprocessed_roi/Fr5_intertek_4th_250526_zed_34850673_right_1748249114.476.jpg,528,166,1646,1029
/home/najo/NAS/DIP/datasets/Fr5_intertek_dataset/Fr5_intertek_4th_250526/right/zed_34850673_left_1748249114.476.jpg,34850673,left,1748249114.476,/home/najo/NAS/DIP/datasets/Fr5_intertek_dataset/Fr5_intertek_4th_250526/joint/joint_34850673_1748249114.476.json,1748249114.476,0.0,20.81115118347772,-74.5190671410891,75.84569345606435,-91.32445080445544,-90.0,110.8113687345297,/home/najo/NAS/DIP/datasets/Fr5_intertek_dataset/preprocessed_roi/Fr5_intertek_4th_250526_zed_34850673_left_1748249114.476.jpg,761,166,1818,1029
/home/najo/NAS/DIP/datasets/Fr5_intertek_dataset/Fr5_intertek_4th_250526/left/zed_38007749_left_1748249114.599.jpg,38007749,left,1748249114.599,/home/najo/NAS/DIP/datasets/Fr5_intertek_dataset/Fr5_intertek_4th_250526/joint/joint_30779426_1748249114.602.json,1748249114.602,0.0030000209808349,20.81180383663366,-74.52798673422029,75.34467338335396,-90.81799195544556,-90.0,110.8113687345297,/home/najo/NAS/DIP/datasets/Fr5_intertek_dataset/preprocessed_roi/Fr5_intertek_4th_250526_zed_38007749_left_1748249114.599.jpg,386,288,1080,1008
/home/najo/NAS/DIP/datasets/Fr5_intertek_dataset/Fr5_intertek_4th_250526/top/zed_30779426_right_1748249114.602.jpg,30779426,right,1748249114.602,/home/najo/NAS/DIP/datasets/Fr5_intertek_dataset/Fr5_intertek_4th_250526/joint/joint_30779426_1748249114.602.json,1748249114.602,0.0,20.81180383663366,-74.52798673422029,75.34467338335396,-90.81799195544556,-90.0,110.8113687345297,/home/najo/NAS/DIP/datasets/Fr5_intertek_dataset/preprocessed_roi/Fr5_intertek_4th_250526_zed_30779426_right_1748249114.602.jpg,607,124,1031,763
/home/najo/NAS/DIP/datasets/Fr5_intertek_dataset/Fr5_intertek_4th_250526/left/zed_38007749_right_1748249114.599.jpg,38007749,right,1748249114.599,/home/najo/NAS/DIP/datasets/Fr5_intertek_dataset/Fr5_intertek_4th_250526/joint/joint_30779426_1748249114.602.json,1748249114.602,0.0030000209808349,20.81180383663366,-74.52798673422029,75.34467338335396,-90.81799195544556,-90.0,110.8113687345297,/home/najo/NAS/DIP/datasets/Fr5_intertek_dataset/preprocessed_roi/Fr5_intertek_4th_250526_zed_38007749_right_1748249114.599.jpg,247,288,978,1008
/home/najo/NAS/DIP/datasets/Fr5_intertek_dataset/Fr5_intertek_4th_250526/top/zed_30779426_left_1748249114.602.jpg,30779426,left,1748249114.602,/home/najo/NAS/DIP/datasets/Fr5_intertek_dataset/Fr5_intertek_4th_250526/joint/joint_30779426_1748249114.602.json,1748249114.602,0.0,20.81180383663366,-74.52798673422029,75.34467338335396,-90.81799195544556,-90.0,110.8113687345297,/home/najo/NAS/DIP/datasets/Fr5_intertek_dataset/preprocessed_roi/Fr5_intertek_4th_250526_zed_30779426_left_1748249114.602.jpg,735,124,1117,763
/home/najo/NAS/DIP/datasets/Fr5_intertek_dataset/Fr5_intertek_4th_250526/right/zed_34850673_right_1748249114.613.jpg,34850673,right,1748249114.613,/home/najo/NAS/DIP/datasets/Fr5_intertek_dataset/Fr5_intertek_4th_250526/joint/joint_34850673_1748249114.613.json,1748249114.613,0.0,20.81202138768564,-74.52842183632426,75.34358562809406,-90.81320583230196,-90.00021755105197,110.8115862855817,/home/najo/NAS/DIP/datasets/Fr5_intertek_dataset/preprocessed_roi/Fr5_intertek_4th_250526_zed_34850673_right_1748249114.613.jpg,528,145,1646,1029
/home/najo/NAS/DIP/datasets/Fr5_intertek_dataset/Fr5_intertek_4th_250526/right/zed_34850673_left_1748249114.613.jpg,34850673,left,1748249114.613,/home/najo/NAS/DIP/datasets/Fr5_intertek_dataset/Fr5_intertek_4th_250526/joint/joint_34850673_1748249114.613.json,1748249114.613,0.0,20.81202138768564,-74.52842183632426,75.34358562809406,-90.81320583230196,-90.00021755105197,110.8115862855817,/home/najo/NAS/DIP/datasets/Fr5_intertek_dataset/preprocessed_roi/Fr5_intertek_4th_250526_zed_34850673_left_1748249114.613.jpg,761,147,1818,1029
/home/najo/NAS/DIP/datasets/Fr5_intertek_dataset/Fr5_intertek_4th_250526/left/zed_38007749_right_1748249114.737.jpg,38007749,right,1748249114.737,/home/najo/NAS/DIP/datasets/Fr5_intertek_dataset/Fr5_intertek_4th_250526/joint/joint_38007749_1748249114.737.json,1748249114.737,0.0,21.09396755105198,-75.09448967357673,75.8637501933787,-90.77818011293316,-90.00065265315594,111.1098487778465,/home/najo/NAS/DIP/datasets/Fr5_intertek_dataset/preprocessed_roi/Fr5_intertek_4th_250526_zed_38007749_right_1748249114.737.jpg,247,288,978,1008
/home/najo/NAS/DIP/datasets/Fr5_intertek_dataset/Fr5_intertek_4th_250526/left/zed_38007749_left_1748249114.737.jpg,38007749,left,1748249114.737,/home/najo/NAS/DIP/datasets/Fr5_intertek_dataset/Fr5_intertek_4th_250526/joint/joint_38007749_1748249114.737.json,1748249114.737,0.0,21.09396755105198,-75.09448967357673,75.8637501933787,-90.77818011293316,-90.00065265315594,111.1098487778465,/home/najo/NAS/DIP/datasets/Fr5_intertek_dataset/preprocessed_roi/Fr5_intertek_4th_250526_zed_38007749_left_1748249114.737.jpg,386,288,1080,1008
/home/najo/NAS/DIP/datasets/Fr5_intertek_dataset/Fr5_intertek_4th_250526/top/zed_30779426_left_1748249114.741.jpg,30779426,left,1748249114.741,/home/najo/NAS/DIP/datasets/Fr5_intertek_dataset/Fr5_intertek_4th_250526/joint/joint_30779426_1748249114.741.json,1748249114.741,0.0,21.09875367419554,-75.10297416460396,75.8726697865099,-90.77818011293316,-90.00043510210396,111.11463490099,/home/najo/NAS/DIP/datasets/Fr5_intertek_dataset/preprocessed_roi/Fr5_intertek_4th_250526_zed_30779426_left_1748249114.741.jpg,735,124,1121,763
/home/najo/NAS/DIP/datasets/Fr5_intertek_dataset/Fr5_intertek_4th_250526/top/zed_30779426_right_1748249114.741.jpg,30779426,right,1748249114.741,/home/najo/NAS/DIP/datasets/Fr5_intertek_dataset/Fr5_intertek_4th_250526/joint/joint_30779426_1748249114.741.json,1748249114.741,0.0,21.09875367419554,-75.10297416460396,75.8726697865099,-90.77818011293316,-90.00043510210396,111.11463490099,/home/najo/NAS/DIP/datasets/Fr5_intertek_dataset/preprocessed_roi/Fr5_intertek_4th_250526_zed_30779426_right_1748249114.741.jpg,607,124,1031,763
/home/najo/NAS/DIP/datasets/Fr5_intertek_dataset/Fr5_intertek_4th_250526/right/zed_34850673_right_1748249114.750.jpg,34850673,right,1748249114.75,/home/najo/NAS/DIP/datasets/Fr5_intertek_dataset/Fr5_intertek_4th_250526/joint/joint_34850673_1748249114.750.json,1748249114.75,0.0,21.14074102722772,-75.1836856048886,75.95577428836634,-90.77730990872524,-90.00087020420793,111.1570573561262,/home/najo/NAS/DIP/datasets/Fr5_intertek_dataset/preprocessed_roi/Fr5_intertek_4th_250526_zed_34850673_right_1748249114.750.jpg,532,143,1646,1029
/home/najo/NAS/DIP/datasets/Fr5_intertek_dataset/Fr5_intertek_4th_250526/right/zed_34850673_left_1748249114.750.jpg,34850673,left,1748249114.75,/home/najo/NAS/DIP/datasets/Fr5_intertek_dataset/Fr5_intertek_4th_250526/joint/joint_34850673_1748249114.750.json,1748249114.75,0.0,21.14074102722772,-75.1836856048886,75.95577428836634,-90.77730990872524,-90.00087020420793,111.1570573561262,/home/najo/NAS/DIP/datasets/Fr5_intertek_dataset/preprocessed_roi/Fr5_intertek_4th_250526_zed_34850673_left_1748249114.750.jpg,761,145,1818,1029
/home/najo/NAS/DIP/datasets/Fr5_intertek_dataset/Fr5_intertek_4th_250526/left/zed_38007749_right_1748249114.875.jpg,38007749,right,1748249114.875,/home/najo/NAS/DIP/datasets/Fr5_intertek_dataset/Fr5_intertek_4th_250526/joint/joint_38007749_1748249114.875.json,1748249114.875,0.0,22.02334564511138,-76.85077931621286,77.63309289913364,-90.77752745977725,-90.00065265315594,112.027696666151,/home/najo/NAS/DIP/datasets/Fr5_intertek_dataset/preprocessed_roi/Fr5_intertek_4th_250526_zed_38007749_right_1748249114.875.jpg,247,284,971,1008
/home/najo/NAS/DIP/datasets/Fr5_intertek_dataset/Fr5_intertek_4th_250526/left/zed_38007749_left_1748249114.875.jpg,38007749,left,1748249114.875,/home/najo/NAS/DIP/datasets/Fr5_intertek_dataset/Fr5_intertek_4th_250526/joint/joint_38007749_1748249114.875.json,1748249114.875,0.0,22.02334564511138,-76.85077931621286,77.63309289913364,-90.77752745977725,-90.00065265315594,112.027696666151,/home/najo/NAS/DIP/datasets/Fr5_intertek_dataset/preprocessed_roi/Fr5_intertek_4th_250526_zed_38007749_left_1748249114.875.jpg,386,286,1072,1008
/home/najo/NAS/DIP/datasets/Fr5_intertek_dataset/Fr5_intertek_4th_250526/top/zed_30779426_right_1748249114.880.jpg,30779426,right,1748249114.88,/home/najo/NAS/DIP/datasets/Fr5_intertek_dataset/Fr5_intertek_4th_250526/joint/joint_30779426_1748249114.880.json,1748249114.88,0.0,22.10253422803217,-76.99044709158416,77.77384842976485,-90.77709235767328,-90.0,112.0977481048886,/home/najo/NAS/DIP/datasets/Fr5_intertek_dataset/preprocessed_roi/Fr5_intertek_4th_250526_zed_30779426_right_1748249114.880.jpg,603,135,1031,765
/home/najo/NAS/DIP/datasets/Fr5_intertek_dataset/Fr5_intertek_4th_250526/top/zed_30779426_left_1748249114.880.jpg,30779426,left,1748249114.88,/home/najo/NAS/DIP/datasets/Fr5_intertek_dataset/Fr5_intertek_4th_250526/joint/joint_30779426_1748249114.880.json,1748249114.88,0.0,22.10253422803217,-76.99044709158416,77.77384842976485,-90.77709235767328,-90.0,112.0977481048886,/home/najo/NAS/DIP/datasets/Fr5_intertek_dataset/preprocessed_roi/Fr5_intertek_4th_250526_zed_30779426_left_1748249114.880.jpg,731,135,1117,763
/home/najo/NAS/DIP/datasets/Fr5_intertek_dataset/Fr5_intertek_4th_250526/right/zed_34850673_left_1748249114.885.jpg,34850673,left,1748249114.885,/home/najo/NAS/DIP/datasets/Fr5_intertek_dataset/Fr5_intertek_4th_250526/joint/joint_34850673_1748249114.885.json,1748249114.885,0.0,22.16301342048267,-77.0963944538985,77.8765325262995,-90.7768748066213,-89.99978244894803,112.1514832147277,/home/najo/NAS/DIP/datasets/Fr5_intertek_dataset/preprocessed_roi/Fr5_intertek_4th_250526_zed_34850673_left_1748249114.885.jpg,783,137,1818,1029
/home/najo/NAS/DIP/datasets/Fr5_intertek_dataset/Fr5_intertek_4th_250526/right/zed_34850673_right_1748249114.885.jpg,34850673,right,1748249114.885,/home/najo/NAS/DIP/datasets/Fr5_intertek_dataset/Fr5_intertek_4th_250526/joint/joint_34850673_1748249114.885.json,1748249114.885,0.0,22.16301342048267,-77.0963944538985,77.8765325262995,-90.7768748066213,-89.99978244894803,112.1514832147277,/home/najo/NAS/DIP/datasets/Fr5_intertek_dataset/preprocessed_roi/Fr5_intertek_4th_250526_zed_34850673_right_1748249114.885.jpg,551,135,1646,1029
/home/najo/NAS/DIP/datasets/Fr5_intertek_dataset/Fr5_intertek_4th_250526/left/zed_38007749_right_1748249115.008.jpg,38007749,right,1748249115.008,/home/najo/NAS/DIP/datasets/Fr5_intertek_dataset/Fr5_intertek_4th_250526/joint/joint_38007749_1748249115.008.json,1748249115.008,0.0,23.29493154393564,-79.25014986850248,80.02267365408416,-90.77905031714108,-89.99978244894803,113.2927560334158,/home/najo/NAS/DIP/datasets/Fr5_intertek_dataset/preprocessed_roi/Fr5_intertek_4th_250526_zed_38007749_right_1748249115.008.jpg,247,280,952,1008
/home/najo/NAS/DIP/datasets/Fr5_intertek_dataset/Fr5_intertek_4th_250526/left/zed_38007749_left_1748249115.008.jpg,38007749,left,1748249115.008,/home/najo/NAS/DIP/datasets/Fr5_intertek_dataset/Fr5_intertek_4th_250526/joint/joint_38007749_1748249115.008.json,1748249115.008,0.0,23.29493154393564,-79.25014986850248,80.02267365408416,-90.77905031714108,-89.99978244894803,113.2927560334158,/home/najo/NAS/DIP/datasets/Fr5_intertek_dataset/preprocessed_roi/Fr5_intertek_4th_250526_zed_38007749_left_1748249115.008.jpg,386,280,1053,1008
/home/najo/NAS/DIP/datasets/Fr5_intertek_dataset/Fr5_intertek_4th_250526/top/zed_30779426_left_1748249115.015.jpg,30779426,left,1748249115.015,/home/najo/NAS/DIP/datasets/Fr5_intertek_dataset/Fr5_intertek_4th_250526/joint/joint_30779426_1748249115.015.json,1748249115.015,0.0,23.37520788211633,-79.3969968285891,80.16299408261139,-90.78122582766088,-89.99912979579207,113.3691164526609,/home/najo/NAS/DIP/datasets/Fr5_intertek_dataset/preprocessed_roi/Fr5_intertek_4th_250526_zed_30779426_left_1748249115.015.jpg,727,156,1117,774
/home/najo/NAS/DIP/datasets/Fr5_intertek_dataset/Fr5_intertek_4th_250526/top/zed_30779426_right_1748249115.015.jpg,30779426,right,1748249115.015,/home/najo/NAS/DIP/datasets/Fr5_intertek_dataset/Fr5_intertek_4th_250526/joint/joint_30779426_1748249115.015.json,1748249115.015,0.0,23.37520788211633,-79.3969968285891,80.16299408261139,-90.78122582766088,-89.99912979579207,113.3691164526609,/home/najo/NAS/DIP/datasets/Fr5_intertek_dataset/preprocessed_roi/Fr5_intertek_4th_250526_zed_30779426_right_1748249115.015.jpg,596,153,1031,778
/home/najo/NAS/DIP/datasets/Fr5_intertek_dataset/Fr5_intertek_4th_250526/right/zed_34850673_left_1748249115.021.jpg,34850673,left,1748249115.021,/home/najo/NAS/DIP/datasets/Fr5_intertek_dataset/Fr5_intertek_4th_250526/joint/joint_34850673_1748249115.021.json,1748249115.021,0.0,23.4150197246287,-79.47009398205445,80.23435082766089,-90.78057317450497,-89.99912979579207,113.4076229888614,/home/najo/NAS/DIP/datasets/Fr5_intertek_dataset/preprocessed_roi/Fr5_intertek_4th_250526_zed_34850673_left_1748249115.021.jpg,825,124,1818,1029
/home/najo/NAS/DIP/datasets/Fr5_intertek_dataset/Fr5_intertek_4th_250526/left/zed_38007749_left_1748249115.144.jpg,38007749,left,1748249115.144,/home/najo/NAS/DIP/datasets/Fr5_intertek_dataset/Fr5_intertek_4th_250526/joint/joint_38007749_1748249115.144.json,1748249115.144,0.0,24.58022315903465,-81.69781675433168,82.46860013149752,-90.78013807240096,-89.99912979579207,114.565212136448,/home/najo/NAS/DIP/datasets/Fr5_intertek_dataset/preprocessed_roi/Fr5_intertek_4th_250526_zed_38007749_left_1748249115.144.jpg,386,276,1031,1008
/home/najo/NAS/DIP/datasets/Fr5_intertek_dataset/Fr5_intertek_4th_250526/right/zed_34850673_right_1748249115.021.jpg,34850673,right,1748249115.021,/home/najo/NAS/DIP/datasets/Fr5_intertek_dataset/Fr5_intertek_4th_250526/joint/joint_34850673_1748249115.021.json,1748249115.021,0.0,23.4150197246287,-79.47009398205445,80.23435082766089,-90.78057317450497,-89.99912979579207,113.4076229888614,/home/najo/NAS/DIP/datasets/Fr5_intertek_dataset/preprocessed_roi/Fr5_intertek_4th_250526_zed_34850673_right_1748249115.021.jpg,592,124,1650,1029
/home/najo/NAS/DIP/datasets/Fr5_intertek_dataset/Fr5_intertek_4th_250526/left/zed_38007749_right_1748249115.144.jpg,38007749,right,1748249115.144,/home/najo/NAS/DIP/datasets/Fr5_intertek_dataset/Fr5_intertek_4th_250526/joint/joint_38007749_1748249115.144.json,1748249115.144,0.0,24.58022315903465,-81.69781675433168,82.46860013149752,-90.78013807240096,-89.99912979579207,114.565212136448,/home/najo/NAS/DIP/datasets/Fr5_intertek_dataset/preprocessed_roi/Fr5_intertek_4th_250526_zed_38007749_right_1748249115.144.jpg,247,274,933,1008
/home/najo/NAS/DIP/datasets/Fr5_intertek_dataset/Fr5_intertek_4th_250526/top/zed_30779426_right_1748249115.150.jpg,30779426,right,1748249115.15,/home/najo/NAS/DIP/datasets/Fr5_intertek_dataset/Fr5_intertek_4th_250526/joint/joint_30779426_1748249115.150.json,1748249115.15,0.0,24.64091990253713,-81.82203840501238,82.59891321163364,-90.77905031714108,-89.99956489789604,114.6346109220297,/home/najo/NAS/DIP/datasets/Fr5_intertek_dataset/preprocessed_roi/Fr5_intertek_4th_250526_zed_30779426_right_1748249115.150.jpg,592,179,1031,797
/home/najo/NAS/DIP/datasets/Fr5_intertek_dataset/Fr5_intertek_4th_250526/top/zed_30779426_left_1748249115.150.jpg,30779426,left,1748249115.15,/home/najo/NAS/DIP/datasets/Fr5_intertek_dataset/Fr5_intertek_4th_250526/joint/joint_30779426_1748249115.150.json,1748249115.15,0.0,24.64091990253713,-81.82203840501238,82.59891321163364,-90.77905031714108,-89.99956489789604,114.6346109220297,/home/najo/NAS/DIP/datasets/Fr5_intertek_dataset/preprocessed_roi/Fr5_intertek_4th_250526_zed_30779426_left_1748249115.150.jpg,720,179,1117,797
/home/najo/NAS/DIP/datasets/Fr5_intertek_dataset/Fr5_intertek_4th_250526/right/zed_34850673_left_1748249115.156.jpg,34850673,left,1748249115.156,/home/najo/NAS/DIP/datasets/Fr5_intertek_dataset/Fr5_intertek_4th_250526/joint/joint_34850673_1748249115.156.json,1748249115.156,0.0,24.67551051980198,-81.89448290532178,82.67114016089108,-90.77905031714108,-89.99934734684406,114.673552560334,/home/najo/NAS/DIP/datasets/Fr5_intertek_dataset/preprocessed_roi/Fr5_intertek_4th_250526_zed_34850673_left_1748249115.156.jpg,866,113,1822,1029
/home/najo/NAS/DIP/datasets/Fr5_intertek_dataset/Fr5_intertek_4th_250526/right/zed_34850673_right_1748249115.156.jpg,34850673,right,1748249115.156,/home/najo/NAS/DIP/datasets/Fr5_intertek_dataset/Fr5_intertek_4th_250526/joint/joint_34850673_1748249115.156.json,1748249115.156,0.0,24.67551051980198,-81.89448290532178,82.67114016089108,-90.77905031714108,-89.99934734684406,114.673552560334,/home/najo/NAS/DIP/datasets/Fr5_intertek_dataset/preprocessed_roi/Fr5_intertek_4th_250526_zed_34850673_right_1748249115.156.jpg,633,113,1653,1029
/home/najo/NAS/DIP/datasets/Fr5_intertek_dataset/Fr5_intertek_4th_250526/left/zed_38007749_right_1748249115.279.jpg,38007749,right,1748249115.279,/home/najo/NAS/DIP/datasets/Fr5_intertek_dataset/Fr5_intertek_4th_250526/joint/joint_38007749_1748249115.279.json,1748249115.279,0.0,25.82200456373762,-84.11154567605197,84.89646987159654,-90.77861521503714,-90.0010877552599,115.828748646349,/home/najo/NAS/DIP/datasets/Fr5_intertek_dataset/preprocessed_roi/Fr5_intertek_4th_250526_zed_38007749_right_1748249115.279.jpg,247,270,911,1008
/home/najo/NAS/DIP/datasets/Fr5_intertek_dataset/Fr5_intertek_4th_250526/left/zed_38007749_left_1748249115.279.jpg,38007749,left,1748249115.279,/home/najo/NAS/DIP/datasets/Fr5_intertek_dataset/Fr5_intertek_4th_250526/joint/joint_38007749_1748249115.279.json,1748249115.279,0.0,25.82200456373762,-84.11154567605197,84.89646987159654,-90.77861521503714,-90.0010877552599,115.828748646349,/home/najo/NAS/DIP/datasets/Fr5_intertek_dataset/preprocessed_roi/Fr5_intertek_4th_250526_zed_38007749_left_1748249115.279.jpg,386,270,1016,1008
/home/najo/NAS/DIP/datasets/Fr5_intertek_dataset/Fr5_intertek_4th_250526/top/zed_30779426_right_1748249115.285.jpg,30779426,right,1748249115.285,/home/najo/NAS/DIP/datasets/Fr5_intertek_dataset/Fr5_intertek_4th_250526/joint/joint_30779426_1748249115.285.json,1748249115.285,0.0,25.8792204904084,-84.21966854888613,85.00263478496286,-90.7788327660891,-89.99956489789604,115.8846592667079,/home/najo/NAS/DIP/datasets/Fr5_intertek_dataset/preprocessed_roi/Fr5_intertek_4th_250526_zed_30779426_right_1748249115.285.jpg,588,202,1027,818
/home/najo/NAS/DIP/datasets/Fr5_intertek_dataset/Fr5_intertek_4th_250526/right/zed_34850673_left_1748249115.291.jpg,34850673,left,1748249115.291,/home/najo/NAS/DIP/datasets/Fr5_intertek_dataset/Fr5_intertek_4th_250526/joint/joint_34850673_1748249115.291.json,1748249115.291,0.0,25.94600866336633,-84.34606571008663,85.12816174195545,-90.77948541924503,-90.00087020420793,115.9510123375618,/home/najo/NAS/DIP/datasets/Fr5_intertek_dataset/preprocessed_roi/Fr5_intertek_4th_250526_zed_34850673_left_1748249115.291.jpg,911,107,1822,1029
/home/najo/NAS/DIP/datasets/Fr5_intertek_dataset/Fr5_intertek_4th_250526/top/zed_30779426_left_1748249115.285.jpg,30779426,left,1748249115.285,/home/najo/NAS/DIP/datasets/Fr5_intertek_dataset/Fr5_intertek_4th_250526/joint/joint_30779426_1748249115.285.json,1748249115.285,0.0,25.8792204904084,-84.21966854888613,85.00263478496286,-90.7788327660891,-89.99956489789604,115.8846592667079,/home/najo/NAS/DIP/datasets/Fr5_intertek_dataset/preprocessed_roi/Fr5_intertek_4th_250526_zed_30779426_left_1748249115.285.jpg,716,204,1117,816
/home/najo/NAS/DIP/datasets/Fr5_intertek_dataset/Fr5_intertek_4th_250526/right/zed_34850673_right_1748249115.291.jpg,34850673,right,1748249115.291,/home/najo/NAS/DIP/datasets/Fr5_intertek_dataset/Fr5_intertek_4th_250526/joint/joint_34850673_1748249115.291.json,1748249115.291,0.0,25.94600866336633,-84.34606571008663,85.12816174195545,-90.77948541924503,-90.00087020420793,115.9510123375618,/home/najo/NAS/DIP/datasets/Fr5_intertek_dataset/preprocessed_roi/Fr5_intertek_4th_250526_zed_34850673_right_1748249115.291.jpg,678,105,1653,1029
/home/najo/NAS/DIP/datasets/Fr5_intertek_dataset/Fr5_intertek_4th_250526/left/zed_38007749_left_1748249115.414.jpg,38007749,left,1748249115.414,/home/najo/NAS/DIP/datasets/Fr5_intertek_dataset/Fr5_intertek_4th_250526/joint/joint_38007749_1748249115.414.json,1748249115.414,0.0,27.09119740099009,-86.52396929146039,87.2917069538985,-90.77926786819307,-90.00065265315594,117.101422300433,/home/najo/NAS/DIP/datasets/Fr5_intertek_dataset/preprocessed_roi/Fr5_intertek_4th_250526_zed_38007749_left_1748249115.414.jpg,386,267,993,1008
/home/najo/NAS/DIP/datasets/Fr5_intertek_dataset/Fr5_intertek_4th_250526/left/zed_38007749_right_1748249115.414.jpg,38007749,right,1748249115.414,/home/najo/NAS/DIP/datasets/Fr5_intertek_dataset/Fr5_intertek_4th_250526/joint/joint_38007749_1748249115.414.json,1748249115.414,0.0,27.09119740099009,-86.52396929146039,87.2917069538985,-90.77926786819307,-90.00065265315594,117.101422300433,/home/najo/NAS/DIP/datasets/Fr5_intertek_dataset/preprocessed_roi/Fr5_intertek_4th_250526_zed_38007749_right_1748249115.414.jpg,247,265,892,1008
/home/najo/NAS/DIP/datasets/Fr5_intertek_dataset/Fr5_intertek_4th_250526/top/zed_30779426_left_1748249115.418.jpg,30779426,left,1748249115.418,/home/najo/NAS/DIP/datasets/Fr5_intertek_dataset/Fr5_intertek_4th_250526/joint/joint_30779426_1748249115.418.json,1748249115.418,0.0,27.16342435024752,-86.65101910581683,87.4150584003713,-90.77752745977725,-89.99891224474008,117.168428024443,/home/najo/NAS/DIP/datasets/Fr5_intertek_dataset/preprocessed_roi/Fr5_intertek_4th_250526_zed_30779426_left_1748249115.418.jpg,716,227,1121,839
/home/najo/NAS/DIP/datasets/Fr5_intertek_dataset/Fr5_intertek_4th_250526/top/zed_30779426_right_1748249115.418.jpg,30779426,right,1748249115.418,/home/najo/NAS/DIP/datasets/Fr5_intertek_dataset/Fr5_intertek_4th_250526/joint/joint_30779426_1748249115.418.json,1748249115.418,0.0,27.16342435024752,-86.65101910581683,87.4150584003713,-90.77752745977725,-89.99891224474008,117.168428024443,/home/najo/NAS/DIP/datasets/Fr5_intertek_dataset/preprocessed_roi/Fr5_intertek_4th_250526_zed_30779426_right_1748249115.418.jpg,585,227,1031,839
/home/najo/NAS/DIP/datasets/Fr5_intertek_dataset/Fr5_intertek_4th_250526/right/zed_34850673_right_1748249115.425.jpg,34850673,right,1748249115.425,/home/najo/NAS/DIP/datasets/Fr5_intertek_dataset/Fr5_intertek_4th_250526/joint/joint_34850673_1748249115.425.json,1748249115.425,0.0,27.21563660272277,-86.73956238397275,87.50512453589108,-90.7777450108292,-89.99956489789604,117.213243541151,/home/najo/NAS/DIP/datasets/Fr5_intertek_dataset/preprocessed_roi/Fr5_intertek_4th_250526_zed_34850673_right_1748249115.425.jpg,723,101,1653,1029
/home/najo/NAS/DIP/datasets/Fr5_intertek_dataset/Fr5_intertek_4th_250526/right/zed_34850673_left_1748249115.425.jpg,34850673,left,1748249115.425,/home/najo/NAS/DIP/datasets/Fr5_intertek_dataset/Fr5_intertek_4th_250526/joint/joint_34850673_1748249115.425.json,1748249115.425,0.0,27.21563660272277,-86.73956238397275,87.50512453589108,-90.7777450108292,-89.99956489789604,117.213243541151,/home/najo/NAS/DIP/datasets/Fr5_intertek_dataset/preprocessed_roi/Fr5_intertek_4th_250526_zed_34850673_left_1748249115.425.jpg,956,101,1822,1029
/home/najo/NAS/DIP/datasets/Fr5_intertek_dataset/Fr5_intertek_4th_250526/left/zed_38007749_left_1748249115.548.jpg,38007749,left,1748249115.548,/home/najo/NAS/DIP/datasets/Fr5_intertek_dataset/Fr5_intertek_4th_250526/joint/joint_38007749_1748249115.548.json,1748249115.548,0.0,28.38780167079208,-88.9759871983292,89.74872853496286,-90.7731764387376,-89.99934734684406,118.388019221844,/home/najo/NAS/DIP/datasets/Fr5_intertek_dataset/preprocessed_roi/Fr5_intertek_4th_250526_zed_38007749_left_1748249115.548.jpg,386,263,975,1008
/home/najo/NAS/DIP/datasets/Fr5_intertek_dataset/Fr5_intertek_4th_250526/left/zed_38007749_right_1748249115.548.jpg,38007749,right,1748249115.548,/home/najo/NAS/DIP/datasets/Fr5_intertek_dataset/Fr5_intertek_4th_250526/joint/joint_38007749_1748249115.548.json,1748249115.548,0.0,28.38780167079208,-88.9759871983292,89.74872853496286,-90.7731764387376,-89.99934734684406,118.388019221844,/home/najo/NAS/DIP/datasets/Fr5_intertek_dataset/preprocessed_roi/Fr5_intertek_4th_250526_zed_38007749_right_1748249115.548.jpg,247,263,873,1008
/home/najo/NAS/DIP/datasets/Fr5_intertek_dataset/Fr5_intertek_4th_250526/top/zed_30779426_left_1748249115.554.jpg,30779426,left,1748249115.554,/home/najo/NAS/DIP/datasets/Fr5_intertek_dataset/Fr5_intertek_4th_250526/joint/joint_30779426_1748249115.554.json,1748249115.554,0.0,28.45089147586633,-89.10260191058168,89.87664855352723,-90.77295888768565,-89.99934734684406,118.453066986386,/home/najo/NAS/DIP/datasets/Fr5_intertek_dataset/preprocessed_roi/Fr5_intertek_4th_250526_zed_30779426_left_1748249115.554.jpg,712,253,1132,860
/home/najo/NAS/DIP/datasets/Fr5_intertek_dataset/Fr5_intertek_4th_250526/top/zed_30779426_right_1748249115.554.jpg,30779426,right,1748249115.554,/home/najo/NAS/DIP/datasets/Fr5_intertek_dataset/Fr5_intertek_4th_250526/joint/joint_30779426_1748249115.554.json,1748249115.554,0.0,28.45089147586633,-89.10260191058168,89.87664855352723,-90.77295888768565,-89.99934734684406,118.453066986386,/home/najo/NAS/DIP/datasets/Fr5_intertek_dataset/preprocessed_roi/Fr5_intertek_4th_250526_zed_30779426_right_1748249115.554.jpg,585,253,1031,860
/home/najo/NAS/DIP/datasets/Fr5_intertek_dataset/Fr5_intertek_4th_250526/right/zed_34850673_left_1748249115.561.jpg,34850673,left,1748249115.561,/home/najo/NAS/DIP/datasets/Fr5_intertek_dataset/Fr5_intertek_4th_250526/joint/joint_34850673_1748249115.561.json,1748249115.561,0.0,28.49548944152227,-89.1924504950495,89.966932240099,-90.7736115408416,-89.99912979579207,118.4989702583539,/home/najo/NAS/DIP/datasets/Fr5_intertek_dataset/preprocessed_roi/Fr5_intertek_4th_250526_zed_34850673_left_1748249115.561.jpg,1001,97,1826,1029
/home/najo/NAS/DIP/datasets/Fr5_intertek_dataset/Fr5_intertek_4th_250526/right/zed_34850673_right_1748249115.561.jpg,34850673,right,1748249115.561,/home/najo/NAS/DIP/datasets/Fr5_intertek_dataset/Fr5_intertek_4th_250526/joint/joint_34850673_1748249115.561.json,1748249115.561,0.0,28.49548944152227,-89.1924504950495,89.966932240099,-90.7736115408416,-89.99912979579207,118.4989702583539,/home/najo/NAS/DIP/datasets/Fr5_intertek_dataset/preprocessed_roi/Fr5_intertek_4th_250526_zed_34850673_right_1748249115.561.jpg,768,97,1657,1029
/home/najo/NAS/DIP/datasets/Fr5_intertek_dataset/Fr5_intertek_4th_250526/left/zed_38007749_right_1748249115.683.jpg,38007749,right,1748249115.683,/home/najo/NAS/DIP/datasets/Fr5_intertek_dataset/Fr5_intertek_4th_250526/joint/joint_38007749_1748249115.683.json,1748249115.683,0.0,29.65373124226485,-91.40037612159654,92.17464031559406,-90.76947807085396,-89.99978244894803,119.650032874381,/home/najo/NAS/DIP/datasets/Fr5_intertek_dataset/preprocessed_roi/Fr5_intertek_4th_250526_zed_38007749_right_1748249115.683.jpg,247,259,855,1008
/home/najo/NAS/DIP/datasets/Fr5_intertek_dataset/Fr5_intertek_4th_250526/left/zed_38007749_left_1748249115.683.jpg,38007749,left,1748249115.683,/home/najo/NAS/DIP/datasets/Fr5_intertek_dataset/Fr5_intertek_4th_250526/joint/joint_38007749_1748249115.683.json,1748249115.683,0.0,29.65373124226485,-91.40037612159654,92.17464031559406,-90.76947807085396,-89.99978244894803,119.650032874381,/home/najo/NAS/DIP/datasets/Fr5_intertek_dataset/preprocessed_roi/Fr5_intertek_4th_250526_zed_38007749_left_1748249115.683.jpg,386,261,956,1008
/home/najo/NAS/DIP/datasets/Fr5_intertek_dataset/Fr5_intertek_4th_250526/top/zed_30779426_right_1748249115.688.jpg,30779426,right,1748249115.688,/home/najo/NAS/DIP/datasets/Fr5_intertek_dataset/Fr5_intertek_4th_250526/joint/joint_30779426_1748249115.688.json,1748249115.688,0.0,29.70093982054455,-91.48935450185644,92.26296604269804,-90.7710009282178,-89.99934734684406,119.696153697401,/home/najo/NAS/DIP/datasets/Fr5_intertek_dataset/preprocessed_roi/Fr5_intertek_4th_250526_zed_30779426_right_1748249115.688.jpg,585,276,1031,881
/home/najo/NAS/DIP/datasets/Fr5_intertek_dataset/Fr5_intertek_4th_250526/top/zed_30779426_left_1748249115.688.jpg,30779426,left,1748249115.688,/home/najo/NAS/DIP/datasets/Fr5_intertek_dataset/Fr5_intertek_4th_250526/joint/joint_30779426_1748249115.688.json,1748249115.688,0.0,29.70093982054455,-91.48935450185644,92.26296604269804,-90.7710009282178,-89.99934734684406,119.696153697401,/home/najo/NAS/DIP/datasets/Fr5_intertek_dataset/preprocessed_roi/Fr5_intertek_4th_250526_zed_30779426_left_1748249115.688.jpg,712,278,1140,877
/home/najo/NAS/DIP/datasets/Fr5_intertek_dataset/Fr5_intertek_4th_250526/right/zed_34850673_left_1748249115.695.jpg,34850673,left,1748249115.695,/home/najo/NAS/DIP/datasets/Fr5_intertek_dataset/Fr5_intertek_4th_250526/joint/joint_34850673_1748249115.695.json,1748249115.695,0.0,29.7849145266089,-91.64816676980196,92.4191676980198,-90.76817276454209,-90.0,119.781651260829,/home/najo/NAS/DIP/datasets/Fr5_intertek_dataset/preprocessed_roi/Fr5_intertek_4th_250526_zed_34850673_left_1748249115.695.jpg,1046,92,1841,1029
/home/najo/NAS/DIP/datasets/Fr5_intertek_dataset/Fr5_intertek_4th_250526/right/zed_34850673_right_1748249115.695.jpg,34850673,right,1748249115.695,/home/najo/NAS/DIP/datasets/Fr5_intertek_dataset/Fr5_intertek_4th_250526/joint/joint_34850673_1748249115.695.json,1748249115.695,0.0,29.7849145266089,-91.64816676980196,92.4191676980198,-90.76817276454209,-90.0,119.781651260829,/home/najo/NAS/DIP/datasets/Fr5_intertek_dataset/preprocessed_roi/Fr5_intertek_4th_250526_zed_34850673_right_1748249115.695.jpg,813,94,1668,1029
/home/najo/NAS/DIP/datasets/Fr5_intertek_dataset/Fr5_intertek_4th_250526/left/zed_38007749_right_1748249115.819.jpg,38007749,right,1748249115.819,/home/najo/NAS/DIP/datasets/Fr5_intertek_dataset/Fr5_intertek_4th_250526/joint/joint_38007749_1748249115.819.json,1748249115.819,0.0,30.92401183477723,-93.81715075804456,94.57401086788364,-90.76839031559406,-89.99956489789604,120.9205310179455,/home/najo/NAS/DIP/datasets/Fr5_intertek_dataset/preprocessed_roi/Fr5_intertek_4th_250526_zed_38007749_right_1748249115.819.jpg,243,257,832,1008
/home/najo/NAS/DIP/datasets/Fr5_intertek_dataset/Fr5_intertek_4th_250526/top/zed_30779426_right_1748249115.823.jpg,30779426,right,1748249115.823,/home/najo/NAS/DIP/datasets/Fr5_intertek_dataset/Fr5_intertek_4th_250526/joint/joint_30779426_1748249115.823.json,1748249115.823,0.0,30.97948735303217,-93.92505607982672,94.68104598545791,-90.76839031559406,-89.99912979579207,120.9762240872524,/home/najo/NAS/DIP/datasets/Fr5_intertek_dataset/preprocessed_roi/Fr5_intertek_4th_250526_zed_30779426_right_1748249115.823.jpg,585,301,1031,900
/home/najo/NAS/DIP/datasets/Fr5_intertek_dataset/Fr5_intertek_4th_250526/left/zed_38007749_left_1748249115.819.jpg,38007749,left,1748249115.819,/home/najo/NAS/DIP/datasets/Fr5_intertek_dataset/Fr5_intertek_4th_250526/joint/joint_38007749_1748249115.819.json,1748249115.819,0.0,30.92401183477723,-93.81715075804456,94.57401086788364,-90.76839031559406,-89.99956489789604,120.9205310179455,/home/najo/NAS/DIP/datasets/Fr5_intertek_dataset/preprocessed_roi/Fr5_intertek_4th_250526_zed_38007749_left_1748249115.819.jpg,375,259,933,1008
/home/najo/NAS/DIP/datasets/Fr5_intertek_dataset/Fr5_intertek_4th_250526/top/zed_30779426_left_1748249115.823.jpg,30779426,left,1748249115.823,/home/najo/NAS/DIP/datasets/Fr5_intertek_dataset/Fr5_intertek_4th_250526/joint/joint_30779426_1748249115.823.json,1748249115.823,0.0,30.97948735303217,-93.92505607982672,94.68104598545791,-90.76839031559406,-89.99912979579207,120.9762240872524,/home/najo/NAS/DIP/datasets/Fr5_intertek_dataset/preprocessed_roi/Fr5_intertek_4th_250526_zed_30779426_left_1748249115.823.jpg,712,301,1151,898
/home/najo/NAS/DIP/datasets/Fr5_intertek_dataset/Fr5_intertek_4th_250526/right/zed_34850673_left_1748249115.830.jpg,34850673,left,1748249115.83,/home/najo/NAS/DIP/datasets/Fr5_intertek_dataset/Fr5_intertek_4th_250526/joint/joint_34850673_1748249115.830.json,1748249115.83,0.0,31.03322246287128,-94.0340491568688,94.78851620513612,-90.76860786664604,-90.0,121.0330049118193,/home/najo/NAS/DIP/datasets/Fr5_intertek_dataset/preprocessed_roi/Fr5_intertek_4th_250526_zed_34850673_left_1748249115.830.jpg,1087,94,1852,1029
/home/najo/NAS/DIP/datasets/Fr5_intertek_dataset/Fr5_intertek_4th_250526/left/zed_38007749_left_1748249115.954.jpg,38007749,left,1748249115.954,/home/najo/NAS/DIP/datasets/Fr5_intertek_dataset/Fr5_intertek_4th_250526/joint/joint_38007749_1748249115.954.json,1748249115.954,0.0,32.19886099938119,-96.26285968440594,97.03364306157178,-90.76273398824256,-90.00065265315594,122.2060401840965,/home/najo/NAS/DIP/datasets/Fr5_intertek_dataset/preprocessed_roi/Fr5_intertek_4th_250526_zed_38007749_left_1748249115.954.jpg,348,257,915,1008
/home/najo/NAS/DIP/datasets/Fr5_intertek_dataset/Fr5_intertek_4th_250526/right/zed_34850673_right_1748249115.830.jpg,34850673,right,1748249115.83,/home/najo/NAS/DIP/datasets/Fr5_intertek_dataset/Fr5_intertek_4th_250526/joint/joint_34850673_1748249115.830.json,1748249115.83,0.0,31.03322246287128,-94.0340491568688,94.78851620513612,-90.76860786664604,-90.0,121.0330049118193,/home/najo/NAS/DIP/datasets/Fr5_intertek_dataset/preprocessed_roi/Fr5_intertek_4th_250526_zed_34850673_right_1748249115.830.jpg,858,94,1683,1029
/home/najo/NAS/DIP/datasets/Fr5_intertek_dataset/Fr5_intertek_4th_250526/left/zed_38007749_right_1748249115.954.jpg,38007749,right,1748249115.954,/home/najo/NAS/DIP/datasets/Fr5_intertek_dataset/Fr5_intertek_4th_250526/joint/joint_38007749_1748249115.954.json,1748249115.954,0.0,32.19886099938119,-96.26285968440594,97.03364306157178,-90.76273398824256,-90.00065265315594,122.2060401840965,/home/najo/NAS/DIP/datasets/Fr5_intertek_dataset/preprocessed_roi/Fr5_intertek_4th_250526_zed_38007749_right_1748249115.954.jpg,217,257,817,1008
/home/najo/NAS/DIP/datasets/Fr5_intertek_dataset/Fr5_intertek_4th_250526/top/zed_30779426_right_1748249115.959.jpg,30779426,right,1748249115.959,/home/najo/NAS/DIP/datasets/Fr5_intertek_dataset/Fr5_intertek_4th_250526/joint/joint_30779426_1748249115.959.json,1748249115.959,0.0,32.27783203125,-96.40622582766088,97.1763565516708,-90.76382174350248,-89.99891224474008,122.2806601949257,/home/najo/NAS/DIP/datasets/Fr5_intertek_dataset/preprocessed_roi/Fr5_intertek_4th_250526_zed_30779426_right_1748249115.959.jpg,588,326,1035,919
/home/najo/NAS/DIP/datasets/Fr5_intertek_dataset/Fr5_intertek_4th_250526/top/zed_30779426_left_1748249115.959.jpg,30779426,left,1748249115.959,/home/najo/NAS/DIP/datasets/Fr5_intertek_dataset/Fr5_intertek_4th_250526/joint/joint_30779426_1748249115.959.json,1748249115.959,0.0,32.27783203125,-96.40622582766088,97.1763565516708,-90.76382174350248,-89.99891224474008,122.2806601949257,/home/najo/NAS/DIP/datasets/Fr5_intertek_dataset/preprocessed_roi/Fr5_intertek_4th_250526_zed_30779426_left_1748249115.959.jpg,716,326,1162,919
/home/najo/NAS/DIP/datasets/Fr5_intertek_dataset/Fr5_intertek_4th_250526/right/zed_34850673_left_1748249115.967.jpg,34850673,left,1748249115.967,/home/najo/NAS/DIP/datasets/Fr5_intertek_dataset/Fr5_intertek_4th_250526/joint/joint_34850673_1748249115.967.json,1748249115.967,0.0,32.33896387685643,-96.51304339418316,97.2862198329208,-90.76534460086634,-89.99934734684406,122.3376585705445,/home/najo/NAS/DIP/datasets/Fr5_intertek_dataset/preprocessed_roi/Fr5_intertek_4th_250526_zed_34850673_left_1748249115.967.jpg,1121,99,1860,1029
/home/najo/NAS/DIP/datasets/Fr5_intertek_dataset/Fr5_intertek_4th_250526/right/zed_34850673_right_1748249115.967.jpg,34850673,right,1748249115.967,/home/najo/NAS/DIP/datasets/Fr5_intertek_dataset/Fr5_intertek_4th_250526/joint/joint_34850673_1748249115.967.json,1748249115.967,0.0,32.33896387685643,-96.51304339418316,97.2862198329208,-90.76534460086634,-89.99934734684406,122.3376585705445,/home/najo/NAS/DIP/datasets/Fr5_intertek_dataset/preprocessed_roi/Fr5_intertek_4th_250526_zed_34850673_right_1748249115.967.jpg,903,99,1695,1029
/home/najo/NAS/DIP/datasets/Fr5_intertek_dataset/Fr5_intertek_4th_250526/left/zed_38007749_left_1748249116.089.jpg,38007749,left,1748249116.089,/home/najo/NAS/DIP/datasets/Fr5_intertek_dataset/Fr5_intertek_4th_250526/joint/joint_38007749_1748249116.089.json,1748249116.089,0.0,33.49133179919554,-98.71618289758663,99.4800046410891,-90.76164623298268,-89.99956489789604,123.486328125,/home/najo/NAS/DIP/datasets/Fr5_intertek_dataset/preprocessed_roi/Fr5_intertek_4th_250526_zed_38007749_left_1748249116.089.jpg,322,255,896,1008
/home/najo/NAS/DIP/datasets/Fr5_intertek_dataset/Fr5_intertek_4th_250526/left/zed_38007749_right_1748249116.089.jpg,38007749,right,1748249116.089,/home/najo/NAS/DIP/datasets/Fr5_intertek_dataset/Fr5_intertek_4th_250526/joint/joint_38007749_1748249116.089.json,1748249116.089,0.0,33.49133179919554,-98.71618289758663,99.4800046410891,-90.76164623298268,-89.99956489789604,123.486328125,/home/najo/NAS/DIP/datasets/Fr5_intertek_dataset/preprocessed_roi/Fr5_intertek_4th_250526_zed_38007749_right_1748249116.089.jpg,191,255,798,1008
/home/najo/NAS/DIP/datasets/Fr5_intertek_dataset/Fr5_intertek_4th_250526/top/zed_30779426_right_1748249116.097.jpg,30779426,right,1748249116.097,/home/najo/NAS/DIP/datasets/Fr5_intertek_dataset/Fr5_intertek_4th_250526/joint/joint_30779426_1748249116.097.json,1748249116.097,0.0,33.55355140006188,-98.84345026299503,99.60357363861388,-90.76099357982672,-89.99956489789604,123.5548567063737,/home/najo/NAS/DIP/datasets/Fr5_intertek_dataset/preprocessed_roi/Fr5_intertek_4th_250526_zed_30779426_right_1748249116.097.jpg,592,352,1046,936
/home/najo/NAS/DIP/datasets/Fr5_intertek_dataset/Fr5_intertek_4th_250526/top/zed_30779426_left_1748249116.097.jpg,30779426,left,1748249116.097,/home/najo/NAS/DIP/datasets/Fr5_intertek_dataset/Fr5_intertek_4th_250526/joint/joint_30779426_1748249116.097.json,1748249116.097,0.0,33.55355140006188,-98.84345026299503,99.60357363861388,-90.76099357982672,-89.99956489789604,123.5548567063737,/home/najo/NAS/DIP/datasets/Fr5_intertek_dataset/preprocessed_roi/Fr5_intertek_4th_250526_zed_30779426_left_1748249116.097.jpg,720,352,1173,934
/home/najo/NAS/DIP/datasets/Fr5_intertek_dataset/Fr5_intertek_4th_250526/right/zed_34850673_left_1748249116.102.jpg,34850673,left,1748249116.102,/home/najo/NAS/DIP/datasets/Fr5_intertek_dataset/Fr5_intertek_4th_250526/joint/joint_34850673_1748249116.102.json,1748249116.102,0.0,33.60641630569306,-98.95092048267328,99.70799814356435,-90.7612111308787,-90.00043510210396,123.6125077351485,/home/najo/NAS/DIP/datasets/Fr5_intertek_dataset/preprocessed_roi/Fr5_intertek_4th_250526_zed_34850673_left_1748249116.102.jpg,1155,103,1867,1029
/home/najo/NAS/DIP/datasets/Fr5_intertek_dataset/Fr5_intertek_4th_250526/right/zed_34850673_right_1748249116.102.jpg,34850673,right,1748249116.102,/home/najo/NAS/DIP/datasets/Fr5_intertek_dataset/Fr5_intertek_4th_250526/joint/joint_34850673_1748249116.102.json,1748249116.102,0.0,33.60641630569306,-98.95092048267328,99.70799814356435,-90.7612111308787,-90.00043510210396,123.6125077351485,/home/najo/NAS/DIP/datasets/Fr5_intertek_dataset/preprocessed_roi/Fr5_intertek_4th_250526_zed_34850673_right_1748249116.102.jpg,945,103,1706,1029
/home/najo/NAS/DIP/datasets/Fr5_intertek_dataset/Fr5_intertek_4th_250526/left/zed_38007749_left_1748249116.226.jpg,38007749,left,1748249116.226,/home/najo/NAS/DIP/datasets/Fr5_intertek_dataset/Fr5_intertek_4th_250526/joint/joint_38007749_1748249116.226.json,1748249116.226,0.0,34.7759707611386,-101.1784257038985,101.9254960163985,-90.76164623298268,-90.00021755105197,124.7796691290223,/home/najo/NAS/DIP/datasets/Fr5_intertek_dataset/preprocessed_roi/Fr5_intertek_4th_250526_zed_38007749_left_1748249116.226.jpg,296,255,881,1008
/home/najo/NAS/DIP/datasets/Fr5_intertek_dataset/Fr5_intertek_4th_250526/left/zed_38007749_right_1748249116.226.jpg,38007749,right,1748249116.226,/home/najo/NAS/DIP/datasets/Fr5_intertek_dataset/Fr5_intertek_4th_250526/joint/joint_38007749_1748249116.226.json,1748249116.226,0.0,34.7759707611386,-101.1784257038985,101.9254960163985,-90.76164623298268,-90.00021755105197,124.7796691290223,/home/najo/NAS/DIP/datasets/Fr5_intertek_dataset/preprocessed_roi/Fr5_intertek_4th_250526_zed_38007749_right_1748249116.226.jpg,165,255,776,1008
/home/najo/NAS/DIP/datasets/Fr5_intertek_dataset/Fr5_intertek_4th_250526/top/zed_30779426_left_1748249116.232.jpg,30779426,left,1748249116.232,/home/najo/NAS/DIP/datasets/Fr5_intertek_dataset/Fr5_intertek_4th_250526/joint/joint_30779426_1748249116.232.json,1748249116.232,0.0,34.8342744430693,-101.2861134746287,102.0368821550124,-90.7614286819307,-90.00021755105197,124.8347095451732,/home/najo/NAS/DIP/datasets/Fr5_intertek_dataset/preprocessed_roi/Fr5_intertek_4th_250526_zed_30779426_left_1748249116.232.jpg,723,377,1181,953
/home/najo/NAS/DIP/datasets/Fr5_intertek_dataset/Fr5_intertek_4th_250526/top/zed_30779426_right_1748249116.232.jpg,30779426,right,1748249116.232,/home/najo/NAS/DIP/datasets/Fr5_intertek_dataset/Fr5_intertek_4th_250526/joint/joint_30779426_1748249116.232.json,1748249116.232,0.0,34.8342744430693,-101.2861134746287,102.0368821550124,-90.7614286819307,-90.00021755105197,124.8347095451732,/home/najo/NAS/DIP/datasets/Fr5_intertek_dataset/preprocessed_roi/Fr5_intertek_4th_250526_zed_30779426_right_1748249116.232.jpg,596,375,1057,955
/home/najo/NAS/DIP/datasets/Fr5_intertek_dataset/Fr5_intertek_4th_250526/right/zed_34850673_right_1748249116.237.jpg,34850673,right,1748249116.237,/home/najo/NAS/DIP/datasets/Fr5_intertek_dataset/Fr5_intertek_4th_250526/joint/joint_30779426_1748249116.232.json,1748249116.232,0.0049998760223388,34.8342744430693,-101.2861134746287,102.0368821550124,-90.7614286819307,-90.00021755105197,124.8347095451732,/home/najo/NAS/DIP/datasets/Fr5_intertek_dataset/preprocessed_roi/Fr5_intertek_4th_250526_zed_34850673_right_1748249116.237.jpg,986,109,1713,1029
/home/najo/NAS/DIP/datasets/Fr5_intertek_dataset/Fr5_intertek_4th_250526/right/zed_34850673_left_1748249116.237.jpg,34850673,left,1748249116.237,/home/najo/NAS/DIP/datasets/Fr5_intertek_dataset/Fr5_intertek_4th_250526/joint/joint_30779426_1748249116.232.json,1748249116.232,0.0049998760223388,34.8342744430693,-101.2861134746287,102.0368821550124,-90.7614286819307,-90.00021755105197,124.8347095451732,/home/najo/NAS/DIP/datasets/Fr5_intertek_dataset/preprocessed_roi/Fr5_intertek_4th_250526_zed_34850673_left_1748249116.237.jpg,1173,111,1875,1029
/home/najo/NAS/DIP/datasets/Fr5_intertek_dataset/Fr5_intertek_4th_250526/left/zed_38007749_right_1748249116.363.jpg,38007749,right,1748249116.363,/home/najo/NAS/DIP/datasets/Fr5_intertek_dataset/Fr5_intertek_4th_250526/joint/joint_38007749_1748249116.363.json,1748249116.363,0.0,36.06561339727722,-103.611081567141,104.3703347385519,-90.75511970142328,-89.99847714263613,126.0579991104579,/home/najo/NAS/DIP/datasets/Fr5_intertek_dataset/preprocessed_roi/Fr5_intertek_4th_250526_zed_38007749_right_1748249116.363.jpg,135,257,757,1008
/home/najo/NAS/DIP/datasets/Fr5_intertek_dataset/Fr5_intertek_4th_250526/left/zed_38007749_left_1748249116.363.jpg,38007749,left,1748249116.363,/home/najo/NAS/DIP/datasets/Fr5_intertek_dataset/Fr5_intertek_4th_250526/joint/joint_38007749_1748249116.363.json,1748249116.363,0.0,36.06561339727722,-103.611081567141,104.3703347385519,-90.75511970142328,-89.99847714263613,126.0579991104579,/home/najo/NAS/DIP/datasets/Fr5_intertek_dataset/preprocessed_roi/Fr5_intertek_4th_250526_zed_38007749_left_1748249116.363.jpg,270,257,858,1008
/home/najo/NAS/DIP/datasets/Fr5_intertek_dataset/Fr5_intertek_4th_250526/right/zed_34850673_left_1748249116.368.jpg,34850673,left,1748249116.368,/home/najo/NAS/DIP/datasets/Fr5_intertek_dataset/Fr5_intertek_4th_250526/joint/joint_34850673_1748249116.368.json,1748249116.368,0.0,36.13327177444306,-103.742699953589,104.4973845529084,-90.75446704826732,-89.99934734684406,126.1241346302599,/home/najo/NAS/DIP/datasets/Fr5_intertek_dataset/preprocessed_roi/Fr5_intertek_4th_250526_zed_34850673_left_1748249116.368.jpg,1200,120,1878,1029
/home/najo/NAS/DIP/datasets/Fr5_intertek_dataset/Fr5_intertek_4th_250526/right/zed_34850673_right_1748249116.368.jpg,34850673,right,1748249116.368,/home/najo/NAS/DIP/datasets/Fr5_intertek_dataset/Fr5_intertek_4th_250526/joint/joint_34850673_1748249116.368.json,1748249116.368,0.0,36.13327177444306,-103.742699953589,104.4973845529084,-90.75446704826732,-89.99934734684406,126.1241346302599,/home/najo/NAS/DIP/datasets/Fr5_intertek_dataset/preprocessed_roi/Fr5_intertek_4th_250526_zed_34850673_right_1748249116.368.jpg,1023,120,1721,1029
/home/najo/NAS/DIP/datasets/Fr5_intertek_dataset/Fr5_intertek_4th_250526/top/zed_30779426_right_1748249116.373.jpg,30779426,right,1748249116.373,/home/najo/NAS/DIP/datasets/Fr5_intertek_dataset/Fr5_intertek_4th_250526/joint/joint_30779426_1748249116.373.json,1748249116.373,0.0,36.1491530012376,-103.774897509282,104.5289294554455,-90.75424949721534,-89.99912979579207,126.1397983060024,/home/najo/NAS/DIP/datasets/Fr5_intertek_dataset/preprocessed_roi/Fr5_intertek_4th_250526_zed_30779426_right_1748249116.373.jpg,603,407,1072,974
/home/najo/NAS/DIP/datasets/Fr5_intertek_dataset/Fr5_intertek_4th_250526/top/zed_30779426_left_1748249116.373.jpg,30779426,left,1748249116.373,/home/najo/NAS/DIP/datasets/Fr5_intertek_dataset/Fr5_intertek_4th_250526/joint/joint_30779426_1748249116.373.json,1748249116.373,0.0,36.1491530012376,-103.774897509282,104.5289294554455,-90.75424949721534,-89.99912979579207,126.1397983060024,/home/najo/NAS/DIP/datasets/Fr5_intertek_dataset/preprocessed_roi/Fr5_intertek_4th_250526_zed_30779426_left_1748249116.373.jpg,731,407,1196,970
/home/najo/NAS/DIP/datasets/Fr5_intertek_dataset/Fr5_intertek_4th_250526/left/zed_38007749_left_1748249116.498.jpg,38007749,left,1748249116.498,/home/najo/NAS/DIP/datasets/Fr5_intertek_dataset/Fr5_intertek_4th_250526/joint/joint_38007749_1748249116.498.json,1748249116.498,0.0,36.9173257657797,-105.2501111927599,106.0028378326114,-90.75316174195544,-89.99956489789604,126.9181959699876,/home/najo/NAS/DIP/datasets/Fr5_intertek_dataset/preprocessed_roi/Fr5_intertek_4th_250526_zed_38007749_left_1748249116.498.jpg,240,257,888,1008
/home/najo/NAS/DIP/datasets/Fr5_intertek_dataset/Fr5_intertek_4th_250526/left/zed_38007749_right_1748249116.498.jpg,38007749,right,1748249116.498,/home/najo/NAS/DIP/datasets/Fr5_intertek_dataset/Fr5_intertek_4th_250526/joint/joint_38007749_1748249116.498.json,1748249116.498,0.0,36.9173257657797,-105.2501111927599,106.0028378326114,-90.75316174195544,-89.99956489789604,126.9181959699876,/home/najo/NAS/DIP/datasets/Fr5_intertek_dataset/preprocessed_roi/Fr5_intertek_4th_250526_zed_38007749_right_1748249116.498.jpg,112,257,742,1008
/home/najo/NAS/DIP/datasets/Fr5_intertek_dataset/Fr5_intertek_4th_250526/right/zed_34850673_left_1748249116.505.jpg,34850673,left,1748249116.505,/home/najo/NAS/DIP/datasets/Fr5_intertek_dataset/Fr5_intertek_4th_250526/joint/joint_38007749_1748249116.498.json,1748249116.498,0.0070002079010009,36.9173257657797,-105.2501111927599,106.0028378326114,-90.75316174195544,-89.99956489789604,126.9181959699876,/home/najo/NAS/DIP/datasets/Fr5_intertek_dataset/preprocessed_roi/Fr5_intertek_4th_250526_zed_34850673_left_1748249116.505.jpg,1222,130,1878,1029
/home/najo/NAS/DIP/datasets/Fr5_intertek_dataset/Fr5_intertek_4th_250526/top/zed_30779426_left_1748249116.509.jpg,30779426,left,1748249116.509,/home/najo/NAS/DIP/datasets/Fr5_intertek_dataset/Fr5_intertek_4th_250526/joint/joint_38007749_1748249116.498.json,1748249116.498,0.0110001564025878,36.9173257657797,-105.2501111927599,106.0028378326114,-90.75316174195544,-89.99956489789604,126.9181959699876,/home/najo/NAS/DIP/datasets/Fr5_intertek_dataset/preprocessed_roi/Fr5_intertek_4th_250526_zed_30779426_left_1748249116.509.jpg,735,426,1203,982
/home/najo/NAS/DIP/datasets/Fr5_intertek_dataset/Fr5_intertek_4th_250526/right/zed_34850673_right_1748249116.505.jpg,34850673,right,1748249116.505,/home/najo/NAS/DIP/datasets/Fr5_intertek_dataset/Fr5_intertek_4th_250526/joint/joint_38007749_1748249116.498.json,1748249116.498,0.0070002079010009,36.9173257657797,-105.2501111927599,106.0028378326114,-90.75316174195544,-89.99956489789604,126.9181959699876,/home/najo/NAS/DIP/datasets/Fr5_intertek_dataset/preprocessed_roi/Fr5_intertek_4th_250526_zed_34850673_right_1748249116.505.jpg,1046,130,1725,1029
/home/najo/NAS/DIP/datasets/Fr5_intertek_dataset/Fr5_intertek_4th_250526/top/zed_30779426_right_1748249116.509.jpg,30779426,right,1748249116.509,/home/najo/NAS/DIP/datasets/Fr5_intertek_dataset/Fr5_intertek_4th_250526/joint/joint_38007749_1748249116.498.json,1748249116.498,0.0110001564025878,36.9173257657797,-105.2501111927599,106.0028378326114,-90.75316174195544,-89.99956489789604,126.9181959699876,/home/najo/NAS/DIP/datasets/Fr5_intertek_dataset/preprocessed_roi/Fr5_intertek_4th_250526_zed_30779426_right_1748249116.509.jpg,607,426,1083,985
/home/najo/NAS/DIP/datasets/Fr5_intertek_dataset/Fr5_intertek_4th_250526/left/zed_38007749_left_1748249116.640.jpg,38007749,left,1748249116.64,/home/najo/NAS/DIP/datasets/Fr5_intertek_dataset/Fr5_intertek_4th_250526/joint/joint_38007749_1748249116.640.json,1748249116.64,0.0,37.06917640006188,-105.567735728651,106.3976929919554,-90.81298828125,-89.99978244894803,127.077443340037,/home/najo/NAS/DIP/datasets/Fr5_intertek_dataset/preprocessed_roi/Fr5_intertek_4th_250526_zed_38007749_left_1748249116.640.jpg,228,259,877,1008
/home/najo/NAS/DIP/datasets/Fr5_intertek_dataset/Fr5_intertek_4th_250526/right/zed_34850673_left_1748249116.645.jpg,34850673,left,1748249116.645,/home/najo/NAS/DIP/datasets/Fr5_intertek_dataset/Fr5_intertek_4th_250526/joint/joint_34850673_1748249116.645.json,1748249116.645,0.0,37.07091680847772,-105.567083075495,106.4179252397896,-90.8295221612005,-89.99978244894803,127.0754853805693,/home/najo/NAS/DIP/datasets/Fr5_intertek_dataset/preprocessed_roi/Fr5_intertek_4th_250526_zed_34850673_left_1748249116.645.jpg,1233,135,1878,1029
