Najongs/2025_ICRA_Multi_View_Robot_Pose_Estimation/dataset/Fr5/Fr5_3th_250526/matched_index_with_roi.csv
img.path,img.serial,img.view,img.ts,joint.path,joint.ts,abs_dt,joint.0,joint.1,joint.2,joint.3,joint.4,joint.5,roi.path,roi.x1,roi.y1,roi.x2,roi.y2
/home/najo/NAS/DIP/datasets/Fr5_intertek_dataset/Fr5_intertek_3rd_250526/left/zed_38007749_left_1748249049.866.jpg,38007749,left,1748249049.866,/home/najo/NAS/DIP/datasets/Fr5_intertek_dataset/Fr5_intertek_3rd_250526/joint/joint_38007749_1748249049.866.json,1748249049.866,0.0,29.33741201268564,-105.5381487855817,106.3050162438118,-90.76795521349008,-90.0,119.3378471147896,/home/najo/NAS/DIP/datasets/Fr5_intertek_dataset/preprocessed_roi/Fr5_intertek_3rd_250526_zed_38007749_left_1748249049.866.jpg,247,261,858,1008
/home/najo/NAS/DIP/datasets/Fr5_intertek_dataset/Fr5_intertek_3rd_250526/left/zed_38007749_right_1748249049.866.jpg,38007749,right,1748249049.866,/home/najo/NAS/DIP/datasets/Fr5_intertek_dataset/Fr5_intertek_3rd_250526/joint/joint_38007749_1748249049.866.json,1748249049.866,0.0,29.33741201268564,-105.5381487855817,106.3050162438118,-90.76795521349008,-90.0,119.3378471147896,/home/najo/NAS/DIP/datasets/Fr5_intertek_dataset/preprocessed_roi/Fr5_intertek_3rd_250526_zed_38007749_right_1748249049.866.jpg,108,263,753,1008
/home/najo/NAS/DIP/datasets/Fr5_intertek_dataset/Fr5_intertek_3rd_250526/top/zed_30779426_right_1748249049.872.jpg,30779426,right,1748249049.872,/home/najo/NAS/DIP/datasets/Fr5_intertek_dataset/Fr5_intertek_3rd_250526/joint/joint_30779426_1748249049.872.json,1748249049.872,0.0,29.157497292698,-105.5372785813737,106.3041460396039,-90.76839031559406,-90.00043510210396,119.15553933323,/home/najo/NAS/DIP/datasets/Fr5_intertek_dataset/preprocessed_roi/Fr5_intertek_3rd_250526_zed_30779426_right_1748249049.872.jpg,645,396,1072,980
/home/najo/NAS/DIP/datasets/Fr5_intertek_dataset/Fr5_intertek_3rd_250526/top/zed_30779426_left_1748249049.872.jpg,30779426,left,1748249049.872,/home/najo/NAS/DIP/datasets/Fr5_intertek_dataset/Fr5_intertek_3rd_250526/joint/joint_30779426_1748249049.872.json,1748249049.872,0.0,29.157497292698,-105.5372785813737,106.3041460396039,-90.76839031559406,-90.00043510210396,119.15553933323,/home/najo/NAS/DIP/datasets/Fr5_intertek_dataset/preprocessed_roi/Fr5_intertek_3rd_250526_zed_30779426_left_1748249049.872.jpg,768,398,1196,978
/home/najo/NAS/DIP/datasets/Fr5_intertek_dataset/Fr5_intertek_3rd_250526/right/zed_34850673_left_1748249049.883.jpg,34850673,left,1748249049.883,/home/najo/NAS/DIP/datasets/Fr5_intertek_dataset/Fr5_intertek_3rd_250526/joint/joint_34850673_1748249049.883.json,1748249049.883,0.0,29.13987565748762,-105.5370610303218,106.3039284885519,-90.76860786664604,-90.00021755105197,119.1377001469678,/home/najo/NAS/DIP/datasets/Fr5_intertek_dataset/preprocessed_roi/Fr5_intertek_3rd_250526_zed_34850673_left_1748249049.883.jpg,1200,156,1901,1029
/home/najo/NAS/DIP/datasets/Fr5_intertek_dataset/Fr5_intertek_3rd_250526/right/zed_34850673_right_1748249049.883.jpg,34850673,right,1748249049.883,/home/najo/NAS/DIP/datasets/Fr5_intertek_dataset/Fr5_intertek_3rd_250526/joint/joint_34850673_1748249049.883.json,1748249049.883,0.0,29.13987565748762,-105.5370610303218,106.3039284885519,-90.76860786664604,-90.00021755105197,119.1377001469678,/home/najo/NAS/DIP/datasets/Fr5_intertek_dataset/preprocessed_roi/Fr5_intertek_3rd_250526_zed_34850673_right_1748249049.883.jpg,1016,153,1747,1029
/home/najo/NAS/DIP/datasets/Fr5_intertek_dataset/Fr5_intertek_3rd_250526/left/zed_38007749_left_1748249050.019.jpg,38007749,left,1748249050.019,/home/najo/NAS/DIP/datasets/Fr5_intertek_dataset/Fr5_intertek_3rd_250526/joint/joint_38007749_1748249050.019.json,1748249050.019,0.0,26.79511041924505,-105.5176989866955,106.291310527537,-90.77469929610147,-90.00043510210396,116.7918471534653,/home/najo/NAS/DIP/datasets/Fr5_intertek_dataset/preprocessed_roi/Fr5_intertek_3rd_250526_zed_38007749_left_1748249050.019.jpg,251,263,870,1008
/home/najo/NAS/DIP/datasets/Fr5_intertek_dataset/Fr5_intertek_3rd_250526/left/zed_38007749_right_1748249050.019.jpg,38007749,right,1748249050.019,/home/najo/NAS/DIP/datasets/Fr5_intertek_dataset/Fr5_intertek_3rd_250526/joint/joint_38007749_1748249050.019.json,1748249050.019,0.0,26.79511041924505,-105.5176989866955,106.291310527537,-90.77469929610147,-90.00043510210396,116.7918471534653,/home/najo/NAS/DIP/datasets/Fr5_intertek_dataset/preprocessed_roi/Fr5_intertek_3rd_250526_zed_38007749_right_1748249050.019.jpg,108,263,765,1008
/home/najo/NAS/DIP/datasets/Fr5_intertek_dataset/Fr5_intertek_3rd_250526/top/zed_30779426_right_1748249050.027.jpg,30779426,right,1748249050.027,/home/najo/NAS/DIP/datasets/Fr5_intertek_dataset/Fr5_intertek_3rd_250526/joint/joint_30779426_1748249050.027.json,1748249050.027,0.0,26.70526183477723,-105.5170463335396,106.290875425433,-90.77491684715346,-90.00021755105197,116.7013459158416,/home/najo/NAS/DIP/datasets/Fr5_intertek_dataset/preprocessed_roi/Fr5_intertek_3rd_250526_zed_30779426_right_1748249050.027.jpg,656,383,1068,976
/home/najo/NAS/DIP/datasets/Fr5_intertek_dataset/Fr5_intertek_3rd_250526/top/zed_30779426_left_1748249050.027.jpg,30779426,left,1748249050.027,/home/najo/NAS/DIP/datasets/Fr5_intertek_dataset/Fr5_intertek_3rd_250526/joint/joint_30779426_1748249050.027.json,1748249050.027,0.0,26.70526183477723,-105.5170463335396,106.290875425433,-90.77491684715346,-90.00021755105197,116.7013459158416,/home/najo/NAS/DIP/datasets/Fr5_intertek_dataset/preprocessed_roi/Fr5_intertek_3rd_250526_zed_30779426_left_1748249050.027.jpg,783,383,1192,974
/home/najo/NAS/DIP/datasets/Fr5_intertek_dataset/Fr5_intertek_3rd_250526/right/zed_34850673_right_1748249050.032.jpg,34850673,right,1748249050.032,/home/najo/NAS/DIP/datasets/Fr5_intertek_dataset/Fr5_intertek_3rd_250526/joint/joint_34850673_1748249050.032.json,1748249050.032,0.0,26.59735651299505,-105.5163936803836,106.2902227722772,-90.77513439820544,-90.00021755105197,116.5945283493193,/home/najo/NAS/DIP/datasets/Fr5_intertek_dataset/preprocessed_roi/Fr5_intertek_3rd_250526_zed_34850673_right_1748249050.032.jpg,993,160,1751,1029
/home/najo/NAS/DIP/datasets/Fr5_intertek_dataset/Fr5_intertek_3rd_250526/right/zed_34850673_left_1748249050.032.jpg,34850673,left,1748249050.032,/home/najo/NAS/DIP/datasets/Fr5_intertek_dataset/Fr5_intertek_3rd_250526/joint/joint_34850673_1748249050.032.json,1748249050.032,0.0,26.59735651299505,-105.5163936803836,106.2902227722772,-90.77513439820544,-90.00021755105197,116.5945283493193,/home/najo/NAS/DIP/datasets/Fr5_intertek_dataset/preprocessed_roi/Fr5_intertek_3rd_250526_zed_34850673_left_1748249050.032.jpg,1188,162,1908,1029
/home/najo/NAS/DIP/datasets/Fr5_intertek_dataset/Fr5_intertek_3rd_250526/left/zed_38007749_left_1748249050.158.jpg,38007749,left,1748249050.158,/home/najo/NAS/DIP/datasets/Fr5_intertek_dataset/Fr5_intertek_3rd_250526/joint/joint_38007749_1748249050.158.json,1748249050.158,0.0,24.32764638768564,-105.4985544941213,106.2780399133663,-90.77970297029702,-90.0,114.3278639387376,/home/najo/NAS/DIP/datasets/Fr5_intertek_dataset/preprocessed_roi/Fr5_intertek_3rd_250526_zed_38007749_left_1748249050.158.jpg,255,263,881,1008
/home/najo/NAS/DIP/datasets/Fr5_intertek_dataset/Fr5_intertek_3rd_250526/left/zed_38007749_right_1748249050.158.jpg,38007749,right,1748249050.158,/home/najo/NAS/DIP/datasets/Fr5_intertek_dataset/Fr5_intertek_3rd_250526/joint/joint_38007749_1748249050.158.json,1748249050.158,0.0,24.32764638768564,-105.4985544941213,106.2780399133663,-90.77970297029702,-90.0,114.3278639387376,/home/najo/NAS/DIP/datasets/Fr5_intertek_dataset/preprocessed_roi/Fr5_intertek_3rd_250526_zed_38007749_right_1748249050.158.jpg,116,265,776,1008
/home/najo/NAS/DIP/datasets/Fr5_intertek_dataset/Fr5_intertek_3rd_250526/top/zed_30779426_right_1748249050.164.jpg,30779426,right,1748249050.164,/home/najo/NAS/DIP/datasets/Fr5_intertek_dataset/Fr5_intertek_3rd_250526/joint/joint_30779426_1748249050.164.json,1748249050.164,0.0,24.2412786200495,-105.4979018409653,106.2773872602104,-90.77948541924503,-90.00043510210396,114.2404084158416,/home/najo/NAS/DIP/datasets/Fr5_intertek_dataset/preprocessed_roi/Fr5_intertek_3rd_250526_zed_30779426_right_1748249050.164.jpg,667,371,1065,970
/home/najo/NAS/DIP/datasets/Fr5_intertek_dataset/Fr5_intertek_3rd_250526/top/zed_30779426_left_1748249050.164.jpg,30779426,left,1748249050.164,/home/najo/NAS/DIP/datasets/Fr5_intertek_dataset/Fr5_intertek_3rd_250526/joint/joint_30779426_1748249050.164.json,1748249050.164,0.0,24.2412786200495,-105.4979018409653,106.2773872602104,-90.77948541924503,-90.00043510210396,114.2404084158416,/home/najo/NAS/DIP/datasets/Fr5_intertek_dataset/preprocessed_roi/Fr5_intertek_3rd_250526_zed_30779426_left_1748249050.164.jpg,795,371,1188,968
/home/najo/NAS/DIP/datasets/Fr5_intertek_dataset/Fr5_intertek_3rd_250526/right/zed_34850673_right_1748249050.170.jpg,34850673,right,1748249050.17,/home/najo/NAS/DIP/datasets/Fr5_intertek_dataset/Fr5_intertek_3rd_250526/joint/joint_34850673_1748249050.170.json,1748249050.17,0.0,24.18797861231435,-105.4972491878094,106.2769521581064,-90.77970297029702,-90.00065265315594,114.1864557549505,/home/najo/NAS/DIP/datasets/Fr5_intertek_dataset/preprocessed_roi/Fr5_intertek_3rd_250526_zed_34850673_right_1748249050.170.jpg,971,172,1755,1029
/home/najo/NAS/DIP/datasets/Fr5_intertek_dataset/Fr5_intertek_3rd_250526/right/zed_34850673_left_1748249050.170.jpg,34850673,left,1748249050.17,/home/najo/NAS/DIP/datasets/Fr5_intertek_dataset/Fr5_intertek_3rd_250526/joint/joint_34850673_1748249050.170.json,1748249050.17,0.0,24.18797861231435,-105.4972491878094,106.2769521581064,-90.77970297029702,-90.00065265315594,114.1864557549505,/home/najo/NAS/DIP/datasets/Fr5_intertek_dataset/preprocessed_roi/Fr5_intertek_3rd_250526_zed_34850673_left_1748249050.170.jpg,1170,172,1916,1029
/home/najo/NAS/DIP/datasets/Fr5_intertek_dataset/Fr5_intertek_3rd_250526/left/zed_38007749_right_1748249050.297.jpg,38007749,right,1748249050.297,/home/najo/NAS/DIP/datasets/Fr5_intertek_dataset/Fr5_intertek_3rd_250526/joint/joint_38007749_1748249050.297.json,1748249050.297,0.0,21.86192276454208,-105.479845103651,106.2641166460396,-90.7864470529084,-90.0,111.8590946008663,/home/najo/NAS/DIP/datasets/Fr5_intertek_dataset/preprocessed_roi/Fr5_intertek_3rd_250526_zed_38007749_right_1748249050.297.jpg,120,265,783,1008
/home/najo/NAS/DIP/datasets/Fr5_intertek_dataset/Fr5_intertek_3rd_250526/left/zed_38007749_left_1748249050.297.jpg,38007749,left,1748249050.297,/home/najo/NAS/DIP/datasets/Fr5_intertek_dataset/Fr5_intertek_3rd_250526/joint/joint_38007749_1748249050.297.json,1748249050.297,0.0,21.86192276454208,-105.479845103651,106.2641166460396,-90.7864470529084,-90.0,111.8590946008663,/home/najo/NAS/DIP/datasets/Fr5_intertek_dataset/preprocessed_roi/Fr5_intertek_3rd_250526_zed_38007749_left_1748249050.297.jpg,258,265,892,1008
/home/najo/NAS/DIP/datasets/Fr5_intertek_dataset/Fr5_intertek_3rd_250526/top/zed_30779426_left_1748249050.301.jpg,30779426,left,1748249050.301,/home/najo/NAS/DIP/datasets/Fr5_intertek_dataset/Fr5_intertek_3rd_250526/joint/joint_30779426_1748249050.301.json,1748249050.301,0.0,21.77098642481435,-105.479192450495,106.2636815439356,-90.78622950185644,-89.99956489789604,111.7707688737624,/home/najo/NAS/DIP/datasets/Fr5_intertek_dataset/preprocessed_roi/Fr5_intertek_3rd_250526_zed_30779426_left_1748249050.301.jpg,810,360,1181,963
/home/najo/NAS/DIP/datasets/Fr5_intertek_dataset/Fr5_intertek_3rd_250526/top/zed_30779426_right_1748249050.301.jpg,30779426,right,1748249050.301,/home/najo/NAS/DIP/datasets/Fr5_intertek_dataset/Fr5_intertek_3rd_250526/joint/joint_30779426_1748249050.301.json,1748249050.301,0.0,21.77098642481435,-105.479192450495,106.2636815439356,-90.78622950185644,-89.99956489789604,111.7707688737624,/home/najo/NAS/DIP/datasets/Fr5_intertek_dataset/preprocessed_roi/Fr5_intertek_3rd_250526_zed_30779426_right_1748249050.301.jpg,682,360,1061,963
/home/najo/NAS/DIP/datasets/Fr5_intertek_dataset/Fr5_intertek_3rd_250526/right/zed_34850673_right_1748249050.306.jpg,34850673,right,1748249050.306,/home/najo/NAS/DIP/datasets/Fr5_intertek_dataset/Fr5_intertek_3rd_250526/joint/joint_30779426_1748249050.301.json,1748249050.301,0.0049998760223388,21.77098642481435,-105.479192450495,106.2636815439356,-90.78622950185644,-89.99956489789604,111.7707688737624,/home/najo/NAS/DIP/datasets/Fr5_intertek_dataset/preprocessed_roi/Fr5_intertek_3rd_250526_zed_34850673_right_1748249050.306.jpg,952,181,1758,1029
/home/najo/NAS/DIP/datasets/Fr5_intertek_dataset/Fr5_intertek_3rd_250526/right/zed_34850673_left_1748249050.306.jpg,34850673,left,1748249050.306,/home/najo/NAS/DIP/datasets/Fr5_intertek_dataset/Fr5_intertek_3rd_250526/joint/joint_30779426_1748249050.301.json,1748249050.301,0.0049998760223388,21.77098642481435,-105.479192450495,106.2636815439356,-90.78622950185644,-89.99956489789604,111.7707688737624,/home/najo/NAS/DIP/datasets/Fr5_intertek_dataset/preprocessed_roi/Fr5_intertek_3rd_250526_zed_34850673_left_1748249050.306.jpg,1151,181,1916,1029
/home/najo/NAS/DIP/datasets/Fr5_intertek_dataset/Fr5_intertek_3rd_250526/left/zed_38007749_left_1748249050.435.jpg,38007749,left,1748249050.435,/home/najo/NAS/DIP/datasets/Fr5_intertek_dataset/Fr5_intertek_3rd_250526/joint/joint_38007749_1748249050.435.json,1748249050.435,0.0,19.3764019956683,-105.4613532642326,106.2512811339727,-90.79145072710396,-89.99934734684406,109.3748791383044,/home/najo/NAS/DIP/datasets/Fr5_intertek_dataset/preprocessed_roi/Fr5_intertek_3rd_250526_zed_38007749_left_1748249050.435.jpg,262,267,900,1008
/home/najo/NAS/DIP/datasets/Fr5_intertek_dataset/Fr5_intertek_3rd_250526/left/zed_38007749_right_1748249050.435.jpg,38007749,right,1748249050.435,/home/najo/NAS/DIP/datasets/Fr5_intertek_dataset/Fr5_intertek_3rd_250526/joint/joint_38007749_1748249050.435.json,1748249050.435,0.0,19.3764019956683,-105.4613532642326,106.2512811339727,-90.79145072710396,-89.99934734684406,109.3748791383044,/home/najo/NAS/DIP/datasets/Fr5_intertek_dataset/preprocessed_roi/Fr5_intertek_3rd_250526_zed_38007749_right_1748249050.435.jpg,123,267,791,1008
/home/najo/NAS/DIP/datasets/Fr5_intertek_dataset/Fr5_intertek_3rd_250526/right/zed_34850673_left_1748249050.439.jpg,34850673,left,1748249050.439,/home/najo/NAS/DIP/datasets/Fr5_intertek_dataset/Fr5_intertek_3rd_250526/joint/joint_38007749_1748249050.435.json,1748249050.435,0.0039999485015869,19.3764019956683,-105.4613532642326,106.2512811339727,-90.79145072710396,-89.99934734684406,109.3748791383044,/home/najo/NAS/DIP/datasets/Fr5_intertek_dataset/preprocessed_roi/Fr5_intertek_3rd_250526_zed_34850673_left_1748249050.439.jpg,1128,187,1916,1029
/home/najo/NAS/DIP/datasets/Fr5_intertek_dataset/Fr5_intertek_3rd_250526/right/zed_34850673_right_1748249050.439.jpg,34850673,right,1748249050.439,/home/najo/NAS/DIP/datasets/Fr5_intertek_dataset/Fr5_intertek_3rd_250526/joint/joint_38007749_1748249050.435.json,1748249050.435,0.0039999485015869,19.3764019956683,-105.4613532642326,106.2512811339727,-90.79145072710396,-89.99934734684406,109.3748791383044,/home/najo/NAS/DIP/datasets/Fr5_intertek_dataset/preprocessed_roi/Fr5_intertek_3rd_250526_zed_34850673_right_1748249050.439.jpg,933,187,1762,1029
/home/najo/NAS/DIP/datasets/Fr5_intertek_dataset/Fr5_intertek_3rd_250526/top/zed_30779426_left_1748249050.444.jpg,30779426,left,1748249050.444,/home/najo/NAS/DIP/datasets/Fr5_intertek_dataset/Fr5_intertek_3rd_250526/joint/joint_30779426_1748249050.444.json,1748249050.444,0.0,19.17669012995049,-105.4602655089727,106.2497582766089,-90.7921033802599,-90.00065265315594,109.1736444152227,/home/najo/NAS/DIP/datasets/Fr5_intertek_dataset/preprocessed_roi/Fr5_intertek_3rd_250526_zed_30779426_left_1748249050.444.jpg,825,345,1177,957
/home/najo/NAS/DIP/datasets/Fr5_intertek_dataset/Fr5_intertek_3rd_250526/right/zed_34850673_right_1748249050.572.jpg,34850673,right,1748249050.572,/home/najo/NAS/DIP/datasets/Fr5_intertek_dataset/Fr5_intertek_3rd_250526/joint/joint_34850673_1748249050.572.json,1748249050.572,0.0,16.87325959158416,-105.4413385674505,106.23779296875,-90.79667195235147,-90.00021755105197,106.872606938428,/home/najo/NAS/DIP/datasets/Fr5_intertek_dataset/preprocessed_roi/Fr5_intertek_3rd_250526_zed_34850673_right_1748249050.572.jpg,918,196,1762,1029
/home/najo/NAS/DIP/datasets/Fr5_intertek_dataset/Fr5_intertek_3rd_250526/top/zed_30779426_right_1748249050.444.jpg,30779426,right,1748249050.444,/home/najo/NAS/DIP/datasets/Fr5_intertek_dataset/Fr5_intertek_3rd_250526/joint/joint_30779426_1748249050.444.json,1748249050.444,0.0,19.17669012995049,-105.4602655089727,106.2497582766089,-90.7921033802599,-90.00065265315594,109.1736444152227,/home/najo/NAS/DIP/datasets/Fr5_intertek_dataset/preprocessed_roi/Fr5_intertek_3rd_250526_zed_30779426_right_1748249050.444.jpg,701,345,1053,957
/home/najo/NAS/DIP/datasets/Fr5_intertek_dataset/Fr5_intertek_3rd_250526/right/zed_34850673_left_1748249050.572.jpg,34850673,left,1748249050.572,/home/najo/NAS/DIP/datasets/Fr5_intertek_dataset/Fr5_intertek_3rd_250526/joint/joint_34850673_1748249050.572.json,1748249050.572,0.0,16.87325959158416,-105.4413385674505,106.23779296875,-90.79667195235147,-90.00021755105197,106.872606938428,/home/najo/NAS/DIP/datasets/Fr5_intertek_dataset/preprocessed_roi/Fr5_intertek_3rd_250526_zed_34850673_left_1748249050.572.jpg,1110,196,1916,1029
/home/najo/NAS/DIP/datasets/Fr5_intertek_dataset/Fr5_intertek_3rd_250526/left/zed_38007749_right_1748249050.577.jpg,38007749,right,1748249050.577,/home/najo/NAS/DIP/datasets/Fr5_intertek_dataset/Fr5_intertek_3rd_250526/joint/joint_38007749_1748249050.577.json,1748249050.577,0.0,16.83692856590346,-105.4411210163985,106.237575417698,-90.79688950340346,-90.00021755105197,106.8369285659034,/home/najo/NAS/DIP/datasets/Fr5_intertek_dataset/preprocessed_roi/Fr5_intertek_3rd_250526_zed_38007749_right_1748249050.577.jpg,127,267,798,1008
/home/najo/NAS/DIP/datasets/Fr5_intertek_dataset/Fr5_intertek_3rd_250526/top/zed_30779426_right_1748249050.582.jpg,30779426,right,1748249050.582,/home/najo/NAS/DIP/datasets/Fr5_intertek_dataset/Fr5_intertek_3rd_250526/joint/joint_30779426_1748249050.582.json,1748249050.582,0.0,16.76470161664604,-105.4409034653465,106.237140315594,-90.79710705445544,-90.00043510210396,106.7666595761138,/home/najo/NAS/DIP/datasets/Fr5_intertek_dataset/preprocessed_roi/Fr5_intertek_3rd_250526_zed_30779426_right_1748249050.582.jpg,712,335,1050,953
/home/najo/NAS/DIP/datasets/Fr5_intertek_dataset/Fr5_intertek_3rd_250526/left/zed_38007749_left_1748249050.577.jpg,38007749,left,1748249050.577,/home/najo/NAS/DIP/datasets/Fr5_intertek_dataset/Fr5_intertek_3rd_250526/joint/joint_38007749_1748249050.577.json,1748249050.577,0.0,16.83692856590346,-105.4411210163985,106.237575417698,-90.79688950340346,-90.00021755105197,106.8369285659034,/home/najo/NAS/DIP/datasets/Fr5_intertek_dataset/preprocessed_roi/Fr5_intertek_3rd_250526_zed_38007749_left_1748249050.577.jpg,266,267,911,1008
/home/najo/NAS/DIP/datasets/Fr5_intertek_dataset/Fr5_intertek_3rd_250526/top/zed_30779426_left_1748249050.582.jpg,30779426,left,1748249050.582,/home/najo/NAS/DIP/datasets/Fr5_intertek_dataset/Fr5_intertek_3rd_250526/joint/joint_30779426_1748249050.582.json,1748249050.582,0.0,16.76470161664604,-105.4409034653465,106.237140315594,-90.79710705445544,-90.00043510210396,106.7666595761138,/home/najo/NAS/DIP/datasets/Fr5_intertek_dataset/preprocessed_roi/Fr5_intertek_3rd_250526_zed_30779426_left_1748249050.582.jpg,840,335,1173,953
/home/najo/NAS/DIP/datasets/Fr5_intertek_dataset/Fr5_intertek_3rd_250526/right/zed_34850673_left_1748249050.710.jpg,34850673,left,1748249050.71,/home/najo/NAS/DIP/datasets/Fr5_intertek_dataset/Fr5_intertek_3rd_250526/joint/joint_34850673_1748249050.710.json,1748249050.71,0.0,14.3886090269183,-105.4221940748762,106.2238697014232,-90.80145807549503,-90.00021755105197,104.3868686185024,/home/najo/NAS/DIP/datasets/Fr5_intertek_dataset/preprocessed_roi/Fr5_intertek_3rd_250526_zed_34850673_left_1748249050.710.jpg,1091,200,1916,1029
/home/najo/NAS/DIP/datasets/Fr5_intertek_dataset/Fr5_intertek_3rd_250526/right/zed_34850673_right_1748249050.710.jpg,34850673,right,1748249050.71,/home/najo/NAS/DIP/datasets/Fr5_intertek_dataset/Fr5_intertek_3rd_250526/joint/joint_34850673_1748249050.710.json,1748249050.71,0.0,14.3886090269183,-105.4221940748762,106.2238697014232,-90.80145807549503,-90.00021755105197,104.3868686185024,/home/najo/NAS/DIP/datasets/Fr5_intertek_dataset/preprocessed_roi/Fr5_intertek_3rd_250526_zed_34850673_right_1748249050.710.jpg,907,202,1766,1029
/home/najo/NAS/DIP/datasets/Fr5_intertek_dataset/Fr5_intertek_3rd_250526/left/zed_38007749_left_1748249050.715.jpg,38007749,left,1748249050.715,/home/najo/NAS/DIP/datasets/Fr5_intertek_dataset/Fr5_intertek_3rd_250526/joint/joint_38007749_1748249050.715.json,1748249050.715,0.0,14.3524955522896,-105.4215414217203,106.2236521503713,-90.80167562654702,-90.0,104.3505375928218,/home/najo/NAS/DIP/datasets/Fr5_intertek_dataset/preprocessed_roi/Fr5_intertek_3rd_250526_zed_38007749_left_1748249050.715.jpg,270,270,918,1008
/home/najo/NAS/DIP/datasets/Fr5_intertek_dataset/Fr5_intertek_3rd_250526/left/zed_38007749_right_1748249050.715.jpg,38007749,right,1748249050.715,/home/najo/NAS/DIP/datasets/Fr5_intertek_dataset/Fr5_intertek_3rd_250526/joint/joint_38007749_1748249050.715.json,1748249050.715,0.0,14.3524955522896,-105.4215414217203,106.2236521503713,-90.80167562654702,-90.0,104.3505375928218,/home/najo/NAS/DIP/datasets/Fr5_intertek_dataset/preprocessed_roi/Fr5_intertek_3rd_250526_zed_38007749_right_1748249050.715.jpg,131,270,806,1008
/home/najo/NAS/DIP/datasets/Fr5_intertek_dataset/Fr5_intertek_3rd_250526/top/zed_30779426_right_1748249050.719.jpg,30779426,right,1748249050.719,/home/najo/NAS/DIP/datasets/Fr5_intertek_dataset/Fr5_intertek_3rd_250526/joint/joint_30779426_1748249050.719.json,1748249050.719,0.0,14.26329962097772,-105.4208887685643,106.2229994972153,-90.80211072865096,-90.00065265315594,104.260036355198,/home/najo/NAS/DIP/datasets/Fr5_intertek_dataset/preprocessed_roi/Fr5_intertek_3rd_250526_zed_30779426_right_1748249050.719.jpg,727,326,1046,947
/home/najo/NAS/DIP/datasets/Fr5_intertek_dataset/Fr5_intertek_3rd_250526/top/zed_30779426_left_1748249050.719.jpg,30779426,left,1748249050.719,/home/najo/NAS/DIP/datasets/Fr5_intertek_dataset/Fr5_intertek_3rd_250526/joint/joint_30779426_1748249050.719.json,1748249050.719,0.0,14.26329962097772,-105.4208887685643,106.2229994972153,-90.80211072865096,-90.00065265315594,104.260036355198,/home/najo/NAS/DIP/datasets/Fr5_intertek_dataset/preprocessed_roi/Fr5_intertek_3rd_250526_zed_30779426_left_1748249050.719.jpg,855,326,1170,945
/home/najo/NAS/DIP/datasets/Fr5_intertek_dataset/Fr5_intertek_3rd_250526/right/zed_34850673_left_1748249050.848.jpg,34850673,left,1748249050.848,/home/najo/NAS/DIP/datasets/Fr5_intertek_dataset/Fr5_intertek_3rd_250526/joint/joint_34850673_1748249050.848.json,1748249050.848,0.0,11.9761854115099,-105.4039197865099,106.2097288830445,-90.8064617496906,-90.0,101.974227452042,/home/najo/NAS/DIP/datasets/Fr5_intertek_dataset/preprocessed_roi/Fr5_intertek_3rd_250526_zed_34850673_left_1748249050.848.jpg,1076,198,1916,1029
/home/najo/NAS/DIP/datasets/Fr5_intertek_dataset/Fr5_intertek_3rd_250526/right/zed_34850673_right_1748249050.848.jpg,34850673,right,1748249050.848,/home/najo/NAS/DIP/datasets/Fr5_intertek_dataset/Fr5_intertek_3rd_250526/joint/joint_34850673_1748249050.848.json,1748249050.848,0.0,11.9761854115099,-105.4039197865099,106.2097288830445,-90.8064617496906,-90.0,101.974227452042,/home/najo/NAS/DIP/datasets/Fr5_intertek_dataset/preprocessed_roi/Fr5_intertek_3rd_250526_zed_34850673_right_1748249050.848.jpg,896,198,1766,1029
/home/najo/NAS/DIP/datasets/Fr5_intertek_dataset/Fr5_intertek_3rd_250526/left/zed_38007749_right_1748249050.852.jpg,38007749,right,1748249050.852,/home/najo/NAS/DIP/datasets/Fr5_intertek_dataset/Fr5_intertek_3rd_250526/joint/joint_38007749_1748249050.852.json,1748249050.852,0.0,11.8519637608292,-105.402614480198,106.2090762298886,-90.8073319538985,-90.00043510210396,101.8463074334777,/home/najo/NAS/DIP/datasets/Fr5_intertek_dataset/preprocessed_roi/Fr5_intertek_3rd_250526_zed_38007749_right_1748249050.852.jpg,135,270,813,1008
/home/najo/NAS/DIP/datasets/Fr5_intertek_dataset/Fr5_intertek_3rd_250526/left/zed_38007749_left_1748249050.852.jpg,38007749,left,1748249050.852,/home/najo/NAS/DIP/datasets/Fr5_intertek_dataset/Fr5_intertek_3rd_250526/joint/joint_38007749_1748249050.852.json,1748249050.852,0.0,11.8519637608292,-105.402614480198,106.2090762298886,-90.8073319538985,-90.00043510210396,101.8463074334777,/home/najo/NAS/DIP/datasets/Fr5_intertek_dataset/preprocessed_roi/Fr5_intertek_3rd_250526_zed_38007749_left_1748249050.852.jpg,273,270,926,1008
/home/najo/NAS/DIP/datasets/Fr5_intertek_dataset/Fr5_intertek_3rd_250526/top/zed_30779426_left_1748249050.857.jpg,30779426,left,1748249050.857,/home/najo/NAS/DIP/datasets/Fr5_intertek_dataset/Fr5_intertek_3rd_250526/joint/joint_38007749_1748249050.852.json,1748249050.852,0.0050001144409179,11.8519637608292,-105.402614480198,106.2090762298886,-90.8073319538985,-90.00043510210396,101.8463074334777,/home/najo/NAS/DIP/datasets/Fr5_intertek_dataset/preprocessed_roi/Fr5_intertek_3rd_250526_zed_30779426_left_1748249050.857.jpg,870,316,1166,936
/home/najo/NAS/DIP/datasets/Fr5_intertek_dataset/Fr5_intertek_3rd_250526/top/zed_30779426_right_1748249050.857.jpg,30779426,right,1748249050.857,/home/najo/NAS/DIP/datasets/Fr5_intertek_dataset/Fr5_intertek_3rd_250526/joint/joint_38007749_1748249050.852.json,1748249050.852,0.0050001144409179,11.8519637608292,-105.402614480198,106.2090762298886,-90.8073319538985,-90.00043510210396,101.8463074334777,/home/najo/NAS/DIP/datasets/Fr5_intertek_dataset/preprocessed_roi/Fr5_intertek_3rd_250526_zed_30779426_right_1748249050.857.jpg,742,316,1042,938
/home/najo/NAS/DIP/datasets/Fr5_intertek_dataset/Fr5_intertek_3rd_250526/right/zed_34850673_left_1748249050.984.jpg,34850673,left,1748249050.984,/home/najo/NAS/DIP/datasets/Fr5_intertek_dataset/Fr5_intertek_3rd_250526/joint/joint_34850673_1748249050.984.json,1748249050.984,0.0,9.474130762685643,-105.3845577428836,106.1964582688737,-90.81255317914604,-90.00065265315594,99.4800046410891,/home/najo/NAS/DIP/datasets/Fr5_intertek_dataset/preprocessed_roi/Fr5_intertek_3rd_250526_zed_34850673_left_1748249050.984.jpg,1065,196,1916,1029
/home/najo/NAS/DIP/datasets/Fr5_intertek_dataset/Fr5_intertek_3rd_250526/right/zed_34850673_right_1748249050.984.jpg,34850673,right,1748249050.984,/home/najo/NAS/DIP/datasets/Fr5_intertek_dataset/Fr5_intertek_3rd_250526/joint/joint_34850673_1748249050.984.json,1748249050.984,0.0,9.474130762685643,-105.3845577428836,106.1964582688737,-90.81255317914604,-90.00065265315594,99.4800046410891,/home/najo/NAS/DIP/datasets/Fr5_intertek_dataset/preprocessed_roi/Fr5_intertek_3rd_250526_zed_34850673_right_1748249050.984.jpg,885,196,1766,1029
/home/najo/NAS/DIP/datasets/Fr5_intertek_dataset/Fr5_intertek_3rd_250526/top/zed_30779426_right_1748249050.990.jpg,30779426,right,1748249050.99,/home/najo/NAS/DIP/datasets/Fr5_intertek_dataset/Fr5_intertek_3rd_250526/joint/joint_30779426_1748249050.990.json,1748249050.99,0.0,9.366660543007423,-105.3836875386757,106.1958056157178,-90.81255317914604,-89.99978244894803,99.37166421720298,/home/najo/NAS/DIP/datasets/Fr5_intertek_dataset/preprocessed_roi/Fr5_intertek_3rd_250526_zed_30779426_right_1748249050.990.jpg,757,307,1038,932
/home/najo/NAS/DIP/datasets/Fr5_intertek_dataset/Fr5_intertek_3rd_250526/top/zed_30779426_left_1748249050.990.jpg,30779426,left,1748249050.99,/home/najo/NAS/DIP/datasets/Fr5_intertek_dataset/Fr5_intertek_3rd_250526/joint/joint_30779426_1748249050.990.json,1748249050.99,0.0,9.366660543007423,-105.3836875386757,106.1958056157178,-90.81255317914604,-89.99978244894803,99.37166421720298,/home/najo/NAS/DIP/datasets/Fr5_intertek_dataset/preprocessed_roi/Fr5_intertek_3rd_250526_zed_30779426_left_1748249050.990.jpg,885,307,1162,932
/home/najo/NAS/DIP/datasets/Fr5_intertek_dataset/Fr5_intertek_3rd_250526/left/zed_38007749_left_1748249050.995.jpg,38007749,left,1748249050.995,/home/najo/NAS/DIP/datasets/Fr5_intertek_dataset/Fr5_intertek_3rd_250526/joint/joint_38007749_1748249050.995.json,1748249050.995,0.0,9.29682665532178,-105.3834699876237,106.1955880646658,-90.81277073019804,-90.0,99.30030747215346,/home/najo/NAS/DIP/datasets/Fr5_intertek_dataset/preprocessed_roi/Fr5_intertek_3rd_250526_zed_38007749_left_1748249050.995.jpg,281,272,933,1008
/home/najo/NAS/DIP/datasets/Fr5_intertek_dataset/Fr5_intertek_3rd_250526/left/zed_38007749_right_1748249050.995.jpg,38007749,right,1748249050.995,/home/najo/NAS/DIP/datasets/Fr5_intertek_dataset/Fr5_intertek_3rd_250526/joint/joint_38007749_1748249050.995.json,1748249050.995,0.0,9.29682665532178,-105.3834699876237,106.1955880646658,-90.81277073019804,-90.0,99.30030747215346,/home/najo/NAS/DIP/datasets/Fr5_intertek_dataset/preprocessed_roi/Fr5_intertek_3rd_250526_zed_38007749_right_1748249050.995.jpg,138,272,817,1008
/home/najo/NAS/DIP/datasets/Fr5_intertek_dataset/Fr5_intertek_3rd_250526/right/zed_34850673_left_1748249051.122.jpg,34850673,left,1748249051.122,/home/najo/NAS/DIP/datasets/Fr5_intertek_dataset/Fr5_intertek_3rd_250526/joint/joint_34850673_1748249051.122.json,1748249051.122,0.0,7.00949489480198,-105.3654132503094,106.1831876547029,-90.81777440439356,-90.00043510210396,97.00644918007426,/home/najo/NAS/DIP/datasets/Fr5_intertek_dataset/preprocessed_roi/Fr5_intertek_3rd_250526_zed_34850673_left_1748249051.122.jpg,1050,194,1916,1029
/home/najo/NAS/DIP/datasets/Fr5_intertek_dataset/Fr5_intertek_3rd_250526/right/zed_34850673_right_1748249051.122.jpg,34850673,right,1748249051.122,/home/najo/NAS/DIP/datasets/Fr5_intertek_dataset/Fr5_intertek_3rd_250526/joint/joint_34850673_1748249051.122.json,1748249051.122,0.0,7.00949489480198,-105.3654132503094,106.1831876547029,-90.81777440439356,-90.00043510210396,97.00644918007426,/home/najo/NAS/DIP/datasets/Fr5_intertek_dataset/preprocessed_roi/Fr5_intertek_3rd_250526_zed_34850673_right_1748249051.122.jpg,873,194,1762,1029
/home/najo/NAS/DIP/datasets/Fr5_intertek_dataset/Fr5_intertek_3rd_250526/top/zed_30779426_left_1748249051.128.jpg,30779426,left,1748249051.128,/home/najo/NAS/DIP/datasets/Fr5_intertek_dataset/Fr5_intertek_3rd_250526/joint/joint_30779426_1748249051.128.json,1748249051.128,0.0,6.938138149752475,-105.3647605971534,106.182752552599,-90.81777440439356,-90.00043510210396,96.93530998607672,/home/najo/NAS/DIP/datasets/Fr5_intertek_dataset/preprocessed_roi/Fr5_intertek_3rd_250526_zed_30779426_left_1748249051.128.jpg,900,301,1158,923
/home/najo/NAS/DIP/datasets/Fr5_intertek_dataset/Fr5_intertek_3rd_250526/top/zed_30779426_right_1748249051.128.jpg,30779426,right,1748249051.128,/home/najo/NAS/DIP/datasets/Fr5_intertek_dataset/Fr5_intertek_3rd_250526/joint/joint_30779426_1748249051.128.json,1748249051.128,0.0,6.938138149752475,-105.3647605971534,106.182752552599,-90.81777440439356,-90.00043510210396,96.93530998607672,/home/najo/NAS/DIP/datasets/Fr5_intertek_dataset/preprocessed_roi/Fr5_intertek_3rd_250526_zed_30779426_right_1748249051.128.jpg,772,299,1035,926
/home/najo/NAS/DIP/datasets/Fr5_intertek_dataset/Fr5_intertek_3rd_250526/left/zed_38007749_right_1748249051.133.jpg,38007749,right,1748249051.133,/home/najo/NAS/DIP/datasets/Fr5_intertek_dataset/Fr5_intertek_3rd_250526/joint/joint_38007749_1748249051.133.json,1748249051.133,0.0,6.81195853960396,-105.3641079439975,106.182317450495,-90.81799195544556,-90.0,96.8093479269802,/home/najo/NAS/DIP/datasets/Fr5_intertek_dataset/preprocessed_roi/Fr5_intertek_3rd_250526_zed_38007749_right_1748249051.133.jpg,146,272,825,1008
/home/najo/NAS/DIP/datasets/Fr5_intertek_dataset/Fr5_intertek_3rd_250526/left/zed_38007749_left_1748249051.133.jpg,38007749,left,1748249051.133,/home/najo/NAS/DIP/datasets/Fr5_intertek_dataset/Fr5_intertek_3rd_250526/joint/joint_38007749_1748249051.133.json,1748249051.133,0.0,6.81195853960396,-105.3641079439975,106.182317450495,-90.81799195544556,-90.0,96.8093479269802,/home/najo/NAS/DIP/datasets/Fr5_intertek_dataset/preprocessed_roi/Fr5_intertek_3rd_250526_zed_38007749_left_1748249051.133.jpg,285,272,941,1008
/home/najo/NAS/DIP/datasets/Fr5_intertek_dataset/Fr5_intertek_3rd_250526/right/zed_34850673_right_1748249051.259.jpg,34850673,right,1748249051.259,/home/najo/NAS/DIP/datasets/Fr5_intertek_dataset/Fr5_intertek_3rd_250526/joint/joint_34850673_1748249051.259.json,1748249051.259,0.0,4.576839031559406,-105.347791615099,106.170352142636,-90.82321318069307,-90.00021755105197,94.57531617419556,/home/najo/NAS/DIP/datasets/Fr5_intertek_dataset/preprocessed_roi/Fr5_intertek_3rd_250526_zed_34850673_right_1748249051.259.jpg,866,191,1762,1029
/home/najo/NAS/DIP/datasets/Fr5_intertek_dataset/Fr5_intertek_3rd_250526/right/zed_34850673_left_1748249051.259.jpg,34850673,left,1748249051.259,/home/najo/NAS/DIP/datasets/Fr5_intertek_dataset/Fr5_intertek_3rd_250526/joint/joint_34850673_1748249051.259.json,1748249051.259,0.0,4.576839031559406,-105.347791615099,106.170352142636,-90.82321318069307,-90.00021755105197,94.57531617419556,/home/najo/NAS/DIP/datasets/Fr5_intertek_dataset/preprocessed_roi/Fr5_intertek_3rd_250526_zed_34850673_left_1748249051.259.jpg,1038,191,1916,1029
/home/najo/NAS/DIP/datasets/Fr5_intertek_dataset/Fr5_intertek_3rd_250526/top/zed_30779426_left_1748249051.264.jpg,30779426,left,1748249051.264,/home/najo/NAS/DIP/datasets/Fr5_intertek_dataset/Fr5_intertek_3rd_250526/joint/joint_30779426_1748249051.264.json,1748249051.264,0.0,4.468281056621287,-105.346486308787,106.169917040532,-90.82343073174503,-90.00065265315594,94.46936881188118,/home/najo/NAS/DIP/datasets/Fr5_intertek_dataset/preprocessed_roi/Fr5_intertek_3rd_250526_zed_30779426_left_1748249051.264.jpg,911,293,1155,915
/home/najo/NAS/DIP/datasets/Fr5_intertek_dataset/Fr5_intertek_3rd_250526/top/zed_30779426_right_1748249051.264.jpg,30779426,right,1748249051.264,/home/najo/NAS/DIP/datasets/Fr5_intertek_dataset/Fr5_intertek_3rd_250526/joint/joint_30779426_1748249051.264.json,1748249051.264,0.0,4.468281056621287,-105.346486308787,106.169917040532,-90.82343073174503,-90.00065265315594,94.46936881188118,/home/najo/NAS/DIP/datasets/Fr5_intertek_dataset/preprocessed_roi/Fr5_intertek_3rd_250526_zed_30779426_right_1748249051.264.jpg,783,293,1031,917
/home/najo/NAS/DIP/datasets/Fr5_intertek_dataset/Fr5_intertek_3rd_250526/left/zed_38007749_left_1748249051.269.jpg,38007749,left,1748249051.269,/home/najo/NAS/DIP/datasets/Fr5_intertek_dataset/Fr5_intertek_3rd_250526/joint/joint_38007749_1748249051.269.json,1748249051.269,0.0,4.39627165841584,-105.345616104579,106.16969948948,-90.82343073174503,-89.99978244894803,94.39692431157178,/home/najo/NAS/DIP/datasets/Fr5_intertek_dataset/preprocessed_roi/Fr5_intertek_3rd_250526_zed_38007749_left_1748249051.269.jpg,288,274,948,1008
/home/najo/NAS/DIP/datasets/Fr5_intertek_dataset/Fr5_intertek_3rd_250526/left/zed_38007749_right_1748249051.269.jpg,38007749,right,1748249051.269,/home/najo/NAS/DIP/datasets/Fr5_intertek_dataset/Fr5_intertek_3rd_250526/joint/joint_38007749_1748249051.269.json,1748249051.269,0.0,4.39627165841584,-105.345616104579,106.16969948948,-90.82343073174503,-89.99978244894803,94.39692431157178,/home/najo/NAS/DIP/datasets/Fr5_intertek_dataset/preprocessed_roi/Fr5_intertek_3rd_250526_zed_38007749_right_1748249051.269.jpg,150,274,828,1008
/home/najo/NAS/DIP/datasets/Fr5_intertek_dataset/Fr5_intertek_3rd_250526/right/zed_34850673_right_1748249051.395.jpg,34850673,right,1748249051.395,/home/najo/NAS/DIP/datasets/Fr5_intertek_dataset/Fr5_intertek_3rd_250526/joint/joint_34850673_1748249051.395.json,1748249051.395,0.0,2.115248878403465,-105.3279944693688,106.1572990795173,-90.82799930383663,-90.00021755105197,92.1148137762995,/home/najo/NAS/DIP/datasets/Fr5_intertek_dataset/preprocessed_roi/Fr5_intertek_3rd_250526_zed_34850673_right_1748249051.395.jpg,862,189,1758,1029
/home/najo/NAS/DIP/datasets/Fr5_intertek_dataset/Fr5_intertek_3rd_250526/right/zed_34850673_left_1748249051.395.jpg,34850673,left,1748249051.395,/home/najo/NAS/DIP/datasets/Fr5_intertek_dataset/Fr5_intertek_3rd_250526/joint/joint_34850673_1748249051.395.json,1748249051.395,0.0,2.115248878403465,-105.3279944693688,106.1572990795173,-90.82799930383663,-90.00021755105197,92.1148137762995,/home/najo/NAS/DIP/datasets/Fr5_intertek_dataset/preprocessed_roi/Fr5_intertek_3rd_250526_zed_34850673_left_1748249051.395.jpg,1031,189,1916,1029
/home/najo/NAS/DIP/datasets/Fr5_intertek_dataset/Fr5_intertek_3rd_250526/top/zed_30779426_left_1748249051.401.jpg,30779426,left,1748249051.401,/home/najo/NAS/DIP/datasets/Fr5_intertek_dataset/Fr5_intertek_3rd_250526/joint/joint_30779426_1748249051.401.json,1748249051.401,0.0,2.04323948019802,-105.3275593672648,106.1566464263614,-90.8284344059406,-90.00021755105197,92.04149907178218,/home/najo/NAS/DIP/datasets/Fr5_intertek_dataset/preprocessed_roi/Fr5_intertek_3rd_250526_zed_30779426_left_1748249051.401.jpg,907,286,1151,909
/home/najo/NAS/DIP/datasets/Fr5_intertek_dataset/Fr5_intertek_3rd_250526/top/zed_30779426_right_1748249051.401.jpg,30779426,right,1748249051.401,/home/najo/NAS/DIP/datasets/Fr5_intertek_dataset/Fr5_intertek_3rd_250526/joint/joint_30779426_1748249051.401.json,1748249051.401,0.0,2.04323948019802,-105.3275593672648,106.1566464263614,-90.8284344059406,-90.00021755105197,92.04149907178218,/home/najo/NAS/DIP/datasets/Fr5_intertek_dataset/preprocessed_roi/Fr5_intertek_3rd_250526_zed_30779426_right_1748249051.401.jpg,780,286,1031,909
/home/najo/NAS/DIP/datasets/Fr5_intertek_dataset/Fr5_intertek_3rd_250526/left/zed_38007749_right_1748249051.406.jpg,38007749,right,1748249051.406,/home/najo/NAS/DIP/datasets/Fr5_intertek_dataset/Fr5_intertek_3rd_250526/joint/joint_38007749_1748249051.406.json,1748249051.406,0.0,1.93381130105198,-105.3266891630569,106.1562113242574,-90.82865195699256,-90.0,91.93185334158416,/home/najo/NAS/DIP/datasets/Fr5_intertek_dataset/preprocessed_roi/Fr5_intertek_3rd_250526_zed_38007749_right_1748249051.406.jpg,153,274,832,1008
/home/najo/NAS/DIP/datasets/Fr5_intertek_dataset/Fr5_intertek_3rd_250526/right/zed_34850673_right_1748249051.533.jpg,34850673,right,1748249051.533,/home/najo/NAS/DIP/datasets/Fr5_intertek_dataset/Fr5_intertek_3rd_250526/joint/joint_34850673_1748249051.533.json,1748249051.533,0.0,-0.3524327042079208,-105.3088499767945,106.1431582611386,-90.83343808013612,-89.99978244894803,89.64365137685644,/home/najo/NAS/DIP/datasets/Fr5_intertek_dataset/preprocessed_roi/Fr5_intertek_3rd_250526_zed_34850673_right_1748249051.533.jpg,855,187,1755,1029
/home/najo/NAS/DIP/datasets/Fr5_intertek_dataset/Fr5_intertek_3rd_250526/right/zed_34850673_left_1748249051.533.jpg,34850673,left,1748249051.533,/home/najo/NAS/DIP/datasets/Fr5_intertek_dataset/Fr5_intertek_3rd_250526/joint/joint_34850673_1748249051.533.json,1748249051.533,0.0,-0.3524327042079208,-105.3088499767945,106.1431582611386,-90.83343808013612,-89.99978244894803,89.64365137685644,/home/najo/NAS/DIP/datasets/Fr5_intertek_dataset/preprocessed_roi/Fr5_intertek_3rd_250526_zed_34850673_left_1748249051.533.jpg,1020,185,1916,1029
/home/najo/NAS/DIP/datasets/Fr5_intertek_dataset/Fr5_intertek_3rd_250526/left/zed_38007749_left_1748249051.406.jpg,38007749,left,1748249051.406,/home/najo/NAS/DIP/datasets/Fr5_intertek_dataset/Fr5_intertek_3rd_250526/joint/joint_38007749_1748249051.406.json,1748249051.406,0.0,1.93381130105198,-105.3266891630569,106.1562113242574,-90.82865195699256,-90.0,91.93185334158416,/home/najo/NAS/DIP/datasets/Fr5_intertek_dataset/preprocessed_roi/Fr5_intertek_3rd_250526_zed_38007749_left_1748249051.406.jpg,292,274,956,1008
/home/najo/NAS/DIP/datasets/Fr5_intertek_dataset/Fr5_intertek_3rd_250526/top/zed_30779426_left_1748249051.537.jpg,30779426,left,1748249051.537,/home/najo/NAS/DIP/datasets/Fr5_intertek_dataset/Fr5_intertek_3rd_250526/joint/joint_30779426_1748249051.537.json,1748249051.537,0.0,-0.4620784344059406,-105.3086324257425,106.1427231590346,-90.83387318224008,-90.00021755105197,89.5363987082302,/home/najo/NAS/DIP/datasets/Fr5_intertek_dataset/preprocessed_roi/Fr5_intertek_3rd_250526_zed_30779426_left_1748249051.537.jpg,903,278,1151,902
/home/najo/NAS/DIP/datasets/Fr5_intertek_dataset/Fr5_intertek_3rd_250526/top/zed_30779426_right_1748249051.537.jpg,30779426,right,1748249051.537,/home/najo/NAS/DIP/datasets/Fr5_intertek_dataset/Fr5_intertek_3rd_250526/joint/joint_30779426_1748249051.537.json,1748249051.537,0.0,-0.4620784344059406,-105.3086324257425,106.1427231590346,-90.83387318224008,-90.00021755105197,89.5363987082302,/home/najo/NAS/DIP/datasets/Fr5_intertek_dataset/preprocessed_roi/Fr5_intertek_3rd_250526_zed_30779426_right_1748249051.537.jpg,776,280,1027,900
/home/najo/NAS/DIP/datasets/Fr5_intertek_dataset/Fr5_intertek_3rd_250526/left/zed_38007749_left_1748249051.543.jpg,38007749,left,1748249051.543,/home/najo/NAS/DIP/datasets/Fr5_intertek_dataset/Fr5_intertek_3rd_250526/joint/joint_38007749_1748249051.543.json,1748249051.543,0.0,-0.5334351794554455,-105.3081973236386,106.1422880569307,-90.83409073329209,-90.00021755105197,89.46525951423267,/home/najo/NAS/DIP/datasets/Fr5_intertek_dataset/preprocessed_roi/Fr5_intertek_3rd_250526_zed_38007749_left_1748249051.543.jpg,300,274,960,1008
/home/najo/NAS/DIP/datasets/Fr5_intertek_dataset/Fr5_intertek_3rd_250526/left/zed_38007749_right_1748249051.543.jpg,38007749,right,1748249051.543,/home/najo/NAS/DIP/datasets/Fr5_intertek_dataset/Fr5_intertek_3rd_250526/joint/joint_38007749_1748249051.543.json,1748249051.543,0.0,-0.5334351794554455,-105.3081973236386,106.1422880569307,-90.83409073329209,-90.00021755105197,89.46525951423267,/home/najo/NAS/DIP/datasets/Fr5_intertek_dataset/preprocessed_roi/Fr5_intertek_3rd_250526_zed_38007749_right_1748249051.543.jpg,161,276,836,1008
/home/najo/NAS/DIP/datasets/Fr5_intertek_dataset/Fr5_intertek_3rd_250526/right/zed_34850673_right_1748249051.670.jpg,34850673,right,1748249051.67,/home/najo/NAS/DIP/datasets/Fr5_intertek_dataset/Fr5_intertek_3rd_250526/joint/joint_34850673_1748249051.670.json,1748249051.67,0.0,-2.785088567450495,-105.291010790532,106.1303227490718,-90.8390944074876,-90.00021755105197,87.21773959622524,/home/najo/NAS/DIP/datasets/Fr5_intertek_dataset/preprocessed_roi/Fr5_intertek_3rd_250526_zed_34850673_right_1748249051.670.jpg,851,183,1751,1029
/home/najo/NAS/DIP/datasets/Fr5_intertek_dataset/Fr5_intertek_3rd_250526/right/zed_34850673_left_1748249051.670.jpg,34850673,left,1748249051.67,/home/najo/NAS/DIP/datasets/Fr5_intertek_dataset/Fr5_intertek_3rd_250526/joint/joint_34850673_1748249051.670.json,1748249051.67,0.0,-2.785088567450495,-105.291010790532,106.1303227490718,-90.8390944074876,-90.00021755105197,87.21773959622524,/home/najo/NAS/DIP/datasets/Fr5_intertek_dataset/preprocessed_roi/Fr5_intertek_3rd_250526_zed_34850673_left_1748249051.670.jpg,1012,183,1916,1029
/home/najo/NAS/DIP/datasets/Fr5_intertek_dataset/Fr5_intertek_3rd_250526/top/zed_30779426_right_1748249051.675.jpg,30779426,right,1748249051.675,/home/najo/NAS/DIP/datasets/Fr5_intertek_dataset/Fr5_intertek_3rd_250526/joint/joint_30779426_1748249051.675.json,1748249051.675,0.0,-2.964350634282178,-105.2897054842203,106.1294525448638,-90.8395295095916,-90.00043510210396,87.03760732518565,/home/najo/NAS/DIP/datasets/Fr5_intertek_dataset/preprocessed_roi/Fr5_intertek_3rd_250526_zed_30779426_right_1748249051.675.jpg,768,274,1038,894
/home/najo/NAS/DIP/datasets/Fr5_intertek_dataset/Fr5_intertek_3rd_250526/top/zed_30779426_left_1748249051.675.jpg,30779426,left,1748249051.675,/home/najo/NAS/DIP/datasets/Fr5_intertek_dataset/Fr5_intertek_3rd_250526/joint/joint_30779426_1748249051.675.json,1748249051.675,0.0,-2.964350634282178,-105.2897054842203,106.1294525448638,-90.8395295095916,-90.00043510210396,87.03760732518565,/home/najo/NAS/DIP/datasets/Fr5_intertek_dataset/preprocessed_roi/Fr5_intertek_3rd_250526_zed_30779426_left_1748249051.675.jpg,896,272,1166,894
/home/najo/NAS/DIP/datasets/Fr5_intertek_dataset/Fr5_intertek_3rd_250526/left/zed_38007749_left_1748249051.680.jpg,38007749,left,1748249051.68,/home/najo/NAS/DIP/datasets/Fr5_intertek_dataset/Fr5_intertek_3rd_250526/joint/joint_38007749_1748249051.680.json,1748249051.68,0.0,-2.982189820544554,-105.2897054842203,106.1292349938118,-90.8395295095916,-90.00043510210396,87.0204207920792,/home/najo/NAS/DIP/datasets/Fr5_intertek_dataset/preprocessed_roi/Fr5_intertek_3rd_250526_zed_38007749_left_1748249051.680.jpg,303,276,967,1008
/home/najo/NAS/DIP/datasets/Fr5_intertek_dataset/Fr5_intertek_3rd_250526/left/zed_38007749_right_1748249051.680.jpg,38007749,right,1748249051.68,/home/najo/NAS/DIP/datasets/Fr5_intertek_dataset/Fr5_intertek_3rd_250526/joint/joint_38007749_1748249051.680.json,1748249051.68,0.0,-2.982189820544554,-105.2897054842203,106.1292349938118,-90.8395295095916,-90.00043510210396,87.0204207920792,/home/najo/NAS/DIP/datasets/Fr5_intertek_dataset/preprocessed_roi/Fr5_intertek_3rd_250526_zed_38007749_right_1748249051.680.jpg,168,276,840,1008
/home/najo/NAS/DIP/datasets/Fr5_intertek_dataset/Fr5_intertek_3rd_250526/right/zed_34850673_right_1748249051.805.jpg,34850673,right,1748249051.805,/home/najo/NAS/DIP/datasets/Fr5_intertek_dataset/Fr5_intertek_3rd_250526/joint/joint_34850673_1748249051.805.json,1748249051.805,0.0,-5.283444848391089,-105.2725189511138,106.1172696859529,-90.84388053063118,-90.00021755105197,84.7143796410891,/home/najo/NAS/DIP/datasets/Fr5_intertek_dataset/preprocessed_roi/Fr5_intertek_3rd_250526_zed_34850673_right_1748249051.805.jpg,847,181,1743,1029
/home/najo/NAS/DIP/datasets/Fr5_intertek_dataset/Fr5_intertek_3rd_250526/right/zed_34850673_left_1748249051.805.jpg,34850673,left,1748249051.805,/home/najo/NAS/DIP/datasets/Fr5_intertek_dataset/Fr5_intertek_3rd_250526/joint/joint_34850673_1748249051.805.json,1748249051.805,0.0,-5.283444848391089,-105.2725189511138,106.1172696859529,-90.84388053063118,-90.00021755105197,84.7143796410891,/home/najo/NAS/DIP/datasets/Fr5_intertek_dataset/preprocessed_roi/Fr5_intertek_3rd_250526_zed_34850673_left_1748249051.805.jpg,1005,181,1916,1029
/home/najo/NAS/DIP/datasets/Fr5_intertek_dataset/Fr5_intertek_3rd_250526/top/zed_30779426_left_1748249051.813.jpg,30779426,left,1748249051.813,/home/najo/NAS/DIP/datasets/Fr5_intertek_dataset/Fr5_intertek_3rd_250526/joint/joint_30779426_1748249051.813.json,1748249051.813,0.0,-5.4283338490099,-105.2714311958539,106.116181930693,-90.84409808168316,-90.00021755105197,84.56905553836634,/home/najo/NAS/DIP/datasets/Fr5_intertek_dataset/preprocessed_roi/Fr5_intertek_3rd_250526_zed_30779426_left_1748249051.813.jpg,892,267,1181,892
/home/najo/NAS/DIP/datasets/Fr5_intertek_dataset/Fr5_intertek_3rd_250526/top/zed_30779426_right_1748249051.813.jpg,30779426,right,1748249051.813,/home/najo/NAS/DIP/datasets/Fr5_intertek_dataset/Fr5_intertek_3rd_250526/joint/joint_30779426_1748249051.813.json,1748249051.813,0.0,-5.4283338490099,-105.2714311958539,106.116181930693,-90.84409808168316,-90.00021755105197,84.56905553836634,/home/najo/NAS/DIP/datasets/Fr5_intertek_dataset/preprocessed_roi/Fr5_intertek_3rd_250526_zed_30779426_right_1748249051.813.jpg,761,270,1053,892
/home/najo/NAS/DIP/datasets/Fr5_intertek_dataset/Fr5_intertek_3rd_250526/left/zed_38007749_left_1748249051.817.jpg,38007749,left,1748249051.817,/home/najo/NAS/DIP/datasets/Fr5_intertek_dataset/Fr5_intertek_3rd_250526/joint/joint_38007749_1748249051.817.json,1748249051.817,0.0,-5.500778349319307,-105.27099609375,106.115964379641,-90.84431563273516,-90.00043510210396,84.49835144647275,/home/najo/NAS/DIP/datasets/Fr5_intertek_dataset/preprocessed_roi/Fr5_intertek_3rd_250526_zed_38007749_left_1748249051.817.jpg,307,276,971,1008
/home/najo/NAS/DIP/datasets/Fr5_intertek_dataset/Fr5_intertek_3rd_250526/left/zed_38007749_right_1748249051.817.jpg,38007749,right,1748249051.817,/home/najo/NAS/DIP/datasets/Fr5_intertek_dataset/Fr5_intertek_3rd_250526/joint/joint_38007749_1748249051.817.json,1748249051.817,0.0,-5.500778349319307,-105.27099609375,106.115964379641,-90.84431563273516,-90.00043510210396,84.49835144647275,/home/najo/NAS/DIP/datasets/Fr5_intertek_dataset/preprocessed_roi/Fr5_intertek_3rd_250526_zed_38007749_right_1748249051.817.jpg,172,278,843,1008
/home/najo/NAS/DIP/datasets/Fr5_intertek_dataset/Fr5_intertek_3rd_250526/right/zed_34850673_right_1748249051.944.jpg,34850673,right,1748249051.944,/home/najo/NAS/DIP/datasets/Fr5_intertek_dataset/Fr5_intertek_3rd_250526/joint/joint_34850673_1748249051.944.json,1748249051.944,0.0,-7.770488474628712,-105.2533744585396,106.1033464186262,-90.8493193069307,-90.00021755105197,82.22755356590346,/home/najo/NAS/DIP/datasets/Fr5_intertek_dataset/preprocessed_roi/Fr5_intertek_3rd_250526_zed_34850673_right_1748249051.944.jpg,847,179,1736,1029
/home/najo/NAS/DIP/datasets/Fr5_intertek_dataset/Fr5_intertek_3rd_250526/right/zed_34850673_left_1748249051.944.jpg,34850673,left,1748249051.944,/home/najo/NAS/DIP/datasets/Fr5_intertek_dataset/Fr5_intertek_3rd_250526/joint/joint_34850673_1748249051.944.json,1748249051.944,0.0,-7.770488474628712,-105.2533744585396,106.1033464186262,-90.8493193069307,-90.00021755105197,82.22755356590346,/home/najo/NAS/DIP/datasets/Fr5_intertek_dataset/preprocessed_roi/Fr5_intertek_3rd_250526_zed_34850673_left_1748249051.944.jpg,1001,179,1916,1029
/home/najo/NAS/DIP/datasets/Fr5_intertek_dataset/Fr5_intertek_3rd_250526/top/zed_30779426_right_1748249051.950.jpg,30779426,right,1748249051.95,/home/najo/NAS/DIP/datasets/Fr5_intertek_dataset/Fr5_intertek_3rd_250526/joint/joint_30779426_1748249051.950.json,1748249051.95,0.0,-7.842715423886138,-105.2527218053836,106.1026937654703,-90.84953685798268,-90.00043510210396,82.15576171875,/home/najo/NAS/DIP/datasets/Fr5_intertek_dataset/preprocessed_roi/Fr5_intertek_3rd_250526_zed_30779426_right_1748249051.950.jpg,757,267,1068,890
/home/najo/NAS/DIP/datasets/Fr5_intertek_dataset/Fr5_intertek_3rd_250526/top/zed_30779426_left_1748249051.950.jpg,30779426,left,1748249051.95,/home/najo/NAS/DIP/datasets/Fr5_intertek_dataset/Fr5_intertek_3rd_250526/joint/joint_30779426_1748249051.950.json,1748249051.95,0.0,-7.842715423886138,-105.2527218053836,106.1026937654703,-90.84953685798268,-90.00043510210396,82.15576171875,/home/najo/NAS/DIP/datasets/Fr5_intertek_dataset/preprocessed_roi/Fr5_intertek_3rd_250526_zed_30779426_left_1748249051.950.jpg,885,265,1192,888
/home/najo/NAS/DIP/datasets/Fr5_intertek_dataset/Fr5_intertek_3rd_250526/left/zed_38007749_left_1748249051.956.jpg,38007749,left,1748249051.956,/home/najo/NAS/DIP/datasets/Fr5_intertek_dataset/Fr5_intertek_3rd_250526/joint/joint_38007749_1748249051.956.json,1748249051.956,0.0,-7.985864016089109,-105.2511989480198,106.1020411123143,-90.84975440903466,-90.00021755105197,82.01022006497524,/home/najo/NAS/DIP/datasets/Fr5_intertek_dataset/preprocessed_roi/Fr5_intertek_3rd_250526_zed_38007749_left_1748249051.956.jpg,315,278,975,1010
/home/najo/NAS/DIP/datasets/Fr5_intertek_dataset/Fr5_intertek_3rd_250526/left/zed_38007749_right_1748249051.956.jpg,38007749,right,1748249051.956,/home/najo/NAS/DIP/datasets/Fr5_intertek_dataset/Fr5_intertek_3rd_250526/joint/joint_38007749_1748249051.956.json,1748249051.956,0.0,-7.985864016089109,-105.2511989480198,106.1020411123143,-90.84975440903466,-90.00021755105197,82.01022006497524,/home/najo/NAS/DIP/datasets/Fr5_intertek_dataset/preprocessed_roi/Fr5_intertek_3rd_250526_zed_38007749_right_1748249051.956.jpg,180,278,847,1008
/home/najo/NAS/DIP/datasets/Fr5_intertek_dataset/Fr5_intertek_3rd_250526/right/zed_34850673_right_1748249052.082.jpg,34850673,right,1748249052.082,/home/najo/NAS/DIP/datasets/Fr5_intertek_dataset/Fr5_intertek_3rd_250526/joint/joint_34850673_1748249052.082.json,1748249052.082,0.0,-10.2523108756188,-105.2340124149133,106.0894231512995,-90.85410543007426,-90.00043510210396,79.74768912438118,/home/najo/NAS/DIP/datasets/Fr5_intertek_dataset/preprocessed_roi/Fr5_intertek_3rd_250526_zed_34850673_right_1748249052.082.jpg,847,179,1728,1029
/home/najo/NAS/DIP/datasets/Fr5_intertek_dataset/Fr5_intertek_3rd_250526/top/zed_30779426_left_1748249052.086.jpg,30779426,left,1748249052.086,/home/najo/NAS/DIP/datasets/Fr5_intertek_dataset/Fr5_intertek_3rd_250526/joint/joint_30779426_1748249052.086.json,1748249052.086,0.0,-10.32214476330445,-105.2333597617574,106.0892056002475,-90.85432298112624,-90.0,79.67742013459159,/home/najo/NAS/DIP/datasets/Fr5_intertek_dataset/preprocessed_roi/Fr5_intertek_3rd_250526_zed_30779426_left_1748249052.086.jpg,881,261,1203,885
/home/najo/NAS/DIP/datasets/Fr5_intertek_dataset/Fr5_intertek_3rd_250526/top/zed_30779426_right_1748249052.086.jpg,30779426,right,1748249052.086,/home/najo/NAS/DIP/datasets/Fr5_intertek_dataset/Fr5_intertek_3rd_250526/joint/joint_30779426_1748249052.086.json,1748249052.086,0.0,-10.32214476330445,-105.2333597617574,106.0892056002475,-90.85432298112624,-90.0,79.67742013459159,/home/najo/NAS/DIP/datasets/Fr5_intertek_dataset/preprocessed_roi/Fr5_intertek_3rd_250526_zed_30779426_right_1748249052.086.jpg,753,263,1080,885
/home/najo/NAS/DIP/datasets/Fr5_intertek_dataset/Fr5_intertek_3rd_250526/right/zed_34850673_left_1748249052.082.jpg,34850673,left,1748249052.082,/home/najo/NAS/DIP/datasets/Fr5_intertek_dataset/Fr5_intertek_3rd_250526/joint/joint_34850673_1748249052.082.json,1748249052.082,0.0,-10.2523108756188,-105.2340124149133,106.0894231512995,-90.85410543007426,-90.00043510210396,79.74768912438118,/home/najo/NAS/DIP/datasets/Fr5_intertek_dataset/preprocessed_roi/Fr5_intertek_3rd_250526_zed_34850673_left_1748249052.082.jpg,997,177,1916,1029
/home/najo/NAS/DIP/datasets/Fr5_intertek_dataset/Fr5_intertek_3rd_250526/left/zed_38007749_left_1748249052.094.jpg,38007749,left,1748249052.094,/home/najo/NAS/DIP/datasets/Fr5_intertek_dataset/Fr5_intertek_3rd_250526/joint/joint_38007749_1748249052.094.json,1748249052.094,0.0,-10.48509050123762,-105.2324895575495,106.0881178449876,-90.8545405321782,-90.0,79.51621480507426,/home/najo/NAS/DIP/datasets/Fr5_intertek_dataset/preprocessed_roi/Fr5_intertek_3rd_250526_zed_38007749_left_1748249052.094.jpg,318,278,978,1010
/home/najo/NAS/DIP/datasets/Fr5_intertek_dataset/Fr5_intertek_3rd_250526/left/zed_38007749_right_1748249052.094.jpg,38007749,right,1748249052.094,/home/najo/NAS/DIP/datasets/Fr5_intertek_dataset/Fr5_intertek_3rd_250526/joint/joint_38007749_1748249052.094.json,1748249052.094,0.0,-10.48509050123762,-105.2324895575495,106.0881178449876,-90.8545405321782,-90.0,79.51621480507426,/home/najo/NAS/DIP/datasets/Fr5_intertek_dataset/preprocessed_roi/Fr5_intertek_3rd_250526_zed_38007749_right_1748249052.094.jpg,183,280,847,1008
/home/najo/NAS/DIP/datasets/Fr5_intertek_dataset/Fr5_intertek_3rd_250526/right/zed_34850673_left_1748249052.220.jpg,34850673,left,1748249052.22,/home/najo/NAS/DIP/datasets/Fr5_intertek_dataset/Fr5_intertek_3rd_250526/joint/joint_34850673_1748249052.220.json,1748249052.22,0.0,-12.74457572710396,-105.215738126547,106.0757174350247,-90.85976175742574,-90.0,77.25607692605197,/home/najo/NAS/DIP/datasets/Fr5_intertek_dataset/preprocessed_roi/Fr5_intertek_3rd_250526_zed_34850673_left_1748249052.220.jpg,993,177,1916,1029
/home/najo/NAS/DIP/datasets/Fr5_intertek_dataset/Fr5_intertek_3rd_250526/right/zed_34850673_right_1748249052.220.jpg,34850673,right,1748249052.22,/home/najo/NAS/DIP/datasets/Fr5_intertek_dataset/Fr5_intertek_3rd_250526/joint/joint_34850673_1748249052.220.json,1748249052.22,0.0,-12.74457572710396,-105.215738126547,106.0757174350247,-90.85976175742574,-90.0,77.25607692605197,/home/najo/NAS/DIP/datasets/Fr5_intertek_dataset/preprocessed_roi/Fr5_intertek_3rd_250526_zed_34850673_right_1748249052.220.jpg,847,177,1717,1029
/home/najo/NAS/DIP/datasets/Fr5_intertek_dataset/Fr5_intertek_3rd_250526/top/zed_30779426_right_1748249052.224.jpg,30779426,right,1748249052.224,/home/najo/NAS/DIP/datasets/Fr5_intertek_dataset/Fr5_intertek_3rd_250526/joint/joint_30779426_1748249052.224.json,1748249052.224,0.0,-12.79809328589109,-105.215303024443,106.0754998839727,-90.8599793084777,-90.00021755105197,77.20321202042079,/home/najo/NAS/DIP/datasets/Fr5_intertek_dataset/preprocessed_roi/Fr5_intertek_3rd_250526_zed_30779426_right_1748249052.224.jpg,746,261,1095,883
/home/najo/NAS/DIP/datasets/Fr5_intertek_dataset/Fr5_intertek_3rd_250526/top/zed_30779426_left_1748249052.224.jpg,30779426,left,1748249052.224,/home/najo/NAS/DIP/datasets/Fr5_intertek_dataset/Fr5_intertek_3rd_250526/joint/joint_30779426_1748249052.224.json,1748249052.224,0.0,-12.79809328589109,-105.215303024443,106.0754998839727,-90.8599793084777,-90.00021755105197,77.20321202042079,/home/najo/NAS/DIP/datasets/Fr5_intertek_dataset/preprocessed_roi/Fr5_intertek_3rd_250526_zed_30779426_left_1748249052.224.jpg,877,259,1218,883
/home/najo/NAS/DIP/datasets/Fr5_intertek_dataset/Fr5_intertek_3rd_250526/left/zed_38007749_left_1748249052.233.jpg,38007749,left,1748249052.233,/home/najo/NAS/DIP/datasets/Fr5_intertek_dataset/Fr5_intertek_3rd_250526/joint/joint_38007749_1748249052.233.json,1748249052.233,0.0,-12.95625290068069,-105.214215269183,106.0746296797648,-90.86041441058168,-90.0,77.04004873143565,/home/najo/NAS/DIP/datasets/Fr5_intertek_dataset/preprocessed_roi/Fr5_intertek_3rd_250526_zed_38007749_left_1748249052.233.jpg,326,278,982,1010
/home/najo/NAS/DIP/datasets/Fr5_intertek_dataset/Fr5_intertek_3rd_250526/left/zed_38007749_right_1748249052.233.jpg,38007749,right,1748249052.233,/home/najo/NAS/DIP/datasets/Fr5_intertek_dataset/Fr5_intertek_3rd_250526/joint/joint_38007749_1748249052.233.json,1748249052.233,0.0,-12.95625290068069,-105.214215269183,106.0746296797648,-90.86041441058168,-90.0,77.04004873143565,/home/najo/NAS/DIP/datasets/Fr5_intertek_dataset/preprocessed_roi/Fr5_intertek_3rd_250526_zed_38007749_right_1748249052.233.jpg,191,278,847,1008
/home/najo/NAS/DIP/datasets/Fr5_intertek_dataset/Fr5_intertek_3rd_250526/right/zed_34850673_right_1748249052.359.jpg,34850673,right,1748249052.359,/home/najo/NAS/DIP/datasets/Fr5_intertek_dataset/Fr5_intertek_3rd_250526/joint/joint_34850673_1748249052.359.json,1748249052.359,0.0,-15.18723893873762,-105.1968111850247,106.0630994740099,-90.86498298267328,-90.00021755105197,74.80993289758663,/home/najo/NAS/DIP/datasets/Fr5_intertek_dataset/preprocessed_roi/Fr5_intertek_3rd_250526_zed_34850673_right_1748249052.359.jpg,847,175,1706,1029
/home/najo/NAS/DIP/datasets/Fr5_intertek_dataset/Fr5_intertek_3rd_250526/right/zed_34850673_left_1748249052.359.jpg,34850673,left,1748249052.359,/home/najo/NAS/DIP/datasets/Fr5_intertek_dataset/Fr5_intertek_3rd_250526/joint/joint_34850673_1748249052.359.json,1748249052.359,0.0,-15.18723893873762,-105.1968111850247,106.0630994740099,-90.86498298267328,-90.00021755105197,74.80993289758663,/home/najo/NAS/DIP/datasets/Fr5_intertek_dataset/preprocessed_roi/Fr5_intertek_3rd_250526_zed_34850673_left_1748249052.359.jpg,993,175,1905,1029
/home/najo/NAS/DIP/datasets/Fr5_intertek_dataset/Fr5_intertek_3rd_250526/top/zed_30779426_left_1748249052.363.jpg,30779426,left,1748249052.363,/home/najo/NAS/DIP/datasets/Fr5_intertek_dataset/Fr5_intertek_3rd_250526/joint/joint_30779426_1748249052.363.json,1748249052.363,0.0,-15.27817527846534,-105.1957234297648,106.0626643719059,-90.86498298267328,-90.00065265315594,74.72030186417079,/home/najo/NAS/DIP/datasets/Fr5_intertek_dataset/preprocessed_roi/Fr5_intertek_3rd_250526_zed_30779426_left_1748249052.363.jpg,873,259,1230,879
/home/najo/NAS/DIP/datasets/Fr5_intertek_dataset/Fr5_intertek_3rd_250526/top/zed_30779426_right_1748249052.363.jpg,30779426,right,1748249052.363,/home/najo/NAS/DIP/datasets/Fr5_intertek_dataset/Fr5_intertek_3rd_250526/joint/joint_30779426_1748249052.363.json,1748249052.363,0.0,-15.27817527846534,-105.1957234297648,106.0626643719059,-90.86498298267328,-90.00065265315594,74.72030186417079,/home/najo/NAS/DIP/datasets/Fr5_intertek_dataset/preprocessed_roi/Fr5_intertek_3rd_250526_zed_30779426_right_1748249052.363.jpg,746,259,1106,881
/home/najo/NAS/DIP/datasets/Fr5_intertek_dataset/Fr5_intertek_3rd_250526/left/zed_38007749_left_1748249052.370.jpg,38007749,left,1748249052.37,/home/najo/NAS/DIP/datasets/Fr5_intertek_dataset/Fr5_intertek_3rd_250526/joint/joint_38007749_1748249052.370.json,1748249052.37,0.0,-15.3323454904084,-105.1950707766089,106.0622292698019,-90.86541808477725,-90.00043510210396,74.6674369585396,/home/najo/NAS/DIP/datasets/Fr5_intertek_dataset/preprocessed_roi/Fr5_intertek_3rd_250526_zed_38007749_left_1748249052.370.jpg,330,276,982,1010
/home/najo/NAS/DIP/datasets/Fr5_intertek_dataset/Fr5_intertek_3rd_250526/left/zed_38007749_right_1748249052.370.jpg,38007749,right,1748249052.37,/home/najo/NAS/DIP/datasets/Fr5_intertek_dataset/Fr5_intertek_3rd_250526/joint/joint_38007749_1748249052.370.json,1748249052.37,0.0,-15.3323454904084,-105.1950707766089,106.0622292698019,-90.86541808477725,-90.00043510210396,74.6674369585396,/home/najo/NAS/DIP/datasets/Fr5_intertek_dataset/preprocessed_roi/Fr5_intertek_3rd_250526_zed_38007749_right_1748249052.370.jpg,198,274,888,1008
/home/najo/NAS/DIP/datasets/Fr5_intertek_dataset/Fr5_intertek_3rd_250526/right/zed_34850673_right_1748249052.495.jpg,34850673,right,1748249052.495,/home/najo/NAS/DIP/datasets/Fr5_intertek_dataset/Fr5_intertek_3rd_250526/joint/joint_34850673_1748249052.495.json,1748249052.495,0.0,-17.6681911355198,-105.1778842435024,106.049611308787,-90.8702042079208,-90.0,72.3350721302599,/home/najo/NAS/DIP/datasets/Fr5_intertek_dataset/preprocessed_roi/Fr5_intertek_3rd_250526_zed_34850673_right_1748249052.495.jpg,847,175,1698,1029
/home/najo/NAS/DIP/datasets/Fr5_intertek_dataset/Fr5_intertek_3rd_250526/right/zed_34850673_left_1748249052.495.jpg,34850673,left,1748249052.495,/home/najo/NAS/DIP/datasets/Fr5_intertek_dataset/Fr5_intertek_3rd_250526/joint/joint_34850673_1748249052.495.json,1748249052.495,0.0,-17.6681911355198,-105.1778842435024,106.049611308787,-90.8702042079208,-90.0,72.3350721302599,/home/najo/NAS/DIP/datasets/Fr5_intertek_dataset/preprocessed_roi/Fr5_intertek_3rd_250526_zed_34850673_left_1748249052.495.jpg,993,175,1893,1029
/home/najo/NAS/DIP/datasets/Fr5_intertek_dataset/Fr5_intertek_3rd_250526/top/zed_30779426_right_1748249052.499.jpg,30779426,right,1748249052.499,/home/najo/NAS/DIP/datasets/Fr5_intertek_dataset/Fr5_intertek_3rd_250526/joint/joint_30779426_1748249052.499.json,1748249052.499,0.0,-17.70495726330445,-105.1776666924505,106.049176206683,-90.87042175897275,-90.00021755105197,72.2978709003713,/home/najo/NAS/DIP/datasets/Fr5_intertek_dataset/preprocessed_roi/Fr5_intertek_3rd_250526_zed_30779426_right_1748249052.499.jpg,742,259,1117,879
/home/najo/NAS/DIP/datasets/Fr5_intertek_dataset/Fr5_intertek_3rd_250526/top/zed_30779426_left_1748249052.499.jpg,30779426,left,1748249052.499,/home/najo/NAS/DIP/datasets/Fr5_intertek_dataset/Fr5_intertek_3rd_250526/joint/joint_30779426_1748249052.499.json,1748249052.499,0.0,-17.70495726330445,-105.1776666924505,106.049176206683,-90.87042175897275,-90.00021755105197,72.2978709003713,/home/najo/NAS/DIP/datasets/Fr5_intertek_dataset/preprocessed_roi/Fr5_intertek_3rd_250526_zed_30779426_left_1748249052.499.jpg,866,259,1245,877
/home/najo/NAS/DIP/datasets/Fr5_intertek_dataset/Fr5_intertek_3rd_250526/left/zed_38007749_left_1748249052.504.jpg,38007749,left,1748249052.504,/home/najo/NAS/DIP/datasets/Fr5_intertek_dataset/Fr5_intertek_3rd_250526/joint/joint_30779426_1748249052.499.json,1748249052.499,0.0049998760223388,-17.70495726330445,-105.1776666924505,106.049176206683,-90.87042175897275,-90.00021755105197,72.2978709003713,/home/najo/NAS/DIP/datasets/Fr5_intertek_dataset/preprocessed_roi/Fr5_intertek_3rd_250526_zed_38007749_left_1748249052.504.jpg,333,272,982,1010
/home/najo/NAS/DIP/datasets/Fr5_intertek_dataset/Fr5_intertek_3rd_250526/left/zed_38007749_right_1748249052.504.jpg,38007749,right,1748249052.504,/home/najo/NAS/DIP/datasets/Fr5_intertek_dataset/Fr5_intertek_3rd_250526/joint/joint_30779426_1748249052.499.json,1748249052.499,0.0049998760223388,-17.70495726330445,-105.1776666924505,106.049176206683,-90.87042175897275,-90.00021755105197,72.2978709003713,/home/najo/NAS/DIP/datasets/Fr5_intertek_dataset/preprocessed_roi/Fr5_intertek_3rd_250526_zed_38007749_right_1748249052.504.jpg,202,272,892,1008
/home/najo/NAS/DIP/datasets/Fr5_intertek_dataset/Fr5_intertek_3rd_250526/right/zed_34850673_left_1748249052.633.jpg,34850673,left,1748249052.633,/home/najo/NAS/DIP/datasets/Fr5_intertek_dataset/Fr5_intertek_3rd_250526/joint/joint_38007749_1748249052.637.json,1748249052.637,0.004000186920166,-20.1717686417079,-105.159392404084,106.0352529393564,-90.87586053527228,-90.00065265315594,69.8256207456683,/home/najo/NAS/DIP/datasets/Fr5_intertek_dataset/preprocessed_roi/Fr5_intertek_3rd_250526_zed_34850673_left_1748249052.633.jpg,993,172,1882,1029
/home/najo/NAS/DIP/datasets/Fr5_intertek_dataset/Fr5_intertek_3rd_250526/right/zed_34850673_right_1748249052.633.jpg,34850673,right,1748249052.633,/home/najo/NAS/DIP/datasets/Fr5_intertek_dataset/Fr5_intertek_3rd_250526/joint/joint_38007749_1748249052.637.json,1748249052.637,0.004000186920166,-20.1717686417079,-105.159392404084,106.0352529393564,-90.87586053527228,-90.00065265315594,69.8256207456683,/home/najo/NAS/DIP/datasets/Fr5_intertek_dataset/preprocessed_roi/Fr5_intertek_3rd_250526_zed_34850673_right_1748249052.633.jpg,851,172,1687,1029
/home/najo/NAS/DIP/datasets/Fr5_intertek_dataset/Fr5_intertek_3rd_250526/left/zed_38007749_right_1748249052.637.jpg,38007749,right,1748249052.637,/home/najo/NAS/DIP/datasets/Fr5_intertek_dataset/Fr5_intertek_3rd_250526/joint/joint_38007749_1748249052.637.json,1748249052.637,0.0,-20.1717686417079,-105.159392404084,106.0352529393564,-90.87586053527228,-90.00065265315594,69.8256207456683,/home/najo/NAS/DIP/datasets/Fr5_intertek_dataset/preprocessed_roi/Fr5_intertek_3rd_250526_zed_38007749_right_1748249052.637.jpg,210,270,888,1008
/home/najo/NAS/DIP/datasets/Fr5_intertek_dataset/Fr5_intertek_3rd_250526/left/zed_38007749_left_1748249052.637.jpg,38007749,left,1748249052.637,/home/najo/NAS/DIP/datasets/Fr5_intertek_dataset/Fr5_intertek_3rd_250526/joint/joint_38007749_1748249052.637.json,1748249052.637,0.0,-20.1717686417079,-105.159392404084,106.0352529393564,-90.87586053527228,-90.00065265315594,69.8256207456683,/home/najo/NAS/DIP/datasets/Fr5_intertek_dataset/preprocessed_roi/Fr5_intertek_3rd_250526_zed_38007749_left_1748249052.637.jpg,341,270,982,1010
/home/najo/NAS/DIP/datasets/Fr5_intertek_dataset/Fr5_intertek_3rd_250526/top/zed_30779426_right_1748249052.642.jpg,30779426,right,1748249052.642,/home/najo/NAS/DIP/datasets/Fr5_intertek_dataset/Fr5_intertek_3rd_250526/joint/joint_30779426_1748249052.642.json,1748249052.642,0.0,-20.35277111695544,-105.1580870977723,106.0341651840965,-90.87607808632426,-90.00021755105197,69.64527092357673,/home/najo/NAS/DIP/datasets/Fr5_intertek_dataset/preprocessed_roi/Fr5_intertek_3rd_250526_zed_30779426_right_1748249052.642.jpg,738,259,1132,875
/home/najo/NAS/DIP/datasets/Fr5_intertek_dataset/Fr5_intertek_3rd_250526/top/zed_30779426_left_1748249052.642.jpg,30779426,left,1748249052.642,/home/najo/NAS/DIP/datasets/Fr5_intertek_dataset/Fr5_intertek_3rd_250526/joint/joint_30779426_1748249052.642.json,1748249052.642,0.0,-20.35277111695544,-105.1580870977723,106.0341651840965,-90.87607808632426,-90.00021755105197,69.64527092357673,/home/najo/NAS/DIP/datasets/Fr5_intertek_dataset/preprocessed_roi/Fr5_intertek_3rd_250526_zed_30779426_left_1748249052.642.jpg,862,259,1256,875
/home/najo/NAS/DIP/datasets/Fr5_intertek_dataset/Fr5_intertek_3rd_250526/right/zed_34850673_left_1748249052.769.jpg,34850673,left,1748249052.769,/home/najo/NAS/DIP/datasets/Fr5_intertek_dataset/Fr5_intertek_3rd_250526/joint/joint_34850673_1748249052.769.json,1748249052.769,0.0,-22.58506246132425,-105.1406830136138,106.0219823251856,-90.88129931157178,-90.00043510210396,67.41363223236387,/home/najo/NAS/DIP/datasets/Fr5_intertek_dataset/preprocessed_roi/Fr5_intertek_3rd_250526_zed_34850673_left_1748249052.769.jpg,993,172,1871,1029
/home/najo/NAS/DIP/datasets/Fr5_intertek_dataset/Fr5_intertek_3rd_250526/right/zed_34850673_right_1748249052.769.jpg,34850673,right,1748249052.769,/home/najo/NAS/DIP/datasets/Fr5_intertek_dataset/Fr5_intertek_3rd_250526/joint/joint_34850673_1748249052.769.json,1748249052.769,0.0,-22.58506246132425,-105.1406830136138,106.0219823251856,-90.88129931157178,-90.00043510210396,67.41363223236387,/home/najo/NAS/DIP/datasets/Fr5_intertek_dataset/preprocessed_roi/Fr5_intertek_3rd_250526_zed_34850673_right_1748249052.769.jpg,855,172,1672,1029
/home/najo/NAS/DIP/datasets/Fr5_intertek_dataset/Fr5_intertek_3rd_250526/left/zed_38007749_left_1748249052.774.jpg,38007749,left,1748249052.774,/home/najo/NAS/DIP/datasets/Fr5_intertek_dataset/Fr5_intertek_3rd_250526/joint/joint_34850673_1748249052.769.json,1748249052.769,0.0049998760223388,-22.58506246132425,-105.1406830136138,106.0219823251856,-90.88129931157178,-90.00043510210396,67.41363223236387,/home/najo/NAS/DIP/datasets/Fr5_intertek_dataset/preprocessed_roi/Fr5_intertek_3rd_250526_zed_38007749_left_1748249052.774.jpg,345,265,982,1010
/home/najo/NAS/DIP/datasets/Fr5_intertek_dataset/Fr5_intertek_3rd_250526/left/zed_38007749_right_1748249052.774.jpg,38007749,right,1748249052.774,/home/najo/NAS/DIP/datasets/Fr5_intertek_dataset/Fr5_intertek_3rd_250526/joint/joint_34850673_1748249052.769.json,1748249052.769,0.0049998760223388,-22.58506246132425,-105.1406830136138,106.0219823251856,-90.88129931157178,-90.00043510210396,67.41363223236387,/home/najo/NAS/DIP/datasets/Fr5_intertek_dataset/preprocessed_roi/Fr5_intertek_3rd_250526_zed_38007749_right_1748249052.774.jpg,213,265,836,1008
/home/najo/NAS/DIP/datasets/Fr5_intertek_dataset/Fr5_intertek_3rd_250526/top/zed_30779426_left_1748249052.780.jpg,30779426,left,1748249052.78,/home/najo/NAS/DIP/datasets/Fr5_intertek_dataset/Fr5_intertek_3rd_250526/joint/joint_30779426_1748249052.780.json,1748249052.78,0.0,-22.8152314743193,-105.138942605198,106.0204594678218,-90.88173441367574,-90.00021755105197,67.18498607673267,/home/najo/NAS/DIP/datasets/Fr5_intertek_dataset/preprocessed_roi/Fr5_intertek_3rd_250526_zed_30779426_left_1748249052.780.jpg,858,263,1271,871
/home/najo/NAS/DIP/datasets/Fr5_intertek_dataset/Fr5_intertek_3rd_250526/top/zed_30779426_right_1748249052.780.jpg,30779426,right,1748249052.78,/home/najo/NAS/DIP/datasets/Fr5_intertek_dataset/Fr5_intertek_3rd_250526/joint/joint_30779426_1748249052.780.json,1748249052.78,0.0,-22.8152314743193,-105.138942605198,106.0204594678218,-90.88173441367574,-90.00021755105197,67.18498607673267,/home/najo/NAS/DIP/datasets/Fr5_intertek_dataset/preprocessed_roi/Fr5_intertek_3rd_250526_zed_30779426_right_1748249052.780.jpg,731,259,1147,873
/home/najo/NAS/DIP/datasets/Fr5_intertek_dataset/Fr5_intertek_3rd_250526/left/zed_38007749_right_1748249052.904.jpg,38007749,right,1748249052.904,/home/najo/NAS/DIP/datasets/Fr5_intertek_dataset/Fr5_intertek_3rd_250526/joint/joint_38007749_1748249052.904.json,1748249052.904,0.0,-24.99618077042079,-105.1228438273515,106.0093643641708,-90.88630298576732,-90.00065265315594,65.00425433168317,/home/najo/NAS/DIP/datasets/Fr5_intertek_dataset/preprocessed_roi/Fr5_intertek_3rd_250526_zed_38007749_right_1748249052.904.jpg,221,263,836,1008
/home/najo/NAS/DIP/datasets/Fr5_intertek_dataset/Fr5_intertek_3rd_250526/left/zed_38007749_left_1748249052.904.jpg,38007749,left,1748249052.904,/home/najo/NAS/DIP/datasets/Fr5_intertek_dataset/Fr5_intertek_3rd_250526/joint/joint_38007749_1748249052.904.json,1748249052.904,0.0,-24.99618077042079,-105.1228438273515,106.0093643641708,-90.88630298576732,-90.00065265315594,65.00425433168317,/home/najo/NAS/DIP/datasets/Fr5_intertek_dataset/preprocessed_roi/Fr5_intertek_3rd_250526_zed_38007749_left_1748249052.904.jpg,352,263,982,1010
/home/najo/NAS/DIP/datasets/Fr5_intertek_dataset/Fr5_intertek_3rd_250526/right/zed_34850673_right_1748249052.910.jpg,34850673,right,1748249052.91,/home/najo/NAS/DIP/datasets/Fr5_intertek_dataset/Fr5_intertek_3rd_250526/joint/joint_34850673_1748249052.910.json,1748249052.91,0.0,-25.14019956683168,-105.1213209699876,106.0082766089109,-90.88630298576732,-90.00065265315594,64.86045308632426,/home/najo/NAS/DIP/datasets/Fr5_intertek_dataset/preprocessed_roi/Fr5_intertek_3rd_250526_zed_34850673_right_1748249052.910.jpg,862,172,1657,1029
/home/najo/NAS/DIP/datasets/Fr5_intertek_dataset/Fr5_intertek_3rd_250526/right/zed_34850673_left_1748249052.910.jpg,34850673,left,1748249052.91,/home/najo/NAS/DIP/datasets/Fr5_intertek_dataset/Fr5_intertek_3rd_250526/joint/joint_34850673_1748249052.910.json,1748249052.91,0.0,-25.14019956683168,-105.1213209699876,106.0082766089109,-90.88630298576732,-90.00065265315594,64.86045308632426,/home/najo/NAS/DIP/datasets/Fr5_intertek_dataset/preprocessed_roi/Fr5_intertek_3rd_250526_zed_34850673_left_1748249052.910.jpg,997,170,1856,1029
/home/najo/NAS/DIP/datasets/Fr5_intertek_dataset/Fr5_intertek_3rd_250526/top/zed_30779426_right_1748249052.917.jpg,30779426,right,1748249052.917,/home/najo/NAS/DIP/datasets/Fr5_intertek_dataset/Fr5_intertek_3rd_250526/joint/joint_30779426_1748249052.917.json,1748249052.917,0.0,-25.22874284498762,-105.1206683168317,106.0078415068069,-90.8865205368193,-90.0,64.76734123607673,/home/najo/NAS/DIP/datasets/Fr5_intertek_dataset/preprocessed_roi/Fr5_intertek_3rd_250526_zed_30779426_right_1748249052.917.jpg,731,259,1158,869
/home/najo/NAS/DIP/datasets/Fr5_intertek_dataset/Fr5_intertek_3rd_250526/top/zed_30779426_left_1748249052.917.jpg,30779426,left,1748249052.917,/home/najo/NAS/DIP/datasets/Fr5_intertek_dataset/Fr5_intertek_3rd_250526/joint/joint_30779426_1748249052.917.json,1748249052.917,0.0,-25.22874284498762,-105.1206683168317,106.0078415068069,-90.8865205368193,-90.0,64.76734123607673,/home/najo/NAS/DIP/datasets/Fr5_intertek_dataset/preprocessed_roi/Fr5_intertek_3rd_250526_zed_30779426_left_1748249052.917.jpg,855,265,1286,869
/home/najo/NAS/DIP/datasets/Fr5_intertek_dataset/Fr5_intertek_3rd_250526/left/zed_38007749_left_1748249053.040.jpg,38007749,left,1748249053.04,/home/najo/NAS/DIP/datasets/Fr5_intertek_dataset/Fr5_intertek_3rd_250526/joint/joint_38007749_1748249053.040.json,1748249053.04,0.0,-27.42709622524752,-105.104569538985,105.99609375,-90.89152421101484,-90.00021755105197,62.57377397896039,/home/najo/NAS/DIP/datasets/Fr5_intertek_dataset/preprocessed_roi/Fr5_intertek_3rd_250526_zed_38007749_left_1748249053.040.jpg,356,261,1042,1010
/home/najo/NAS/DIP/datasets/Fr5_intertek_dataset/Fr5_intertek_3rd_250526/right/zed_34850673_right_1748249053.048.jpg,34850673,right,1748249053.048,/home/najo/NAS/DIP/datasets/Fr5_intertek_dataset/Fr5_intertek_3rd_250526/joint/joint_34850673_1748249053.048.json,1748249053.048,0.0,-27.6448648282797,-105.1032642326732,105.99500599474,-90.8919593131188,-90.00043510210396,62.35796333539603,/home/najo/NAS/DIP/datasets/Fr5_intertek_dataset/preprocessed_roi/Fr5_intertek_3rd_250526_zed_34850673_right_1748249053.048.jpg,866,172,1642,1029
/home/najo/NAS/DIP/datasets/Fr5_intertek_dataset/Fr5_intertek_3rd_250526/left/zed_38007749_right_1748249053.040.jpg,38007749,right,1748249053.04,/home/najo/NAS/DIP/datasets/Fr5_intertek_dataset/Fr5_intertek_3rd_250526/joint/joint_38007749_1748249053.040.json,1748249053.04,0.0,-27.42709622524752,-105.104569538985,105.99609375,-90.89152421101484,-90.00021755105197,62.57377397896039,/home/najo/NAS/DIP/datasets/Fr5_intertek_dataset/preprocessed_roi/Fr5_intertek_3rd_250526_zed_38007749_right_1748249053.040.jpg,225,261,828,1008
/home/najo/NAS/DIP/datasets/Fr5_intertek_dataset/Fr5_intertek_3rd_250526/right/zed_34850673_left_1748249053.048.jpg,34850673,left,1748249053.048,/home/najo/NAS/DIP/datasets/Fr5_intertek_dataset/Fr5_intertek_3rd_250526/joint/joint_34850673_1748249053.048.json,1748249053.048,0.0,-27.6448648282797,-105.1032642326732,105.99500599474,-90.8919593131188,-90.00043510210396,62.35796333539603,/home/najo/NAS/DIP/datasets/Fr5_intertek_dataset/preprocessed_roi/Fr5_intertek_3rd_250526_zed_34850673_left_1748249053.048.jpg,997,170,1841,1029
/home/najo/NAS/DIP/datasets/Fr5_intertek_dataset/Fr5_intertek_3rd_250526/top/zed_30779426_left_1748249053.053.jpg,30779426,left,1748249053.053,/home/najo/NAS/DIP/datasets/Fr5_intertek_dataset/Fr5_intertek_3rd_250526/joint/joint_30779426_1748249053.053.json,1748249053.053,0.0,-27.6809783029084,-105.1030466816213,105.99500599474,-90.8919593131188,-90.00021755105197,62.32032700340346,/home/najo/NAS/DIP/datasets/Fr5_intertek_dataset/preprocessed_roi/Fr5_intertek_3rd_250526_zed_30779426_left_1748249053.053.jpg,851,270,1297,864
/home/najo/NAS/DIP/datasets/Fr5_intertek_dataset/Fr5_intertek_3rd_250526/top/zed_30779426_right_1748249053.053.jpg,30779426,right,1748249053.053,/home/najo/NAS/DIP/datasets/Fr5_intertek_dataset/Fr5_intertek_3rd_250526/joint/joint_30779426_1748249053.053.json,1748249053.053,0.0,-27.6809783029084,-105.1030466816213,105.99500599474,-90.8919593131188,-90.00021755105197,62.32032700340346,/home/najo/NAS/DIP/datasets/Fr5_intertek_dataset/preprocessed_roi/Fr5_intertek_3rd_250526_zed_30779426_right_1748249053.053.jpg,727,265,1170,864
/home/najo/NAS/DIP/datasets/Fr5_intertek_dataset/Fr5_intertek_3rd_250526/left/zed_38007749_left_1748249053.175.jpg,38007749,left,1748249053.175,/home/najo/NAS/DIP/datasets/Fr5_intertek_dataset/Fr5_intertek_3rd_250526/joint/joint_38007749_1748249053.175.json,1748249053.175,0.0,-29.83625657487624,-105.0856425974628,105.982823135829,-90.8963103341584,-90.0,60.16287322091584,/home/najo/NAS/DIP/datasets/Fr5_intertek_dataset/preprocessed_roi/Fr5_intertek_3rd_250526_zed_38007749_left_1748249053.175.jpg,360,257,975,1008
/home/najo/NAS/DIP/datasets/Fr5_intertek_dataset/Fr5_intertek_3rd_250526/left/zed_38007749_right_1748249053.175.jpg,38007749,right,1748249053.175,/home/najo/NAS/DIP/datasets/Fr5_intertek_dataset/Fr5_intertek_3rd_250526/joint/joint_38007749_1748249053.175.json,1748249053.175,0.0,-29.83625657487624,-105.0856425974628,105.982823135829,-90.8963103341584,-90.0,60.16287322091584,/home/najo/NAS/DIP/datasets/Fr5_intertek_dataset/preprocessed_roi/Fr5_intertek_3rd_250526_zed_38007749_right_1748249053.175.jpg,228,257,821,1008
/home/najo/NAS/DIP/datasets/Fr5_intertek_dataset/Fr5_intertek_3rd_250526/right/zed_34850673_left_1748249053.186.jpg,34850673,left,1748249053.186,/home/najo/NAS/DIP/datasets/Fr5_intertek_dataset/Fr5_intertek_3rd_250526/joint/joint_34850673_1748249053.186.json,1748249053.186,0.0,-30.08665783570544,-105.083902189047,105.9813002784653,-90.89696298731435,-90.00043510210396,59.91399481745049,/home/najo/NAS/DIP/datasets/Fr5_intertek_dataset/preprocessed_roi/Fr5_intertek_3rd_250526_zed_34850673_left_1748249053.186.jpg,1001,170,1826,1029
/home/najo/NAS/DIP/datasets/Fr5_intertek_dataset/Fr5_intertek_3rd_250526/right/zed_34850673_right_1748249053.186.jpg,34850673,right,1748249053.186,/home/najo/NAS/DIP/datasets/Fr5_intertek_dataset/Fr5_intertek_3rd_250526/joint/joint_34850673_1748249053.186.json,1748249053.186,0.0,-30.08665783570544,-105.083902189047,105.9813002784653,-90.89696298731435,-90.00043510210396,59.91399481745049,/home/najo/NAS/DIP/datasets/Fr5_intertek_dataset/preprocessed_roi/Fr5_intertek_3rd_250526_zed_34850673_right_1748249053.186.jpg,873,172,1623,1029
/home/najo/NAS/DIP/datasets/Fr5_intertek_dataset/Fr5_intertek_3rd_250526/top/zed_30779426_right_1748249053.190.jpg,30779426,right,1748249053.19,/home/najo/NAS/DIP/datasets/Fr5_intertek_dataset/Fr5_intertek_3rd_250526/joint/joint_30779426_1748249053.190.json,1748249053.19,0.0,-30.17694152227723,-105.083249535891,105.9806476253094,-90.89696298731435,-90.00021755105197,59.82327602877475,/home/najo/NAS/DIP/datasets/Fr5_intertek_dataset/preprocessed_roi/Fr5_intertek_3rd_250526_zed_30779426_right_1748249053.190.jpg,727,267,1185,860
/home/najo/NAS/DIP/datasets/Fr5_intertek_dataset/Fr5_intertek_3rd_250526/top/zed_30779426_left_1748249053.190.jpg,30779426,left,1748249053.19,/home/najo/NAS/DIP/datasets/Fr5_intertek_dataset/Fr5_intertek_3rd_250526/joint/joint_30779426_1748249053.190.json,1748249053.19,0.0,-30.17694152227723,-105.083249535891,105.9806476253094,-90.89696298731435,-90.00021755105197,59.82327602877475,/home/najo/NAS/DIP/datasets/Fr5_intertek_dataset/preprocessed_roi/Fr5_intertek_3rd_250526_zed_30779426_left_1748249053.190.jpg,851,272,1308,860
/home/najo/NAS/DIP/datasets/Fr5_intertek_dataset/Fr5_intertek_3rd_250526/left/zed_38007749_left_1748249053.308.jpg,38007749,left,1748249053.308,/home/najo/NAS/DIP/datasets/Fr5_intertek_dataset/Fr5_intertek_3rd_250526/joint/joint_38007749_1748249053.308.json,1748249053.308,0.0,-32.233669167698,-105.0669332069925,105.9686823174505,-90.90174911045791,-90.00043510210396,57.76894144492574,/home/najo/NAS/DIP/datasets/Fr5_intertek_dataset/preprocessed_roi/Fr5_intertek_3rd_250526_zed_38007749_left_1748249053.308.jpg,367,255,971,1010
/home/najo/NAS/DIP/datasets/Fr5_intertek_dataset/Fr5_intertek_3rd_250526/left/zed_38007749_right_1748249053.308.jpg,38007749,right,1748249053.308,/home/najo/NAS/DIP/datasets/Fr5_intertek_dataset/Fr5_intertek_3rd_250526/joint/joint_38007749_1748249053.308.json,1748249053.308,0.0,-32.233669167698,-105.0669332069925,105.9686823174505,-90.90174911045791,-90.00043510210396,57.76894144492574,/home/najo/NAS/DIP/datasets/Fr5_intertek_dataset/preprocessed_roi/Fr5_intertek_3rd_250526_zed_38007749_right_1748249053.308.jpg,236,255,813,1008
/home/najo/NAS/DIP/datasets/Fr5_intertek_dataset/Fr5_intertek_3rd_250526/right/zed_34850673_left_1748249053.323.jpg,34850673,left,1748249053.323,/home/najo/NAS/DIP/datasets/Fr5_intertek_dataset/Fr5_intertek_3rd_250526/joint/joint_34850673_1748249053.323.json,1748249053.323,0.0,-32.5765296256188,-105.0634523901609,105.9671594600866,-90.90218421256186,-90.00043510210396,57.42238261912128,/home/najo/NAS/DIP/datasets/Fr5_intertek_dataset/preprocessed_roi/Fr5_intertek_3rd_250526_zed_34850673_left_1748249053.323.jpg,1005,170,1811,1029
/home/najo/NAS/DIP/datasets/Fr5_intertek_dataset/Fr5_intertek_3rd_250526/right/zed_34850673_right_1748249053.323.jpg,34850673,right,1748249053.323,/home/najo/NAS/DIP/datasets/Fr5_intertek_dataset/Fr5_intertek_3rd_250526/joint/joint_34850673_1748249053.323.json,1748249053.323,0.0,-32.5765296256188,-105.0634523901609,105.9671594600866,-90.90218421256186,-90.00043510210396,57.42238261912128,/home/najo/NAS/DIP/datasets/Fr5_intertek_dataset/preprocessed_roi/Fr5_intertek_3rd_250526_zed_34850673_right_1748249053.323.jpg,877,170,1608,1029
/home/najo/NAS/DIP/datasets/Fr5_intertek_dataset/Fr5_intertek_3rd_250526/top/zed_30779426_right_1748249053.328.jpg,30779426,right,1748249053.328,/home/najo/NAS/DIP/datasets/Fr5_intertek_dataset/Fr5_intertek_3rd_250526/joint/joint_30779426_1748249053.328.json,1748249053.328,0.0,-32.61264310024752,-105.0634523901609,105.9669419090346,-90.90218421256186,-90.00043510210396,57.38713934870049,/home/najo/NAS/DIP/datasets/Fr5_intertek_dataset/preprocessed_roi/Fr5_intertek_3rd_250526_zed_30779426_right_1748249053.328.jpg,727,274,1192,856
/home/najo/NAS/DIP/datasets/Fr5_intertek_dataset/Fr5_intertek_3rd_250526/top/zed_30779426_left_1748249053.328.jpg,30779426,left,1748249053.328,/home/najo/NAS/DIP/datasets/Fr5_intertek_dataset/Fr5_intertek_3rd_250526/joint/joint_30779426_1748249053.328.json,1748249053.328,0.0,-32.61264310024752,-105.0634523901609,105.9669419090346,-90.90218421256186,-90.00043510210396,57.38713934870049,/home/najo/NAS/DIP/datasets/Fr5_intertek_dataset/preprocessed_roi/Fr5_intertek_3rd_250526_zed_30779426_left_1748249053.328.jpg,851,278,1320,856
/home/najo/NAS/DIP/datasets/Fr5_intertek_dataset/Fr5_intertek_3rd_250526/left/zed_38007749_right_1748249053.442.jpg,38007749,right,1748249053.442,/home/najo/NAS/DIP/datasets/Fr5_intertek_dataset/Fr5_intertek_3rd_250526/joint/joint_38007749_1748249053.442.json,1748249053.442,0.0,-34.66327931621287,-105.0482238165223,105.9558468053836,-90.90697033570544,-90.00021755105197,55.33411007116336,/home/najo/NAS/DIP/datasets/Fr5_intertek_dataset/preprocessed_roi/Fr5_intertek_3rd_250526_zed_38007749_right_1748249053.442.jpg,240,251,806,1008
/home/najo/NAS/DIP/datasets/Fr5_intertek_dataset/Fr5_intertek_3rd_250526/left/zed_38007749_left_1748249053.442.jpg,38007749,left,1748249053.442,/home/najo/NAS/DIP/datasets/Fr5_intertek_dataset/Fr5_intertek_3rd_250526/joint/joint_38007749_1748249053.442.json,1748249053.442,0.0,-34.66327931621287,-105.0482238165223,105.9558468053836,-90.90697033570544,-90.00021755105197,55.33411007116336,/home/najo/NAS/DIP/datasets/Fr5_intertek_dataset/preprocessed_roi/Fr5_intertek_3rd_250526_zed_38007749_left_1748249053.442.jpg,371,251,967,1010
/home/najo/NAS/DIP/datasets/Fr5_intertek_dataset/Fr5_intertek_3rd_250526/right/zed_34850673_right_1748249053.461.jpg,34850673,right,1748249053.461,/home/najo/NAS/DIP/datasets/Fr5_intertek_dataset/Fr5_intertek_3rd_250526/joint/joint_34850673_1748249053.461.json,1748249053.461,0.0,-35.04029528929455,-105.0451781017945,105.9536712948638,-90.9076229888614,-90.00065265315594,54.95317817914603,/home/najo/NAS/DIP/datasets/Fr5_intertek_dataset/preprocessed_roi/Fr5_intertek_3rd_250526_zed_34850673_right_1748249053.461.jpg,885,172,1593,1029
/home/najo/NAS/DIP/datasets/Fr5_intertek_dataset/Fr5_intertek_3rd_250526/right/zed_34850673_left_1748249053.461.jpg,34850673,left,1748249053.461,/home/najo/NAS/DIP/datasets/Fr5_intertek_dataset/Fr5_intertek_3rd_250526/joint/joint_34850673_1748249053.461.json,1748249053.461,0.0,-35.04029528929455,-105.0451781017945,105.9536712948638,-90.9076229888614,-90.00065265315594,54.95317817914603,/home/najo/NAS/DIP/datasets/Fr5_intertek_dataset/preprocessed_roi/Fr5_intertek_3rd_250526_zed_34850673_left_1748249053.461.jpg,1008,170,1796,1029
/home/najo/NAS/DIP/datasets/Fr5_intertek_dataset/Fr5_intertek_3rd_250526/top/zed_30779426_right_1748249053.465.jpg,30779426,right,1748249053.465,/home/najo/NAS/DIP/datasets/Fr5_intertek_dataset/Fr5_intertek_3rd_250526/joint/joint_30779426_1748249053.465.json,1748249053.465,0.0,-35.1109993811881,-105.0445254486386,105.9534537438118,-90.90784053991337,-90.00065265315594,54.88377939356435,/home/najo/NAS/DIP/datasets/Fr5_intertek_dataset/preprocessed_roi/Fr5_intertek_3rd_250526_zed_30779426_right_1748249053.465.jpg,723,278,1203,852
/home/najo/NAS/DIP/datasets/Fr5_intertek_dataset/Fr5_intertek_3rd_250526/top/zed_30779426_left_1748249053.465.jpg,30779426,left,1748249053.465,/home/najo/NAS/DIP/datasets/Fr5_intertek_dataset/Fr5_intertek_3rd_250526/joint/joint_30779426_1748249053.465.json,1748249053.465,0.0,-35.1109993811881,-105.0445254486386,105.9534537438118,-90.90784053991337,-90.00065265315594,54.88377939356435,/home/najo/NAS/DIP/datasets/Fr5_intertek_dataset/preprocessed_roi/Fr5_intertek_3rd_250526_zed_30779426_left_1748249053.465.jpg,851,282,1331,854
/home/najo/NAS/DIP/datasets/Fr5_intertek_dataset/Fr5_intertek_3rd_250526/left/zed_38007749_right_1748249053.576.jpg,38007749,right,1748249053.576,/home/najo/NAS/DIP/datasets/Fr5_intertek_dataset/Fr5_intertek_3rd_250526/joint/joint_38007749_1748249053.576.json,1748249053.576,0.0,-37.10659518100247,-105.029079323948,105.9423586401609,-90.91219156095298,-90.00021755105197,52.89122930847772,/home/najo/NAS/DIP/datasets/Fr5_intertek_dataset/preprocessed_roi/Fr5_intertek_3rd_250526_zed_38007749_right_1748249053.576.jpg,247,248,813,1008
/home/najo/NAS/DIP/datasets/Fr5_intertek_dataset/Fr5_intertek_3rd_250526/left/zed_38007749_left_1748249053.576.jpg,38007749,left,1748249053.576,/home/najo/NAS/DIP/datasets/Fr5_intertek_dataset/Fr5_intertek_3rd_250526/joint/joint_38007749_1748249053.576.json,1748249053.576,0.0,-37.10659518100247,-105.029079323948,105.9423586401609,-90.91219156095298,-90.00021755105197,52.89122930847772,/home/najo/NAS/DIP/datasets/Fr5_intertek_dataset/preprocessed_roi/Fr5_intertek_3rd_250526_zed_38007749_left_1748249053.576.jpg,375,248,960,1010
/home/najo/NAS/DIP/datasets/Fr5_intertek_dataset/Fr5_intertek_3rd_250526/right/zed_34850673_right_1748249053.599.jpg,34850673,right,1748249053.599,/home/najo/NAS/DIP/datasets/Fr5_intertek_dataset/Fr5_intertek_3rd_250526/joint/joint_34850673_1748249053.599.json,1748249053.599,0.0,-37.5390866723391,-105.0262511602723,105.940183129641,-90.9128442141089,-90.00043510210396,52.46308883818069,/home/najo/NAS/DIP/datasets/Fr5_intertek_dataset/preprocessed_roi/Fr5_intertek_3rd_250526_zed_34850673_right_1748249053.599.jpg,892,172,1593,1029
/home/najo/NAS/DIP/datasets/Fr5_intertek_dataset/Fr5_intertek_3rd_250526/right/zed_34850673_left_1748249053.599.jpg,34850673,left,1748249053.599,/home/najo/NAS/DIP/datasets/Fr5_intertek_dataset/Fr5_intertek_3rd_250526/joint/joint_34850673_1748249053.599.json,1748249053.599,0.0,-37.5390866723391,-105.0262511602723,105.940183129641,-90.9128442141089,-90.00043510210396,52.46308883818069,/home/najo/NAS/DIP/datasets/Fr5_intertek_dataset/preprocessed_roi/Fr5_intertek_3rd_250526_zed_34850673_left_1748249053.599.jpg,1016,172,1777,1029
/home/najo/NAS/DIP/datasets/Fr5_intertek_dataset/Fr5_intertek_3rd_250526/top/zed_30779426_left_1748249053.604.jpg,30779426,left,1748249053.604,/home/najo/NAS/DIP/datasets/Fr5_intertek_dataset/Fr5_intertek_3rd_250526/joint/joint_30779426_1748249053.604.json,1748249053.604,0.0,-37.6126189279084,-105.0258160581683,105.939965578589,-90.91306176516088,-90.00043510210396,52.39107943997525,/home/najo/NAS/DIP/datasets/Fr5_intertek_dataset/preprocessed_roi/Fr5_intertek_3rd_250526_zed_30779426_left_1748249053.604.jpg,847,288,1338,850
/home/najo/NAS/DIP/datasets/Fr5_intertek_dataset/Fr5_intertek_3rd_250526/top/zed_30779426_right_1748249053.604.jpg,30779426,right,1748249053.604,/home/najo/NAS/DIP/datasets/Fr5_intertek_dataset/Fr5_intertek_3rd_250526/joint/joint_30779426_1748249053.604.json,1748249053.604,0.0,-37.6126189279084,-105.0258160581683,105.939965578589,-90.91306176516088,-90.00043510210396,52.39107943997525,/home/najo/NAS/DIP/datasets/Fr5_intertek_dataset/preprocessed_roi/Fr5_intertek_3rd_250526_zed_30779426_right_1748249053.604.jpg,723,286,1215,850
/home/najo/NAS/DIP/datasets/Fr5_intertek_dataset/Fr5_intertek_3rd_250526/left/zed_38007749_right_1748249053.714.jpg,38007749,right,1748249053.714,/home/najo/NAS/DIP/datasets/Fr5_intertek_dataset/Fr5_intertek_3rd_250526/joint/joint_38007749_1748249053.714.json,1748249053.714,0.0,-39.63062248607673,-105.0099348313737,105.929305577042,-90.9185005414604,-90.00065265315594,50.36850730971534,/home/najo/NAS/DIP/datasets/Fr5_intertek_dataset/preprocessed_roi/Fr5_intertek_3rd_250526_zed_38007749_right_1748249053.714.jpg,247,244,832,1008
/home/najo/NAS/DIP/datasets/Fr5_intertek_dataset/Fr5_intertek_3rd_250526/left/zed_38007749_left_1748249053.714.jpg,38007749,left,1748249053.714,/home/najo/NAS/DIP/datasets/Fr5_intertek_dataset/Fr5_intertek_3rd_250526/joint/joint_38007749_1748249053.714.json,1748249053.714,0.0,-39.63062248607673,-105.0099348313737,105.929305577042,-90.9185005414604,-90.00065265315594,50.36850730971534,/home/najo/NAS/DIP/datasets/Fr5_intertek_dataset/preprocessed_roi/Fr5_intertek_3rd_250526_zed_38007749_left_1748249053.714.jpg,382,246,952,1008
/home/najo/NAS/DIP/datasets/Fr5_intertek_dataset/Fr5_intertek_3rd_250526/right/zed_34850673_left_1748249053.737.jpg,34850673,left,1748249053.737,/home/najo/NAS/DIP/datasets/Fr5_intertek_dataset/Fr5_intertek_3rd_250526/joint/joint_34850673_1748249053.737.json,1748249053.737,0.0,-40.04636254641089,-105.006454014542,105.9266949644183,-90.91980584777228,-90.00043510210396,49.95080928991336,/home/najo/NAS/DIP/datasets/Fr5_intertek_dataset/preprocessed_roi/Fr5_intertek_3rd_250526_zed_34850673_left_1748249053.737.jpg,1020,172,1758,1029
/home/najo/NAS/DIP/datasets/Fr5_intertek_dataset/Fr5_intertek_3rd_250526/right/zed_34850673_right_1748249053.737.jpg,34850673,right,1748249053.737,/home/najo/NAS/DIP/datasets/Fr5_intertek_dataset/Fr5_intertek_3rd_250526/joint/joint_34850673_1748249053.737.json,1748249053.737,0.0,-40.04636254641089,-105.006454014542,105.9266949644183,-90.91980584777228,-90.00043510210396,49.95080928991336,/home/najo/NAS/DIP/datasets/Fr5_intertek_dataset/preprocessed_roi/Fr5_intertek_3rd_250526_zed_34850673_right_1748249053.737.jpg,900,172,1590,1029
/home/najo/NAS/DIP/datasets/Fr5_intertek_dataset/Fr5_intertek_3rd_250526/top/zed_30779426_left_1748249053.742.jpg,30779426,left,1748249053.742,/home/najo/NAS/DIP/datasets/Fr5_intertek_dataset/Fr5_intertek_3rd_250526/joint/joint_30779426_1748249053.742.json,1748249053.742,0.0,-40.06441928372525,-105.00623646349,105.9264774133663,-90.91980584777228,-90.00021755105197,49.93297010365098,/home/najo/NAS/DIP/datasets/Fr5_intertek_dataset/preprocessed_roi/Fr5_intertek_3rd_250526_zed_30779426_left_1748249053.742.jpg,847,295,1350,845
/home/najo/NAS/DIP/datasets/Fr5_intertek_dataset/Fr5_intertek_3rd_250526/left/zed_38007749_left_1748249053.852.jpg,38007749,left,1748249053.852,/home/najo/NAS/DIP/datasets/Fr5_intertek_dataset/Fr5_intertek_3rd_250526/joint/joint_38007749_1748249053.852.json,1748249053.852,0.0,-42.11309754022277,-104.9914429919554,105.9149472076114,-90.92372176670791,-90.00087020420793,47.88211633663366,/home/najo/NAS/DIP/datasets/Fr5_intertek_dataset/preprocessed_roi/Fr5_intertek_3rd_250526_zed_38007749_left_1748249053.852.jpg,382,240,941,1010
/home/najo/NAS/DIP/datasets/Fr5_intertek_dataset/Fr5_intertek_3rd_250526/top/zed_30779426_right_1748249053.742.jpg,30779426,right,1748249053.742,/home/najo/NAS/DIP/datasets/Fr5_intertek_dataset/Fr5_intertek_3rd_250526/joint/joint_30779426_1748249053.742.json,1748249053.742,0.0,-40.06441928372525,-105.00623646349,105.9264774133663,-90.91980584777228,-90.00021755105197,49.93297010365098,/home/najo/NAS/DIP/datasets/Fr5_intertek_dataset/preprocessed_roi/Fr5_intertek_3rd_250526_zed_30779426_right_1748249053.742.jpg,723,295,1226,845
/home/najo/NAS/DIP/datasets/Fr5_intertek_dataset/Fr5_intertek_3rd_250526/left/zed_38007749_right_1748249053.852.jpg,38007749,right,1748249053.852,/home/najo/NAS/DIP/datasets/Fr5_intertek_dataset/Fr5_intertek_3rd_250526/joint/joint_38007749_1748249053.852.json,1748249053.852,0.0,-42.11309754022277,-104.9914429919554,105.9149472076114,-90.92372176670791,-90.00087020420793,47.88211633663366,/home/najo/NAS/DIP/datasets/Fr5_intertek_dataset/preprocessed_roi/Fr5_intertek_3rd_250526_zed_38007749_right_1748249053.852.jpg,247,238,828,1008
/home/najo/NAS/DIP/datasets/Fr5_intertek_dataset/Fr5_intertek_3rd_250526/right/zed_34850673_right_1748249053.875.jpg,34850673,right,1748249053.875,/home/najo/NAS/DIP/datasets/Fr5_intertek_dataset/Fr5_intertek_3rd_250526/joint/joint_34850673_1748249053.875.json,1748249053.875,0.0,-42.4696637144183,-104.9888323793317,105.9134243502475,-90.9239393177599,-90.0,47.526637917698,/home/najo/NAS/DIP/datasets/Fr5_intertek_dataset/preprocessed_roi/Fr5_intertek_3rd_250526_zed_34850673_right_1748249053.875.jpg,907,172,1586,1029
/home/najo/NAS/DIP/datasets/Fr5_intertek_dataset/Fr5_intertek_3rd_250526/right/zed_34850673_left_1748249053.875.jpg,34850673,left,1748249053.875,/home/najo/NAS/DIP/datasets/Fr5_intertek_dataset/Fr5_intertek_3rd_250526/joint/joint_34850673_1748249053.875.json,1748249053.875,0.0,-42.4696637144183,-104.9888323793317,105.9134243502475,-90.9239393177599,-90.0,47.526637917698,/home/najo/NAS/DIP/datasets/Fr5_intertek_dataset/preprocessed_roi/Fr5_intertek_3rd_250526_zed_34850673_left_1748249053.875.jpg,1027,172,1758,1029
/home/najo/NAS/DIP/datasets/Fr5_intertek_dataset/Fr5_intertek_3rd_250526/top/zed_30779426_left_1748249053.880.jpg,30779426,left,1748249053.88,/home/najo/NAS/DIP/datasets/Fr5_intertek_dataset/Fr5_intertek_3rd_250526/joint/joint_30779426_1748249053.880.json,1748249053.88,0.0,-42.56125270730198,-104.9886148282797,105.9129892481435,-90.92415686881186,-90.00065265315594,47.43896484375,/home/najo/NAS/DIP/datasets/Fr5_intertek_dataset/preprocessed_roi/Fr5_intertek_3rd_250526_zed_30779426_left_1748249053.880.jpg,847,301,1357,841
/home/najo/NAS/DIP/datasets/Fr5_intertek_dataset/Fr5_intertek_3rd_250526/top/zed_30779426_right_1748249053.880.jpg,30779426,right,1748249053.88,/home/najo/NAS/DIP/datasets/Fr5_intertek_dataset/Fr5_intertek_3rd_250526/joint/joint_30779426_1748249053.880.json,1748249053.88,0.0,-42.56125270730198,-104.9886148282797,105.9129892481435,-90.92415686881186,-90.00065265315594,47.43896484375,/home/najo/NAS/DIP/datasets/Fr5_intertek_dataset/preprocessed_roi/Fr5_intertek_3rd_250526_zed_30779426_right_1748249053.880.jpg,723,301,1233,841
/home/najo/NAS/DIP/datasets/Fr5_intertek_dataset/Fr5_intertek_3rd_250526/left/zed_38007749_left_1748249053.991.jpg,38007749,left,1748249053.991,/home/najo/NAS/DIP/datasets/Fr5_intertek_dataset/Fr5_intertek_3rd_250526/joint/joint_38007749_1748249053.991.json,1748249053.991,0.0,-44.56011177289603,-104.973603805693,105.9016765934406,-90.92807278774752,-90.00021755105197,45.4427163907797,/home/najo/NAS/DIP/datasets/Fr5_intertek_dataset/preprocessed_roi/Fr5_intertek_3rd_250526_zed_38007749_left_1748249053.991.jpg,382,236,930,1010
/home/najo/NAS/DIP/datasets/Fr5_intertek_dataset/Fr5_intertek_3rd_250526/left/zed_38007749_right_1748249053.991.jpg,38007749,right,1748249053.991,/home/najo/NAS/DIP/datasets/Fr5_intertek_dataset/Fr5_intertek_3rd_250526/joint/joint_38007749_1748249053.991.json,1748249053.991,0.0,-44.56011177289603,-104.973603805693,105.9016765934406,-90.92807278774752,-90.00021755105197,45.4427163907797,/home/najo/NAS/DIP/datasets/Fr5_intertek_dataset/preprocessed_roi/Fr5_intertek_3rd_250526_zed_38007749_right_1748249053.991.jpg,247,236,806,1008
/home/najo/NAS/DIP/datasets/Fr5_intertek_dataset/Fr5_intertek_3rd_250526/right/zed_34850673_left_1748249054.013.jpg,34850673,left,1748249054.013,/home/najo/NAS/DIP/datasets/Fr5_intertek_dataset/Fr5_intertek_3rd_250526/joint/joint_34850673_1748249054.013.json,1748249054.013,0.0,-44.977809792698,-104.9703405399133,105.8992835318688,-90.92894299195544,-90.00087020420793,45.02132000309406,/home/najo/NAS/DIP/datasets/Fr5_intertek_dataset/preprocessed_roi/Fr5_intertek_3rd_250526_zed_34850673_left_1748249054.013.jpg,1035,175,1751,1029
/home/najo/NAS/DIP/datasets/Fr5_intertek_dataset/Fr5_intertek_3rd_250526/right/zed_34850673_right_1748249054.013.jpg,34850673,right,1748249054.013,/home/najo/NAS/DIP/datasets/Fr5_intertek_dataset/Fr5_intertek_3rd_250526/joint/joint_34850673_1748249054.013.json,1748249054.013,0.0,-44.977809792698,-104.9703405399133,105.8992835318688,-90.92894299195544,-90.00087020420793,45.02132000309406,/home/najo/NAS/DIP/datasets/Fr5_intertek_dataset/preprocessed_roi/Fr5_intertek_3rd_250526_zed_34850673_right_1748249054.013.jpg,915,175,1582,1029
/home/najo/NAS/DIP/datasets/Fr5_intertek_dataset/Fr5_intertek_3rd_250526/top/zed_30779426_left_1748249054.017.jpg,30779426,left,1748249054.017,/home/najo/NAS/DIP/datasets/Fr5_intertek_dataset/Fr5_intertek_3rd_250526/joint/joint_30779426_1748249054.017.json,1748249054.017,0.0,-45.01370571627475,-104.9701229888614,105.8992835318688,-90.92916054300744,-90.00065265315594,44.98368367110149,/home/najo/NAS/DIP/datasets/Fr5_intertek_dataset/preprocessed_roi/Fr5_intertek_3rd_250526_zed_30779426_left_1748249054.017.jpg,847,312,1368,837
/home/najo/NAS/DIP/datasets/Fr5_intertek_dataset/Fr5_intertek_3rd_250526/top/zed_30779426_right_1748249054.017.jpg,30779426,right,1748249054.017,/home/najo/NAS/DIP/datasets/Fr5_intertek_dataset/Fr5_intertek_3rd_250526/joint/joint_30779426_1748249054.017.json,1748249054.017,0.0,-45.01370571627475,-104.9701229888614,105.8992835318688,-90.92916054300744,-90.00065265315594,44.98368367110149,/home/najo/NAS/DIP/datasets/Fr5_intertek_dataset/preprocessed_roi/Fr5_intertek_3rd_250526_zed_30779426_right_1748249054.017.jpg,723,312,1248,837
/home/najo/NAS/DIP/datasets/Fr5_intertek_dataset/Fr5_intertek_3rd_250526/left/zed_38007749_right_1748249054.127.jpg,38007749,right,1748249054.127,/home/najo/NAS/DIP/datasets/Fr5_intertek_dataset/Fr5_intertek_3rd_250526/joint/joint_38007749_1748249054.127.json,1748249054.127,0.0,-47.0136525371287,-104.9544593131188,105.8886235303218,-90.933729115099,-90.00043510210396,42.98743521813119,/home/najo/NAS/DIP/datasets/Fr5_intertek_dataset/preprocessed_roi/Fr5_intertek_3rd_250526_zed_38007749_right_1748249054.127.jpg,247,229,783,1008
