Najongs/2025_ICRA_Multi_View_Robot_Pose_Estimation/dataset/Fr5/Fr5_6th_250526/matched_index_with_roi.csv
img.path,img.serial,img.view,img.ts,joint.path,joint.ts,abs_dt,joint.0,joint.1,joint.2,joint.3,joint.4,joint.5,roi.path,roi.x1,roi.y1,roi.x2,roi.y2
/home/najo/NAS/DIP/datasets/Fr5_intertek_dataset/Fr5_intertek_6th_250526/left/zed_38007749_left_1748249284.531.jpg,38007749,left,1748249284.531,/home/najo/NAS/DIP/datasets/Fr5_intertek_dataset/Fr5_intertek_6th_250526/joint/joint_38007749_1748249284.531.json,1748249284.531,0.0,-41.31337987314356,-72.6437770730198,89.10499497215346,-106.4720954517326,-89.99978244894803,48.68705522896039,/home/najo/NAS/DIP/datasets/Fr5_intertek_dataset/preprocessed_roi/Fr5_intertek_6th_250526_zed_38007749_left_1748249284.531.jpg,382,263,1233,1010
/home/najo/NAS/DIP/datasets/Fr5_intertek_dataset/Fr5_intertek_6th_250526/left/zed_38007749_right_1748249284.531.jpg,38007749,right,1748249284.531,/home/najo/NAS/DIP/datasets/Fr5_intertek_dataset/Fr5_intertek_6th_250526/joint/joint_38007749_1748249284.531.json,1748249284.531,0.0,-41.31337987314356,-72.6437770730198,89.10499497215346,-106.4720954517326,-89.99978244894803,48.68705522896039,/home/najo/NAS/DIP/datasets/Fr5_intertek_dataset/preprocessed_roi/Fr5_intertek_6th_250526_zed_38007749_right_1748249284.531.jpg,247,263,1020,1008
/home/najo/NAS/DIP/datasets/Fr5_intertek_dataset/Fr5_intertek_6th_250526/right/zed_34850673_left_1748249284.543.jpg,34850673,left,1748249284.543,/home/najo/NAS/DIP/datasets/Fr5_intertek_dataset/Fr5_intertek_6th_250526/joint/joint_34850673_1748249284.543.json,1748249284.543,0.0,-41.3129447710396,-72.59635094368812,89.23139213335396,-106.6450485380569,-90.00021755105197,48.68705522896039,/home/najo/NAS/DIP/datasets/Fr5_intertek_dataset/preprocessed_roi/Fr5_intertek_6th_250526_zed_34850673_left_1748249284.543.jpg,877,246,1616,1029
/home/najo/NAS/DIP/datasets/Fr5_intertek_dataset/Fr5_intertek_6th_250526/right/zed_34850673_right_1748249284.543.jpg,34850673,right,1748249284.543,/home/najo/NAS/DIP/datasets/Fr5_intertek_dataset/Fr5_intertek_6th_250526/joint/joint_34850673_1748249284.543.json,1748249284.543,0.0,-41.3129447710396,-72.59635094368812,89.23139213335396,-106.6450485380569,-90.00021755105197,48.68705522896039,/home/najo/NAS/DIP/datasets/Fr5_intertek_dataset/preprocessed_roi/Fr5_intertek_6th_250526_zed_34850673_right_1748249284.543.jpg,768,246,1470,1029
/home/najo/NAS/DIP/datasets/Fr5_intertek_dataset/Fr5_intertek_6th_250526/top/zed_30779426_right_1748249284.558.jpg,30779426,right,1748249284.558,/home/najo/NAS/DIP/datasets/Fr5_intertek_dataset/Fr5_intertek_6th_250526/joint/joint_34850673_1748249284.543.json,1748249284.543,0.0150001049041748,-41.3129447710396,-72.59635094368812,89.23139213335396,-106.6450485380569,-90.00021755105197,48.68705522896039,/home/najo/NAS/DIP/datasets/Fr5_intertek_dataset/preprocessed_roi/Fr5_intertek_6th_250526_zed_30779426_right_1748249284.558.jpg,847,164,1346,723
/home/najo/NAS/DIP/datasets/Fr5_intertek_dataset/Fr5_intertek_6th_250526/top/zed_30779426_left_1748249284.558.jpg,30779426,left,1748249284.558,/home/najo/NAS/DIP/datasets/Fr5_intertek_dataset/Fr5_intertek_6th_250526/joint/joint_34850673_1748249284.543.json,1748249284.543,0.0150001049041748,-41.3129447710396,-72.59635094368812,89.23139213335396,-106.6450485380569,-90.00021755105197,48.68705522896039,/home/najo/NAS/DIP/datasets/Fr5_intertek_dataset/preprocessed_roi/Fr5_intertek_6th_250526_zed_30779426_left_1748249284.558.jpg,941,164,1462,721
/home/najo/NAS/DIP/datasets/Fr5_intertek_dataset/Fr5_intertek_6th_250526/left/zed_38007749_left_1748249284.698.jpg,38007749,left,1748249284.698,/home/najo/NAS/DIP/datasets/Fr5_intertek_dataset/Fr5_intertek_6th_250526/joint/joint_38007749_1748249284.698.json,1748249284.698,0.0,-41.3127272199876,-72.18517945544555,90.2493135055693,-108.0663095606435,-89.99978244894803,48.68705522896039,/home/najo/NAS/DIP/datasets/Fr5_intertek_dataset/preprocessed_roi/Fr5_intertek_6th_250526_zed_38007749_left_1748249284.698.jpg,382,265,1233,1010
/home/najo/NAS/DIP/datasets/Fr5_intertek_dataset/Fr5_intertek_6th_250526/left/zed_38007749_right_1748249284.698.jpg,38007749,right,1748249284.698,/home/najo/NAS/DIP/datasets/Fr5_intertek_dataset/Fr5_intertek_6th_250526/joint/joint_38007749_1748249284.698.json,1748249284.698,0.0,-41.3127272199876,-72.18517945544555,90.2493135055693,-108.0663095606435,-89.99978244894803,48.68705522896039,/home/najo/NAS/DIP/datasets/Fr5_intertek_dataset/preprocessed_roi/Fr5_intertek_6th_250526_zed_38007749_right_1748249284.698.jpg,247,265,1020,1008
/home/najo/NAS/DIP/datasets/Fr5_intertek_dataset/Fr5_intertek_6th_250526/top/zed_30779426_left_1748249284.712.jpg,30779426,left,1748249284.712,/home/najo/NAS/DIP/datasets/Fr5_intertek_dataset/Fr5_intertek_6th_250526/joint/joint_30779426_1748249284.712.json,1748249284.712,0.0,-41.3127272199876,-72.1679929223391,90.28716738861388,-108.116128751547,-90.0,48.68705522896039,/home/najo/NAS/DIP/datasets/Fr5_intertek_dataset/preprocessed_roi/Fr5_intertek_6th_250526_zed_30779426_left_1748249284.712.jpg,941,168,1455,721
/home/najo/NAS/DIP/datasets/Fr5_intertek_dataset/Fr5_intertek_6th_250526/top/zed_30779426_right_1748249284.712.jpg,30779426,right,1748249284.712,/home/najo/NAS/DIP/datasets/Fr5_intertek_dataset/Fr5_intertek_6th_250526/joint/joint_30779426_1748249284.712.json,1748249284.712,0.0,-41.3127272199876,-72.1679929223391,90.28716738861388,-108.116128751547,-90.0,48.68705522896039,/home/najo/NAS/DIP/datasets/Fr5_intertek_dataset/preprocessed_roi/Fr5_intertek_6th_250526_zed_30779426_right_1748249284.712.jpg,847,168,1342,723
/home/najo/NAS/DIP/datasets/Fr5_intertek_dataset/Fr5_intertek_6th_250526/right/zed_34850673_left_1748249284.717.jpg,34850673,left,1748249284.717,/home/najo/NAS/DIP/datasets/Fr5_intertek_dataset/Fr5_intertek_6th_250526/joint/joint_34850673_1748249284.717.json,1748249284.717,0.0,-41.31229211788366,-72.13992883663364,90.34873433632426,-108.2059773360148,-90.0,48.68705522896039,/home/najo/NAS/DIP/datasets/Fr5_intertek_dataset/preprocessed_roi/Fr5_intertek_6th_250526_zed_34850673_left_1748249284.717.jpg,877,248,1616,1029
/home/najo/NAS/DIP/datasets/Fr5_intertek_dataset/Fr5_intertek_6th_250526/right/zed_34850673_right_1748249284.717.jpg,34850673,right,1748249284.717,/home/najo/NAS/DIP/datasets/Fr5_intertek_dataset/Fr5_intertek_6th_250526/joint/joint_34850673_1748249284.717.json,1748249284.717,0.0,-41.31229211788366,-72.13992883663364,90.34873433632426,-108.2059773360148,-90.0,48.68705522896039,/home/najo/NAS/DIP/datasets/Fr5_intertek_dataset/preprocessed_roi/Fr5_intertek_6th_250526_zed_34850673_right_1748249284.717.jpg,768,248,1470,1029
/home/najo/NAS/DIP/datasets/Fr5_intertek_dataset/Fr5_intertek_6th_250526/left/zed_38007749_left_1748249284.842.jpg,38007749,left,1748249284.842,/home/najo/NAS/DIP/datasets/Fr5_intertek_dataset/Fr5_intertek_6th_250526/joint/joint_38007749_1748249284.842.json,1748249284.842,0.0,-41.3127272199876,-71.69481938428218,91.3040010055693,-109.6057008044554,-90.0,48.68705522896039,/home/najo/NAS/DIP/datasets/Fr5_intertek_dataset/preprocessed_roi/Fr5_intertek_6th_250526_zed_38007749_left_1748249284.842.jpg,382,265,1233,1010
/home/najo/NAS/DIP/datasets/Fr5_intertek_dataset/Fr5_intertek_6th_250526/left/zed_38007749_right_1748249284.842.jpg,38007749,right,1748249284.842,/home/najo/NAS/DIP/datasets/Fr5_intertek_dataset/Fr5_intertek_6th_250526/joint/joint_38007749_1748249284.842.json,1748249284.842,0.0,-41.3127272199876,-71.69481938428218,91.3040010055693,-109.6057008044554,-90.0,48.68705522896039,/home/najo/NAS/DIP/datasets/Fr5_intertek_dataset/preprocessed_roi/Fr5_intertek_6th_250526_zed_38007749_right_1748249284.842.jpg,247,265,1016,1008
/home/najo/NAS/DIP/datasets/Fr5_intertek_dataset/Fr5_intertek_6th_250526/top/zed_30779426_right_1748249284.847.jpg,30779426,right,1748249284.847,/home/najo/NAS/DIP/datasets/Fr5_intertek_dataset/Fr5_intertek_6th_250526/joint/joint_30779426_1748249284.847.json,1748249284.847,0.0,-41.3127272199876,-71.68328917852723,91.32684386602725,-109.6378983601485,-90.00021755105197,48.68705522896039,/home/najo/NAS/DIP/datasets/Fr5_intertek_dataset/preprocessed_roi/Fr5_intertek_6th_250526_zed_30779426_right_1748249284.847.jpg,847,172,1338,723
/home/najo/NAS/DIP/datasets/Fr5_intertek_dataset/Fr5_intertek_6th_250526/top/zed_30779426_left_1748249284.847.jpg,30779426,left,1748249284.847,/home/najo/NAS/DIP/datasets/Fr5_intertek_dataset/Fr5_intertek_6th_250526/joint/joint_30779426_1748249284.847.json,1748249284.847,0.0,-41.3127272199876,-71.68328917852723,91.32684386602725,-109.6378983601485,-90.00021755105197,48.68705522896039,/home/najo/NAS/DIP/datasets/Fr5_intertek_dataset/preprocessed_roi/Fr5_intertek_6th_250526_zed_30779426_left_1748249284.847.jpg,941,172,1451,721
/home/najo/NAS/DIP/datasets/Fr5_intertek_dataset/Fr5_intertek_6th_250526/right/zed_34850673_right_1748249284.855.jpg,34850673,right,1748249284.855,/home/najo/NAS/DIP/datasets/Fr5_intertek_dataset/Fr5_intertek_6th_250526/joint/joint_34850673_1748249284.855.json,1748249284.855,0.0,-41.3127272199876,-71.65413733756186,91.3862353032178,-109.7244836788366,-90.00021755105197,48.68705522896039,/home/najo/NAS/DIP/datasets/Fr5_intertek_dataset/preprocessed_roi/Fr5_intertek_6th_250526_zed_34850673_right_1748249284.855.jpg,768,251,1470,1029
/home/najo/NAS/DIP/datasets/Fr5_intertek_dataset/Fr5_intertek_6th_250526/right/zed_34850673_left_1748249284.855.jpg,34850673,left,1748249284.855,/home/najo/NAS/DIP/datasets/Fr5_intertek_dataset/Fr5_intertek_6th_250526/joint/joint_34850673_1748249284.855.json,1748249284.855,0.0,-41.3127272199876,-71.65413733756186,91.3862353032178,-109.7244836788366,-90.00021755105197,48.68705522896039,/home/najo/NAS/DIP/datasets/Fr5_intertek_dataset/preprocessed_roi/Fr5_intertek_6th_250526_zed_34850673_left_1748249284.855.jpg,877,251,1616,1029
/home/najo/NAS/DIP/datasets/Fr5_intertek_dataset/Fr5_intertek_6th_250526/left/zed_38007749_right_1748249284.983.jpg,38007749,right,1748249284.983,/home/najo/NAS/DIP/datasets/Fr5_intertek_dataset/Fr5_intertek_6th_250526/joint/joint_38007749_1748249284.983.json,1748249284.983,0.0,-41.3127272199876,-71.16312461324257,92.32736115408416,-111.1514010287747,-90.0,48.68727278001238,/home/najo/NAS/DIP/datasets/Fr5_intertek_dataset/preprocessed_roi/Fr5_intertek_6th_250526_zed_38007749_right_1748249284.983.jpg,243,267,1020,1008
/home/najo/NAS/DIP/datasets/Fr5_intertek_dataset/Fr5_intertek_6th_250526/left/zed_38007749_left_1748249284.983.jpg,38007749,left,1748249284.983,/home/najo/NAS/DIP/datasets/Fr5_intertek_dataset/Fr5_intertek_6th_250526/joint/joint_38007749_1748249284.983.json,1748249284.983,0.0,-41.3127272199876,-71.16312461324257,92.32736115408416,-111.1514010287747,-90.0,48.68727278001238,/home/najo/NAS/DIP/datasets/Fr5_intertek_dataset/preprocessed_roi/Fr5_intertek_6th_250526_zed_38007749_left_1748249284.983.jpg,382,267,1230,1010
/home/najo/NAS/DIP/datasets/Fr5_intertek_dataset/Fr5_intertek_6th_250526/top/zed_30779426_right_1748249284.988.jpg,30779426,right,1748249284.988,/home/najo/NAS/DIP/datasets/Fr5_intertek_dataset/Fr5_intertek_6th_250526/joint/joint_38007749_1748249284.983.json,1748249284.983,0.0049998760223388,-41.3127272199876,-71.16312461324257,92.32736115408416,-111.1514010287747,-90.0,48.68727278001238,/home/najo/NAS/DIP/datasets/Fr5_intertek_dataset/preprocessed_roi/Fr5_intertek_6th_250526_zed_30779426_right_1748249284.988.jpg,847,175,1335,723
/home/najo/NAS/DIP/datasets/Fr5_intertek_dataset/Fr5_intertek_6th_250526/top/zed_30779426_left_1748249284.988.jpg,30779426,left,1748249284.988,/home/najo/NAS/DIP/datasets/Fr5_intertek_dataset/Fr5_intertek_6th_250526/joint/joint_38007749_1748249284.983.json,1748249284.983,0.0049998760223388,-41.3127272199876,-71.16312461324257,92.32736115408416,-111.1514010287747,-90.0,48.68727278001238,/home/najo/NAS/DIP/datasets/Fr5_intertek_dataset/preprocessed_roi/Fr5_intertek_6th_250526_zed_30779426_left_1748249284.988.jpg,941,177,1447,721
/home/najo/NAS/DIP/datasets/Fr5_intertek_dataset/Fr5_intertek_6th_250526/right/zed_34850673_left_1748249284.995.jpg,34850673,left,1748249284.995,/home/najo/NAS/DIP/datasets/Fr5_intertek_dataset/Fr5_intertek_6th_250526/joint/joint_34850673_1748249284.995.json,1748249284.995,0.0,-41.3127272199876,-71.12418297493812,92.39501953125,-111.2638749226485,-90.00021755105197,48.68705522896039,/home/najo/NAS/DIP/datasets/Fr5_intertek_dataset/preprocessed_roi/Fr5_intertek_6th_250526_zed_34850673_left_1748249284.995.jpg,877,255,1616,1029
/home/najo/NAS/DIP/datasets/Fr5_intertek_dataset/Fr5_intertek_6th_250526/right/zed_34850673_right_1748249284.995.jpg,34850673,right,1748249284.995,/home/najo/NAS/DIP/datasets/Fr5_intertek_dataset/Fr5_intertek_6th_250526/joint/joint_34850673_1748249284.995.json,1748249284.995,0.0,-41.3127272199876,-71.12418297493812,92.39501953125,-111.2638749226485,-90.00021755105197,48.68705522896039,/home/najo/NAS/DIP/datasets/Fr5_intertek_dataset/preprocessed_roi/Fr5_intertek_6th_250526_zed_34850673_right_1748249284.995.jpg,772,255,1470,1029
/home/najo/NAS/DIP/datasets/Fr5_intertek_dataset/Fr5_intertek_6th_250526/top/zed_30779426_left_1748249285.123.jpg,30779426,left,1748249285.123,/home/najo/NAS/DIP/datasets/Fr5_intertek_dataset/Fr5_intertek_6th_250526/joint/joint_30779426_1748249285.123.json,1748249285.123,0.0,-41.3129447710396,-70.60293065439356,93.29524578434406,-112.684918394183,-90.00021755105197,48.68727278001238,/home/najo/NAS/DIP/datasets/Fr5_intertek_dataset/preprocessed_roi/Fr5_intertek_6th_250526_zed_30779426_left_1748249285.123.jpg,941,179,1443,721
/home/najo/NAS/DIP/datasets/Fr5_intertek_dataset/Fr5_intertek_6th_250526/top/zed_30779426_right_1748249285.123.jpg,30779426,right,1748249285.123,/home/najo/NAS/DIP/datasets/Fr5_intertek_dataset/Fr5_intertek_6th_250526/joint/joint_30779426_1748249285.123.json,1748249285.123,0.0,-41.3129447710396,-70.60293065439356,93.29524578434406,-112.684918394183,-90.00021755105197,48.68727278001238,/home/najo/NAS/DIP/datasets/Fr5_intertek_dataset/preprocessed_roi/Fr5_intertek_6th_250526_zed_30779426_right_1748249285.123.jpg,847,179,1331,723
/home/najo/NAS/DIP/datasets/Fr5_intertek_dataset/Fr5_intertek_6th_250526/left/zed_38007749_left_1748249285.128.jpg,38007749,left,1748249285.128,/home/najo/NAS/DIP/datasets/Fr5_intertek_dataset/Fr5_intertek_6th_250526/joint/joint_38007749_1748249285.128.json,1748249285.128,0.0,-41.3129447710396,-70.5946637144183,93.30873394956684,-112.707108601485,-90.0,48.68705522896039,/home/najo/NAS/DIP/datasets/Fr5_intertek_dataset/preprocessed_roi/Fr5_intertek_6th_250526_zed_38007749_left_1748249285.128.jpg,382,267,1230,1010
/home/najo/NAS/DIP/datasets/Fr5_intertek_dataset/Fr5_intertek_6th_250526/left/zed_38007749_right_1748249285.128.jpg,38007749,right,1748249285.128,/home/najo/NAS/DIP/datasets/Fr5_intertek_dataset/Fr5_intertek_6th_250526/joint/joint_38007749_1748249285.128.json,1748249285.128,0.0,-41.3129447710396,-70.5946637144183,93.30873394956684,-112.707108601485,-90.0,48.68705522896039,/home/najo/NAS/DIP/datasets/Fr5_intertek_dataset/preprocessed_roi/Fr5_intertek_6th_250526_zed_38007749_right_1748249285.128.jpg,243,267,1020,1008
/home/najo/NAS/DIP/datasets/Fr5_intertek_dataset/Fr5_intertek_6th_250526/right/zed_34850673_right_1748249285.134.jpg,34850673,right,1748249285.134,/home/najo/NAS/DIP/datasets/Fr5_intertek_dataset/Fr5_intertek_6th_250526/joint/joint_34850673_1748249285.134.json,1748249285.134,0.0,-41.31316232209158,-70.55811513768565,93.36747273360147,-112.8030486154084,-90.00021755105197,48.68727278001238,/home/najo/NAS/DIP/datasets/Fr5_intertek_dataset/preprocessed_roi/Fr5_intertek_6th_250526_zed_34850673_right_1748249285.134.jpg,772,257,1470,1029
/home/najo/NAS/DIP/datasets/Fr5_intertek_dataset/Fr5_intertek_6th_250526/right/zed_34850673_left_1748249285.134.jpg,34850673,left,1748249285.134,/home/najo/NAS/DIP/datasets/Fr5_intertek_dataset/Fr5_intertek_6th_250526/joint/joint_34850673_1748249285.134.json,1748249285.134,0.0,-41.31316232209158,-70.55811513768565,93.36747273360147,-112.8030486154084,-90.00021755105197,48.68727278001238,/home/najo/NAS/DIP/datasets/Fr5_intertek_dataset/preprocessed_roi/Fr5_intertek_6th_250526_zed_34850673_left_1748249285.134.jpg,877,257,1616,1029
/home/najo/NAS/DIP/datasets/Fr5_intertek_dataset/Fr5_intertek_6th_250526/top/zed_30779426_left_1748249285.262.jpg,30779426,left,1748249285.262,/home/najo/NAS/DIP/datasets/Fr5_intertek_dataset/Fr5_intertek_6th_250526/joint/joint_30779426_1748249285.262.json,1748249285.262,0.0,-41.31316232209158,-70.00553546565594,94.2098304068688,-114.2108214727723,-90.0,48.68705522896039,/home/najo/NAS/DIP/datasets/Fr5_intertek_dataset/preprocessed_roi/Fr5_intertek_6th_250526_zed_30779426_left_1748249285.262.jpg,941,183,1440,721
/home/najo/NAS/DIP/datasets/Fr5_intertek_dataset/Fr5_intertek_6th_250526/top/zed_30779426_right_1748249285.262.jpg,30779426,right,1748249285.262,/home/najo/NAS/DIP/datasets/Fr5_intertek_dataset/Fr5_intertek_6th_250526/joint/joint_30779426_1748249285.262.json,1748249285.262,0.0,-41.31316232209158,-70.00553546565594,94.2098304068688,-114.2108214727723,-90.0,48.68705522896039,/home/najo/NAS/DIP/datasets/Fr5_intertek_dataset/preprocessed_roi/Fr5_intertek_6th_250526_zed_30779426_right_1748249285.262.jpg,847,183,1327,723
/home/najo/NAS/DIP/datasets/Fr5_intertek_dataset/Fr5_intertek_6th_250526/left/zed_38007749_right_1748249285.267.jpg,38007749,right,1748249285.267,/home/najo/NAS/DIP/datasets/Fr5_intertek_dataset/Fr5_intertek_6th_250526/joint/joint_38007749_1748249285.267.json,1748249285.267,0.0,-41.31250966893564,-69.9872611772896,94.23463122679456,-114.25563698948,-90.0,48.68727278001238,/home/najo/NAS/DIP/datasets/Fr5_intertek_dataset/preprocessed_roi/Fr5_intertek_6th_250526_zed_38007749_right_1748249285.267.jpg,243,270,1020,1010
/home/najo/NAS/DIP/datasets/Fr5_intertek_dataset/Fr5_intertek_6th_250526/left/zed_38007749_left_1748249285.267.jpg,38007749,left,1748249285.267,/home/najo/NAS/DIP/datasets/Fr5_intertek_dataset/Fr5_intertek_6th_250526/joint/joint_38007749_1748249285.267.json,1748249285.267,0.0,-41.31250966893564,-69.9872611772896,94.23463122679456,-114.25563698948,-90.0,48.68727278001238,/home/najo/NAS/DIP/datasets/Fr5_intertek_dataset/preprocessed_roi/Fr5_intertek_6th_250526_zed_38007749_left_1748249285.267.jpg,382,270,1230,1025
/home/najo/NAS/DIP/datasets/Fr5_intertek_dataset/Fr5_intertek_6th_250526/right/zed_34850673_right_1748249285.274.jpg,34850673,right,1748249285.274,/home/najo/NAS/DIP/datasets/Fr5_intertek_dataset/Fr5_intertek_6th_250526/joint/joint_34850673_1748249285.274.json,1748249285.274,0.0,-41.3129447710396,-69.94744933477723,94.29162960241337,-114.356363126547,-90.0,48.68705522896039,/home/najo/NAS/DIP/datasets/Fr5_intertek_dataset/preprocessed_roi/Fr5_intertek_6th_250526_zed_34850673_right_1748249285.274.jpg,768,259,1470,1029
/home/najo/NAS/DIP/datasets/Fr5_intertek_dataset/Fr5_intertek_6th_250526/right/zed_34850673_left_1748249285.274.jpg,34850673,left,1748249285.274,/home/najo/NAS/DIP/datasets/Fr5_intertek_dataset/Fr5_intertek_6th_250526/joint/joint_34850673_1748249285.274.json,1748249285.274,0.0,-41.3129447710396,-69.94744933477723,94.29162960241337,-114.356363126547,-90.0,48.68705522896039,/home/najo/NAS/DIP/datasets/Fr5_intertek_dataset/preprocessed_roi/Fr5_intertek_6th_250526_zed_34850673_left_1748249285.274.jpg,877,259,1616,1029
/home/najo/NAS/DIP/datasets/Fr5_intertek_dataset/Fr5_intertek_6th_250526/top/zed_30779426_right_1748249285.401.jpg,30779426,right,1748249285.401,/home/najo/NAS/DIP/datasets/Fr5_intertek_dataset/Fr5_intertek_6th_250526/joint/joint_30779426_1748249285.401.json,1748249285.401,0.0,-41.3127272199876,-69.36593537283416,95.108533802599,-115.7380298576732,-89.99978244894803,48.68727278001238,/home/najo/NAS/DIP/datasets/Fr5_intertek_dataset/preprocessed_roi/Fr5_intertek_6th_250526_zed_30779426_right_1748249285.401.jpg,847,185,1327,723
/home/najo/NAS/DIP/datasets/Fr5_intertek_dataset/Fr5_intertek_6th_250526/top/zed_30779426_left_1748249285.401.jpg,30779426,left,1748249285.401,/home/najo/NAS/DIP/datasets/Fr5_intertek_dataset/Fr5_intertek_6th_250526/joint/joint_30779426_1748249285.401.json,1748249285.401,0.0,-41.3127272199876,-69.36593537283416,95.108533802599,-115.7380298576732,-89.99978244894803,48.68727278001238,/home/najo/NAS/DIP/datasets/Fr5_intertek_dataset/preprocessed_roi/Fr5_intertek_6th_250526_zed_30779426_left_1748249285.401.jpg,941,185,1432,721
/home/najo/NAS/DIP/datasets/Fr5_intertek_dataset/Fr5_intertek_6th_250526/left/zed_38007749_right_1748249285.406.jpg,38007749,right,1748249285.406,/home/najo/NAS/DIP/datasets/Fr5_intertek_dataset/Fr5_intertek_6th_250526/joint/joint_38007749_1748249285.406.json,1748249285.406,0.0,-41.31250966893564,-69.35614557549505,95.12049911045791,-115.7580445544554,-90.0,48.68727278001238,/home/najo/NAS/DIP/datasets/Fr5_intertek_dataset/preprocessed_roi/Fr5_intertek_6th_250526_zed_38007749_right_1748249285.406.jpg,243,270,1020,1010
/home/najo/NAS/DIP/datasets/Fr5_intertek_dataset/Fr5_intertek_6th_250526/left/zed_38007749_left_1748249285.406.jpg,38007749,left,1748249285.406,/home/najo/NAS/DIP/datasets/Fr5_intertek_dataset/Fr5_intertek_6th_250526/joint/joint_38007749_1748249285.406.json,1748249285.406,0.0,-41.31250966893564,-69.35614557549505,95.12049911045791,-115.7580445544554,-90.0,48.68727278001238,/home/najo/NAS/DIP/datasets/Fr5_intertek_dataset/preprocessed_roi/Fr5_intertek_6th_250526_zed_38007749_left_1748249285.406.jpg,382,270,1230,1044
/home/najo/NAS/DIP/datasets/Fr5_intertek_dataset/Fr5_intertek_6th_250526/right/zed_34850673_left_1748249285.415.jpg,34850673,left,1748249285.415,/home/najo/NAS/DIP/datasets/Fr5_intertek_dataset/Fr5_intertek_6th_250526/joint/joint_34850673_1748249285.415.json,1748249285.415,0.0,-41.31250966893564,-69.3039333230198,95.1875048344678,-115.883571511448,-89.99978244894803,48.68705522896039,/home/najo/NAS/DIP/datasets/Fr5_intertek_dataset/preprocessed_roi/Fr5_intertek_6th_250526_zed_34850673_left_1748249285.415.jpg,873,263,1616,1029
/home/najo/NAS/DIP/datasets/Fr5_intertek_dataset/Fr5_intertek_6th_250526/right/zed_34850673_right_1748249285.415.jpg,34850673,right,1748249285.415,/home/najo/NAS/DIP/datasets/Fr5_intertek_dataset/Fr5_intertek_6th_250526/joint/joint_34850673_1748249285.415.json,1748249285.415,0.0,-41.31250966893564,-69.3039333230198,95.1875048344678,-115.883571511448,-89.99978244894803,48.68705522896039,/home/najo/NAS/DIP/datasets/Fr5_intertek_dataset/preprocessed_roi/Fr5_intertek_6th_250526_zed_34850673_right_1748249285.415.jpg,772,263,1470,1029
/home/najo/NAS/DIP/datasets/Fr5_intertek_dataset/Fr5_intertek_6th_250526/top/zed_30779426_left_1748249285.542.jpg,30779426,left,1748249285.542,/home/najo/NAS/DIP/datasets/Fr5_intertek_dataset/Fr5_intertek_6th_250526/joint/joint_30779426_1748249285.542.json,1748249285.542,0.0,-41.31316232209158,-68.7030573174505,95.93827351485147,-117.2397847694925,-90.0,48.68727278001238,/home/najo/NAS/DIP/datasets/Fr5_intertek_dataset/preprocessed_roi/Fr5_intertek_6th_250526_zed_30779426_left_1748249285.542.jpg,941,189,1428,721
/home/najo/NAS/DIP/datasets/Fr5_intertek_dataset/Fr5_intertek_6th_250526/top/zed_30779426_right_1748249285.542.jpg,30779426,right,1748249285.542,/home/najo/NAS/DIP/datasets/Fr5_intertek_dataset/Fr5_intertek_6th_250526/joint/joint_30779426_1748249285.542.json,1748249285.542,0.0,-41.31316232209158,-68.7030573174505,95.93827351485147,-117.2397847694925,-90.0,48.68727278001238,/home/najo/NAS/DIP/datasets/Fr5_intertek_dataset/preprocessed_roi/Fr5_intertek_6th_250526_zed_30779426_right_1748249285.542.jpg,847,189,1320,723
/home/najo/NAS/DIP/datasets/Fr5_intertek_dataset/Fr5_intertek_6th_250526/left/zed_38007749_left_1748249285.548.jpg,38007749,left,1748249285.548,/home/najo/NAS/DIP/datasets/Fr5_intertek_dataset/Fr5_intertek_6th_250526/joint/joint_38007749_1748249285.548.json,1748249285.548,0.0,-41.3129447710396,-68.66846670018565,95.97808535736388,-117.3170153929455,-90.00021755105197,48.68727278001238,/home/najo/NAS/DIP/datasets/Fr5_intertek_dataset/preprocessed_roi/Fr5_intertek_6th_250526_zed_38007749_left_1748249285.548.jpg,382,272,1230,1065
/home/najo/NAS/DIP/datasets/Fr5_intertek_dataset/Fr5_intertek_6th_250526/left/zed_38007749_right_1748249285.548.jpg,38007749,right,1748249285.548,/home/najo/NAS/DIP/datasets/Fr5_intertek_dataset/Fr5_intertek_6th_250526/joint/joint_38007749_1748249285.548.json,1748249285.548,0.0,-41.3129447710396,-68.66846670018565,95.97808535736388,-117.3170153929455,-90.00021755105197,48.68727278001238,/home/najo/NAS/DIP/datasets/Fr5_intertek_dataset/preprocessed_roi/Fr5_intertek_6th_250526_zed_38007749_right_1748249285.548.jpg,243,272,1016,1010
/home/najo/NAS/DIP/datasets/Fr5_intertek_dataset/Fr5_intertek_6th_250526/right/zed_34850673_right_1748249285.554.jpg,34850673,right,1748249285.554,/home/najo/NAS/DIP/datasets/Fr5_intertek_dataset/Fr5_intertek_6th_250526/joint/joint_34850673_1748249285.554.json,1748249285.554,0.0,-41.31316232209158,-68.62865485767327,96.0226833230198,-117.399467241646,-90.0,48.68705522896039,/home/najo/NAS/DIP/datasets/Fr5_intertek_dataset/preprocessed_roi/Fr5_intertek_6th_250526_zed_34850673_right_1748249285.554.jpg,772,265,1470,1029
/home/najo/NAS/DIP/datasets/Fr5_intertek_dataset/Fr5_intertek_6th_250526/right/zed_34850673_left_1748249285.554.jpg,34850673,left,1748249285.554,/home/najo/NAS/DIP/datasets/Fr5_intertek_dataset/Fr5_intertek_6th_250526/joint/joint_34850673_1748249285.554.json,1748249285.554,0.0,-41.31316232209158,-68.62865485767327,96.0226833230198,-117.399467241646,-90.0,48.68705522896039,/home/najo/NAS/DIP/datasets/Fr5_intertek_dataset/preprocessed_roi/Fr5_intertek_6th_250526_zed_34850673_left_1748249285.554.jpg,877,265,1616,1029
/home/najo/NAS/DIP/datasets/Fr5_intertek_dataset/Fr5_intertek_6th_250526/top/zed_30779426_left_1748249285.681.jpg,30779426,left,1748249285.681,/home/najo/NAS/DIP/datasets/Fr5_intertek_dataset/Fr5_intertek_6th_250526/joint/joint_30779426_1748249285.681.json,1748249285.681,0.0,-41.31250966893564,-67.98187558013613,96.7532197555693,-118.771126624381,-90.0,48.68727278001238,/home/najo/NAS/DIP/datasets/Fr5_intertek_dataset/preprocessed_roi/Fr5_intertek_6th_250526_zed_30779426_left_1748249285.681.jpg,941,194,1425,721
/home/najo/NAS/DIP/datasets/Fr5_intertek_dataset/Fr5_intertek_6th_250526/top/zed_30779426_right_1748249285.681.jpg,30779426,right,1748249285.681,/home/najo/NAS/DIP/datasets/Fr5_intertek_dataset/Fr5_intertek_6th_250526/joint/joint_30779426_1748249285.681.json,1748249285.681,0.0,-41.31250966893564,-67.98187558013613,96.7532197555693,-118.771126624381,-90.0,48.68727278001238,/home/najo/NAS/DIP/datasets/Fr5_intertek_dataset/preprocessed_roi/Fr5_intertek_6th_250526_zed_30779426_right_1748249285.681.jpg,847,194,1316,723
/home/najo/NAS/DIP/datasets/Fr5_intertek_dataset/Fr5_intertek_6th_250526/left/zed_38007749_right_1748249285.686.jpg,38007749,right,1748249285.686,/home/najo/NAS/DIP/datasets/Fr5_intertek_dataset/Fr5_intertek_6th_250526/joint/joint_30779426_1748249285.681.json,1748249285.681,0.0050001144409179,-41.31250966893564,-67.98187558013613,96.7532197555693,-118.771126624381,-90.0,48.68727278001238,/home/najo/NAS/DIP/datasets/Fr5_intertek_dataset/preprocessed_roi/Fr5_intertek_6th_250526_zed_38007749_right_1748249285.686.jpg,243,274,1016,1010
/home/najo/NAS/DIP/datasets/Fr5_intertek_dataset/Fr5_intertek_6th_250526/left/zed_38007749_left_1748249285.686.jpg,38007749,left,1748249285.686,/home/najo/NAS/DIP/datasets/Fr5_intertek_dataset/Fr5_intertek_6th_250526/joint/joint_30779426_1748249285.681.json,1748249285.681,0.0050001144409179,-41.31250966893564,-67.98187558013613,96.7532197555693,-118.771126624381,-90.0,48.68727278001238,/home/najo/NAS/DIP/datasets/Fr5_intertek_dataset/preprocessed_roi/Fr5_intertek_6th_250526_zed_38007749_left_1748249285.686.jpg,382,274,1226,1077
/home/najo/NAS/DIP/datasets/Fr5_intertek_dataset/Fr5_intertek_6th_250526/right/zed_34850673_right_1748249285.695.jpg,34850673,right,1748249285.695,/home/najo/NAS/DIP/datasets/Fr5_intertek_dataset/Fr5_intertek_6th_250526/joint/joint_34850673_1748249285.695.json,1748249285.695,0.0,-41.31229211788366,-67.91769801980197,96.8213132348391,-118.8957833771658,-90.0,48.68727278001238,/home/najo/NAS/DIP/datasets/Fr5_intertek_dataset/preprocessed_roi/Fr5_intertek_6th_250526_zed_34850673_right_1748249285.695.jpg,772,270,1470,1029
/home/najo/NAS/DIP/datasets/Fr5_intertek_dataset/Fr5_intertek_6th_250526/right/zed_34850673_left_1748249285.695.jpg,34850673,left,1748249285.695,/home/najo/NAS/DIP/datasets/Fr5_intertek_dataset/Fr5_intertek_6th_250526/joint/joint_34850673_1748249285.695.json,1748249285.695,0.0,-41.31229211788366,-67.91769801980197,96.8213132348391,-118.8957833771658,-90.0,48.68727278001238,/home/najo/NAS/DIP/datasets/Fr5_intertek_dataset/preprocessed_roi/Fr5_intertek_6th_250526_zed_34850673_left_1748249285.695.jpg,881,270,1616,1029
/home/najo/NAS/DIP/datasets/Fr5_intertek_dataset/Fr5_intertek_6th_250526/left/zed_38007749_left_1748249285.823.jpg,38007749,left,1748249285.823,/home/najo/NAS/DIP/datasets/Fr5_intertek_dataset/Fr5_intertek_6th_250526/joint/joint_38007749_1748249285.823.json,1748249285.823,0.0,-41.3129447710396,-67.22610322555693,97.5211749690594,-120.2900680693069,-90.00065265315594,48.68727278001238,/home/najo/NAS/DIP/datasets/Fr5_intertek_dataset/preprocessed_roi/Fr5_intertek_6th_250526_zed_38007749_left_1748249285.823.jpg,382,276,1226,1077
/home/najo/NAS/DIP/datasets/Fr5_intertek_dataset/Fr5_intertek_6th_250526/left/zed_38007749_right_1748249285.823.jpg,38007749,right,1748249285.823,/home/najo/NAS/DIP/datasets/Fr5_intertek_dataset/Fr5_intertek_6th_250526/joint/joint_38007749_1748249285.823.json,1748249285.823,0.0,-41.3129447710396,-67.22610322555693,97.5211749690594,-120.2900680693069,-90.00065265315594,48.68727278001238,/home/najo/NAS/DIP/datasets/Fr5_intertek_dataset/preprocessed_roi/Fr5_intertek_6th_250526_zed_38007749_right_1748249285.823.jpg,243,276,1016,1016
/home/najo/NAS/DIP/datasets/Fr5_intertek_dataset/Fr5_intertek_6th_250526/top/zed_30779426_left_1748249285.827.jpg,30779426,left,1748249285.827,/home/najo/NAS/DIP/datasets/Fr5_intertek_dataset/Fr5_intertek_6th_250526/joint/joint_30779426_1748249285.827.json,1748249285.827,0.0,-41.31316232209158,-67.21522567295793,97.5320525216584,-120.3116056234529,-90.00021755105197,48.68705522896039,/home/najo/NAS/DIP/datasets/Fr5_intertek_dataset/preprocessed_roi/Fr5_intertek_6th_250526_zed_30779426_left_1748249285.827.jpg,941,196,1421,721
/home/najo/NAS/DIP/datasets/Fr5_intertek_dataset/Fr5_intertek_6th_250526/top/zed_30779426_right_1748249285.827.jpg,30779426,right,1748249285.827,/home/najo/NAS/DIP/datasets/Fr5_intertek_dataset/Fr5_intertek_6th_250526/joint/joint_30779426_1748249285.827.json,1748249285.827,0.0,-41.31316232209158,-67.21522567295793,97.5320525216584,-120.3116056234529,-90.00021755105197,48.68705522896039,/home/najo/NAS/DIP/datasets/Fr5_intertek_dataset/preprocessed_roi/Fr5_intertek_6th_250526_zed_30779426_right_1748249285.827.jpg,847,196,1316,723
/home/najo/NAS/DIP/datasets/Fr5_intertek_dataset/Fr5_intertek_6th_250526/right/zed_34850673_left_1748249285.835.jpg,34850673,left,1748249285.835,/home/najo/NAS/DIP/datasets/Fr5_intertek_dataset/Fr5_intertek_6th_250526/joint/joint_34850673_1748249285.835.json,1748249285.835,0.0,-41.31316232209158,-67.18259301516089,97.56381497524752,-120.375130530631,-90.00021755105197,48.68727278001238,/home/najo/NAS/DIP/datasets/Fr5_intertek_dataset/preprocessed_roi/Fr5_intertek_6th_250526_zed_34850673_left_1748249285.835.jpg,881,274,1616,1029
/home/najo/NAS/DIP/datasets/Fr5_intertek_dataset/Fr5_intertek_6th_250526/right/zed_34850673_right_1748249285.835.jpg,34850673,right,1748249285.835,/home/najo/NAS/DIP/datasets/Fr5_intertek_dataset/Fr5_intertek_6th_250526/joint/joint_34850673_1748249285.835.json,1748249285.835,0.0,-41.31316232209158,-67.18259301516089,97.56381497524752,-120.375130530631,-90.00021755105197,48.68727278001238,/home/najo/NAS/DIP/datasets/Fr5_intertek_dataset/preprocessed_roi/Fr5_intertek_6th_250526_zed_34850673_right_1748249285.835.jpg,772,272,1470,1029
/home/najo/NAS/DIP/datasets/Fr5_intertek_dataset/Fr5_intertek_6th_250526/left/zed_38007749_left_1748249285.964.jpg,38007749,left,1748249285.964,/home/najo/NAS/DIP/datasets/Fr5_intertek_dataset/Fr5_intertek_6th_250526/joint/joint_38007749_1748249285.964.json,1748249285.964,0.0,-41.3140325262995,-66.58846109220298,98.10725750309406,-121.5309792698019,-90.00021755105197,48.68705522896039,/home/najo/NAS/DIP/datasets/Fr5_intertek_dataset/preprocessed_roi/Fr5_intertek_6th_250526_zed_38007749_left_1748249285.964.jpg,382,278,1226,1077
/home/najo/NAS/DIP/datasets/Fr5_intertek_dataset/Fr5_intertek_6th_250526/left/zed_38007749_right_1748249285.964.jpg,38007749,right,1748249285.964,/home/najo/NAS/DIP/datasets/Fr5_intertek_dataset/Fr5_intertek_6th_250526/joint/joint_38007749_1748249285.964.json,1748249285.964,0.0,-41.3140325262995,-66.58846109220298,98.10725750309406,-121.5309792698019,-90.00021755105197,48.68705522896039,/home/najo/NAS/DIP/datasets/Fr5_intertek_dataset/preprocessed_roi/Fr5_intertek_6th_250526_zed_38007749_right_1748249285.964.jpg,243,276,1016,1037
/home/najo/NAS/DIP/datasets/Fr5_intertek_dataset/Fr5_intertek_6th_250526/top/zed_30779426_right_1748249285.968.jpg,30779426,right,1748249285.968,/home/najo/NAS/DIP/datasets/Fr5_intertek_dataset/Fr5_intertek_6th_250526/joint/joint_30779426_1748249285.968.json,1748249285.968,0.0,-41.31425007735149,-66.5791063969678,98.11530689201732,-121.5472955987005,-90.0,48.68705522896039,/home/najo/NAS/DIP/datasets/Fr5_intertek_dataset/preprocessed_roi/Fr5_intertek_6th_250526_zed_30779426_right_1748249285.968.jpg,847,198,1312,723
/home/najo/NAS/DIP/datasets/Fr5_intertek_dataset/Fr5_intertek_6th_250526/top/zed_30779426_left_1748249285.968.jpg,30779426,left,1748249285.968,/home/najo/NAS/DIP/datasets/Fr5_intertek_dataset/Fr5_intertek_6th_250526/joint/joint_30779426_1748249285.968.json,1748249285.968,0.0,-41.31425007735149,-66.5791063969678,98.11530689201732,-121.5472955987005,-90.0,48.68705522896039,/home/najo/NAS/DIP/datasets/Fr5_intertek_dataset/preprocessed_roi/Fr5_intertek_6th_250526_zed_30779426_left_1748249285.968.jpg,941,200,1417,721
/home/najo/NAS/DIP/datasets/Fr5_intertek_dataset/Fr5_intertek_6th_250526/right/zed_34850673_right_1748249285.973.jpg,34850673,right,1748249285.973,/home/najo/NAS/DIP/datasets/Fr5_intertek_dataset/Fr5_intertek_6th_250526/joint/joint_34850673_1748249285.973.json,1748249285.973,0.0,-41.3140325262995,-66.55865659808168,98.13336362933168,-121.584931930693,-90.0,48.68727278001238,/home/najo/NAS/DIP/datasets/Fr5_intertek_dataset/preprocessed_roi/Fr5_intertek_6th_250526_zed_34850673_right_1748249285.973.jpg,772,276,1470,1029
/home/najo/NAS/DIP/datasets/Fr5_intertek_dataset/Fr5_intertek_6th_250526/right/zed_34850673_left_1748249285.973.jpg,34850673,left,1748249285.973,/home/najo/NAS/DIP/datasets/Fr5_intertek_dataset/Fr5_intertek_6th_250526/joint/joint_34850673_1748249285.973.json,1748249285.973,0.0,-41.3140325262995,-66.55865659808168,98.13336362933168,-121.584931930693,-90.0,48.68727278001238,/home/najo/NAS/DIP/datasets/Fr5_intertek_dataset/preprocessed_roi/Fr5_intertek_6th_250526_zed_34850673_left_1748249285.973.jpg,881,278,1616,1029
/home/najo/NAS/DIP/datasets/Fr5_intertek_dataset/Fr5_intertek_6th_250526/left/zed_38007749_left_1748249286.103.jpg,38007749,left,1748249286.103,/home/najo/NAS/DIP/datasets/Fr5_intertek_dataset/Fr5_intertek_6th_250526/joint/joint_38007749_1748249286.103.json,1748249286.103,0.0,-41.31359742419554,-66.4252978032178,98.2462726253094,-121.8242380878713,-90.0,48.68727278001238,/home/najo/NAS/DIP/datasets/Fr5_intertek_dataset/preprocessed_roi/Fr5_intertek_6th_250526_zed_38007749_left_1748249286.103.jpg,382,278,1226,1077
/home/najo/NAS/DIP/datasets/Fr5_intertek_dataset/Fr5_intertek_6th_250526/left/zed_38007749_right_1748249286.103.jpg,38007749,right,1748249286.103,/home/najo/NAS/DIP/datasets/Fr5_intertek_dataset/Fr5_intertek_6th_250526/joint/joint_38007749_1748249286.103.json,1748249286.103,0.0,-41.31359742419554,-66.4252978032178,98.2462726253094,-121.8242380878713,-90.0,48.68727278001238,/home/najo/NAS/DIP/datasets/Fr5_intertek_dataset/preprocessed_roi/Fr5_intertek_6th_250526_zed_38007749_right_1748249286.103.jpg,243,278,1016,1048
/home/najo/NAS/DIP/datasets/Fr5_intertek_dataset/Fr5_intertek_6th_250526/top/zed_30779426_right_1748249286.107.jpg,30779426,right,1748249286.107,/home/najo/NAS/DIP/datasets/Fr5_intertek_dataset/Fr5_intertek_6th_250526/joint/joint_30779426_1748249286.107.json,1748249286.107,0.0,-41.31337987314356,-66.4255153542698,98.24540242110147,-121.8220625773515,-90.0,48.68727278001238,/home/najo/NAS/DIP/datasets/Fr5_intertek_dataset/preprocessed_roi/Fr5_intertek_6th_250526_zed_30779426_right_1748249286.107.jpg,847,202,1312,723
/home/najo/NAS/DIP/datasets/Fr5_intertek_dataset/Fr5_intertek_6th_250526/top/zed_30779426_left_1748249286.107.jpg,30779426,left,1748249286.107,/home/najo/NAS/DIP/datasets/Fr5_intertek_dataset/Fr5_intertek_6th_250526/joint/joint_30779426_1748249286.107.json,1748249286.107,0.0,-41.31337987314356,-66.4255153542698,98.24540242110147,-121.8220625773515,-90.0,48.68727278001238,/home/najo/NAS/DIP/datasets/Fr5_intertek_dataset/preprocessed_roi/Fr5_intertek_6th_250526_zed_30779426_left_1748249286.107.jpg,941,202,1413,721
/home/najo/NAS/DIP/datasets/Fr5_intertek_dataset/Fr5_intertek_6th_250526/right/zed_34850673_right_1748249286.113.jpg,34850673,right,1748249286.113,/home/najo/NAS/DIP/datasets/Fr5_intertek_dataset/Fr5_intertek_6th_250526/joint/joint_34850673_1748249286.113.json,1748249286.113,0.0,-41.31359742419554,-66.42725576268565,98.23952854269804,-121.8068340037128,-90.0,48.68727278001238,/home/najo/NAS/DIP/datasets/Fr5_intertek_dataset/preprocessed_roi/Fr5_intertek_6th_250526_zed_34850673_right_1748249286.113.jpg,776,278,1470,1029
/home/najo/NAS/DIP/datasets/Fr5_intertek_dataset/Fr5_intertek_6th_250526/right/zed_34850673_left_1748249286.113.jpg,34850673,left,1748249286.113,/home/najo/NAS/DIP/datasets/Fr5_intertek_dataset/Fr5_intertek_6th_250526/joint/joint_34850673_1748249286.113.json,1748249286.113,0.0,-41.31359742419554,-66.42725576268565,98.23952854269804,-121.8068340037128,-90.0,48.68727278001238,/home/najo/NAS/DIP/datasets/Fr5_intertek_dataset/preprocessed_roi/Fr5_intertek_6th_250526_zed_34850673_left_1748249286.113.jpg,881,278,1616,1029
/home/najo/NAS/DIP/datasets/Fr5_intertek_dataset/Fr5_intertek_6th_250526/left/zed_38007749_left_1748249286.242.jpg,38007749,left,1748249286.242,/home/najo/NAS/DIP/datasets/Fr5_intertek_dataset/Fr5_intertek_6th_250526/joint/joint_38007749_1748249286.242.json,1748249286.242,0.0,-41.3129447710396,-66.78099377320545,97.92843053836634,-121.1245939047029,-90.0,48.68705522896039,/home/najo/NAS/DIP/datasets/Fr5_intertek_dataset/preprocessed_roi/Fr5_intertek_6th_250526_zed_38007749_left_1748249286.242.jpg,382,278,1226,1077
/home/najo/NAS/DIP/datasets/Fr5_intertek_dataset/Fr5_intertek_6th_250526/left/zed_38007749_right_1748249286.242.jpg,38007749,right,1748249286.242,/home/najo/NAS/DIP/datasets/Fr5_intertek_dataset/Fr5_intertek_6th_250526/joint/joint_38007749_1748249286.242.json,1748249286.242,0.0,-41.3129447710396,-66.78099377320545,97.92843053836634,-121.1245939047029,-90.0,48.68705522896039,/home/najo/NAS/DIP/datasets/Fr5_intertek_dataset/preprocessed_roi/Fr5_intertek_6th_250526_zed_38007749_right_1748249286.242.jpg,243,278,1016,1046
/home/najo/NAS/DIP/datasets/Fr5_intertek_dataset/Fr5_intertek_6th_250526/top/zed_30779426_right_1748249286.247.jpg,30779426,right,1748249286.247,/home/najo/NAS/DIP/datasets/Fr5_intertek_dataset/Fr5_intertek_6th_250526/joint/joint_30779426_1748249286.247.json,1748249286.247,0.0,-41.31337987314356,-66.79056601949257,97.9199460473391,-121.1056669631807,-90.0,48.68727278001238,/home/najo/NAS/DIP/datasets/Fr5_intertek_dataset/preprocessed_roi/Fr5_intertek_6th_250526_zed_30779426_right_1748249286.247.jpg,847,202,1312,723
/home/najo/NAS/DIP/datasets/Fr5_intertek_dataset/Fr5_intertek_6th_250526/top/zed_30779426_left_1748249286.247.jpg,30779426,left,1748249286.247,/home/najo/NAS/DIP/datasets/Fr5_intertek_dataset/Fr5_intertek_6th_250526/joint/joint_30779426_1748249286.247.json,1748249286.247,0.0,-41.31337987314356,-66.79056601949257,97.9199460473391,-121.1056669631807,-90.0,48.68727278001238,/home/najo/NAS/DIP/datasets/Fr5_intertek_dataset/preprocessed_roi/Fr5_intertek_6th_250526_zed_30779426_left_1748249286.247.jpg,941,202,1413,721
/home/najo/NAS/DIP/datasets/Fr5_intertek_dataset/Fr5_intertek_6th_250526/right/zed_34850673_left_1748249286.252.jpg,34850673,left,1748249286.252,/home/najo/NAS/DIP/datasets/Fr5_intertek_dataset/Fr5_intertek_6th_250526/joint/joint_34850673_1748249286.252.json,1748249286.252,0.0,-41.31316232209158,-66.8440835782797,97.87121461169556,-121.00233021349,-89.99978244894803,48.68727278001238,/home/najo/NAS/DIP/datasets/Fr5_intertek_dataset/preprocessed_roi/Fr5_intertek_6th_250526_zed_34850673_left_1748249286.252.jpg,881,278,1616,1029
/home/najo/NAS/DIP/datasets/Fr5_intertek_dataset/Fr5_intertek_6th_250526/right/zed_34850673_right_1748249286.252.jpg,34850673,right,1748249286.252,/home/najo/NAS/DIP/datasets/Fr5_intertek_dataset/Fr5_intertek_6th_250526/joint/joint_34850673_1748249286.252.json,1748249286.252,0.0,-41.31316232209158,-66.8440835782797,97.87121461169556,-121.00233021349,-89.99978244894803,48.68727278001238,/home/najo/NAS/DIP/datasets/Fr5_intertek_dataset/preprocessed_roi/Fr5_intertek_6th_250526_zed_34850673_right_1748249286.252.jpg,772,278,1470,1029
/home/najo/NAS/DIP/datasets/Fr5_intertek_dataset/Fr5_intertek_6th_250526/left/zed_38007749_right_1748249286.381.jpg,38007749,right,1748249286.381,/home/najo/NAS/DIP/datasets/Fr5_intertek_dataset/Fr5_intertek_6th_250526/joint/joint_38007749_1748249286.381.json,1748249286.381,0.0,-41.31229211788366,-67.65076287902228,97.0928169477104,-119.430306311881,-89.99956489789604,48.68727278001238,/home/najo/NAS/DIP/datasets/Fr5_intertek_dataset/preprocessed_roi/Fr5_intertek_6th_250526_zed_38007749_right_1748249286.381.jpg,243,276,1016,1027
/home/najo/NAS/DIP/datasets/Fr5_intertek_dataset/Fr5_intertek_6th_250526/left/zed_38007749_left_1748249286.381.jpg,38007749,left,1748249286.381,/home/najo/NAS/DIP/datasets/Fr5_intertek_dataset/Fr5_intertek_6th_250526/joint/joint_38007749_1748249286.381.json,1748249286.381,0.0,-41.31229211788366,-67.65076287902228,97.0928169477104,-119.430306311881,-89.99956489789604,48.68727278001238,/home/najo/NAS/DIP/datasets/Fr5_intertek_dataset/preprocessed_roi/Fr5_intertek_6th_250526_zed_38007749_left_1748249286.381.jpg,382,276,1226,1077
/home/najo/NAS/DIP/datasets/Fr5_intertek_dataset/Fr5_intertek_6th_250526/top/zed_30779426_right_1748249286.386.jpg,30779426,right,1748249286.386,/home/najo/NAS/DIP/datasets/Fr5_intertek_dataset/Fr5_intertek_6th_250526/joint/joint_38007749_1748249286.381.json,1748249286.381,0.0049998760223388,-41.31229211788366,-67.65076287902228,97.0928169477104,-119.430306311881,-89.99956489789604,48.68727278001238,/home/najo/NAS/DIP/datasets/Fr5_intertek_dataset/preprocessed_roi/Fr5_intertek_6th_250526_zed_30779426_right_1748249286.386.jpg,847,198,1312,723
/home/najo/NAS/DIP/datasets/Fr5_intertek_dataset/Fr5_intertek_6th_250526/top/zed_30779426_left_1748249286.386.jpg,30779426,left,1748249286.386,/home/najo/NAS/DIP/datasets/Fr5_intertek_dataset/Fr5_intertek_6th_250526/joint/joint_38007749_1748249286.381.json,1748249286.381,0.0049998760223388,-41.31229211788366,-67.65076287902228,97.0928169477104,-119.430306311881,-89.99956489789604,48.68727278001238,/home/najo/NAS/DIP/datasets/Fr5_intertek_dataset/preprocessed_roi/Fr5_intertek_6th_250526_zed_30779426_left_1748249286.386.jpg,941,198,1417,721
/home/najo/NAS/DIP/datasets/Fr5_intertek_dataset/Fr5_intertek_6th_250526/right/zed_34850673_left_1748249286.392.jpg,34850673,left,1748249286.392,/home/najo/NAS/DIP/datasets/Fr5_intertek_dataset/Fr5_intertek_6th_250526/joint/joint_34850673_1748249286.392.json,1748249286.392,0.0,-41.31142191367574,-67.72603554300743,97.01406346689356,-119.2723642481435,-89.99978244894803,48.68705522896039,/home/najo/NAS/DIP/datasets/Fr5_intertek_dataset/preprocessed_roi/Fr5_intertek_6th_250526_zed_34850673_left_1748249286.392.jpg,881,276,1616,1029
/home/najo/NAS/DIP/datasets/Fr5_intertek_dataset/Fr5_intertek_6th_250526/top/zed_30779426_left_1748249286.520.jpg,30779426,left,1748249286.52,/home/najo/NAS/DIP/datasets/Fr5_intertek_dataset/Fr5_intertek_6th_250526/joint/joint_30779426_1748249286.520.json,1748249286.52,0.0,-41.31207456683168,-68.5405466816213,96.12188660272275,-117.5700272663985,-90.0,48.68727278001238,/home/najo/NAS/DIP/datasets/Fr5_intertek_dataset/preprocessed_roi/Fr5_intertek_6th_250526_zed_30779426_left_1748249286.520.jpg,941,196,1421,721
/home/najo/NAS/DIP/datasets/Fr5_intertek_dataset/Fr5_intertek_6th_250526/right/zed_34850673_right_1748249286.392.jpg,34850673,right,1748249286.392,/home/najo/NAS/DIP/datasets/Fr5_intertek_dataset/Fr5_intertek_6th_250526/joint/joint_34850673_1748249286.392.json,1748249286.392,0.0,-41.31142191367574,-67.72603554300743,97.01406346689356,-119.2723642481435,-89.99978244894803,48.68705522896039,/home/najo/NAS/DIP/datasets/Fr5_intertek_dataset/preprocessed_roi/Fr5_intertek_6th_250526_zed_34850673_right_1748249286.392.jpg,772,276,1470,1029
/home/najo/NAS/DIP/datasets/Fr5_intertek_dataset/Fr5_intertek_6th_250526/top/zed_30779426_right_1748249286.520.jpg,30779426,right,1748249286.52,/home/najo/NAS/DIP/datasets/Fr5_intertek_dataset/Fr5_intertek_6th_250526/joint/joint_30779426_1748249286.520.json,1748249286.52,0.0,-41.31207456683168,-68.5405466816213,96.12188660272275,-117.5700272663985,-90.0,48.68727278001238,/home/najo/NAS/DIP/datasets/Fr5_intertek_dataset/preprocessed_roi/Fr5_intertek_6th_250526_zed_30779426_right_1748249286.520.jpg,847,196,1316,723
/home/najo/NAS/DIP/datasets/Fr5_intertek_dataset/Fr5_intertek_6th_250526/left/zed_38007749_right_1748249286.525.jpg,38007749,right,1748249286.525,/home/najo/NAS/DIP/datasets/Fr5_intertek_dataset/Fr5_intertek_6th_250526/joint/joint_30779426_1748249286.520.json,1748249286.52,0.0050001144409179,-41.31207456683168,-68.5405466816213,96.12188660272275,-117.5700272663985,-90.0,48.68727278001238,/home/najo/NAS/DIP/datasets/Fr5_intertek_dataset/preprocessed_roi/Fr5_intertek_6th_250526_zed_38007749_right_1748249286.525.jpg,243,274,1016,1010
/home/najo/NAS/DIP/datasets/Fr5_intertek_dataset/Fr5_intertek_6th_250526/left/zed_38007749_left_1748249286.525.jpg,38007749,left,1748249286.525,/home/najo/NAS/DIP/datasets/Fr5_intertek_dataset/Fr5_intertek_6th_250526/joint/joint_30779426_1748249286.520.json,1748249286.52,0.0050001144409179,-41.31207456683168,-68.5405466816213,96.12188660272275,-117.5700272663985,-90.0,48.68727278001238,/home/najo/NAS/DIP/datasets/Fr5_intertek_dataset/preprocessed_roi/Fr5_intertek_6th_250526_zed_38007749_left_1748249286.525.jpg,382,274,1226,1077
/home/najo/NAS/DIP/datasets/Fr5_intertek_dataset/Fr5_intertek_6th_250526/right/zed_34850673_right_1748249286.533.jpg,34850673,right,1748249286.533,/home/najo/NAS/DIP/datasets/Fr5_intertek_dataset/Fr5_intertek_6th_250526/joint/joint_34850673_1748249286.533.json,1748249286.533,0.0,-41.31229211788366,-68.62212832611387,96.02659924195544,-117.3914178527227,-90.0,48.68727278001238,/home/najo/NAS/DIP/datasets/Fr5_intertek_dataset/preprocessed_roi/Fr5_intertek_6th_250526_zed_34850673_right_1748249286.533.jpg,772,270,1470,1029
/home/najo/NAS/DIP/datasets/Fr5_intertek_dataset/Fr5_intertek_6th_250526/right/zed_34850673_left_1748249286.533.jpg,34850673,left,1748249286.533,/home/najo/NAS/DIP/datasets/Fr5_intertek_dataset/Fr5_intertek_6th_250526/joint/joint_34850673_1748249286.533.json,1748249286.533,0.0,-41.31229211788366,-68.62212832611387,96.02659924195544,-117.3914178527227,-90.0,48.68727278001238,/home/najo/NAS/DIP/datasets/Fr5_intertek_dataset/preprocessed_roi/Fr5_intertek_6th_250526_zed_34850673_left_1748249286.533.jpg,881,270,1616,1029
/home/najo/NAS/DIP/datasets/Fr5_intertek_dataset/Fr5_intertek_6th_250526/left/zed_38007749_left_1748249286.659.jpg,38007749,left,1748249286.659,/home/najo/NAS/DIP/datasets/Fr5_intertek_dataset/Fr5_intertek_6th_250526/joint/joint_38007749_1748249286.659.json,1748249286.659,0.0,-41.31316232209158,-69.38660272277228,95.07285543007426,-115.6773331141708,-90.0,48.68705522896039,/home/najo/NAS/DIP/datasets/Fr5_intertek_dataset/preprocessed_roi/Fr5_intertek_6th_250526_zed_38007749_left_1748249286.659.jpg,382,272,1230,1061
/home/najo/NAS/DIP/datasets/Fr5_intertek_dataset/Fr5_intertek_6th_250526/left/zed_38007749_right_1748249286.659.jpg,38007749,right,1748249286.659,/home/najo/NAS/DIP/datasets/Fr5_intertek_dataset/Fr5_intertek_6th_250526/joint/joint_38007749_1748249286.659.json,1748249286.659,0.0,-41.31316232209158,-69.38660272277228,95.07285543007426,-115.6773331141708,-90.0,48.68705522896039,/home/najo/NAS/DIP/datasets/Fr5_intertek_dataset/preprocessed_roi/Fr5_intertek_6th_250526_zed_38007749_right_1748249286.659.jpg,243,272,1016,1010
/home/najo/NAS/DIP/datasets/Fr5_intertek_dataset/Fr5_intertek_6th_250526/top/zed_30779426_right_1748249286.663.jpg,30779426,right,1748249286.663,/home/najo/NAS/DIP/datasets/Fr5_intertek_dataset/Fr5_intertek_6th_250526/joint/joint_30779426_1748249286.663.json,1748249286.663,0.0,-41.31316232209158,-69.40422435798267,95.05001256961634,-115.639696782178,-90.00021755105197,48.68727278001238,/home/najo/NAS/DIP/datasets/Fr5_intertek_dataset/preprocessed_roi/Fr5_intertek_6th_250526_zed_30779426_right_1748249286.663.jpg,847,191,1320,723
/home/najo/NAS/DIP/datasets/Fr5_intertek_dataset/Fr5_intertek_6th_250526/top/zed_30779426_left_1748249286.663.jpg,30779426,left,1748249286.663,/home/najo/NAS/DIP/datasets/Fr5_intertek_dataset/Fr5_intertek_6th_250526/joint/joint_30779426_1748249286.663.json,1748249286.663,0.0,-41.31316232209158,-69.40422435798267,95.05001256961634,-115.639696782178,-90.00021755105197,48.68727278001238,/home/najo/NAS/DIP/datasets/Fr5_intertek_dataset/preprocessed_roi/Fr5_intertek_6th_250526_zed_30779426_left_1748249286.663.jpg,941,191,1428,721
/home/najo/NAS/DIP/datasets/Fr5_intertek_dataset/Fr5_intertek_6th_250526/right/zed_34850673_left_1748249286.671.jpg,34850673,left,1748249286.671,/home/najo/NAS/DIP/datasets/Fr5_intertek_dataset/Fr5_intertek_6th_250526/joint/joint_34850673_1748249286.671.json,1748249286.671,0.0,-41.3129447710396,-69.43294109684406,95.01063582920791,-115.5718208539604,-90.0,48.68749033106435,/home/najo/NAS/DIP/datasets/Fr5_intertek_dataset/preprocessed_roi/Fr5_intertek_6th_250526_zed_34850673_left_1748249286.671.jpg,877,265,1616,1029
/home/najo/NAS/DIP/datasets/Fr5_intertek_dataset/Fr5_intertek_6th_250526/right/zed_34850673_right_1748249286.671.jpg,34850673,right,1748249286.671,/home/najo/NAS/DIP/datasets/Fr5_intertek_dataset/Fr5_intertek_6th_250526/joint/joint_34850673_1748249286.671.json,1748249286.671,0.0,-41.3129447710396,-69.43294109684406,95.01063582920791,-115.5718208539604,-90.0,48.68749033106435,/home/najo/NAS/DIP/datasets/Fr5_intertek_dataset/preprocessed_roi/Fr5_intertek_6th_250526_zed_34850673_right_1748249286.671.jpg,772,265,1470,1029
/home/najo/NAS/DIP/datasets/Fr5_intertek_dataset/Fr5_intertek_6th_250526/left/zed_38007749_right_1748249286.799.jpg,38007749,right,1748249286.799,/home/najo/NAS/DIP/datasets/Fr5_intertek_dataset/Fr5_intertek_6th_250526/joint/joint_38007749_1748249286.799.json,1748249286.799,0.0,-41.3127272199876,-70.1630424272896,93.98422996596534,-113.8087871287128,-90.00021755105197,48.68727278001238,/home/najo/NAS/DIP/datasets/Fr5_intertek_dataset/preprocessed_roi/Fr5_intertek_6th_250526_zed_38007749_right_1748249286.799.jpg,243,270,1020,1010
/home/najo/NAS/DIP/datasets/Fr5_intertek_dataset/Fr5_intertek_6th_250526/left/zed_38007749_left_1748249286.799.jpg,38007749,left,1748249286.799,/home/najo/NAS/DIP/datasets/Fr5_intertek_dataset/Fr5_intertek_6th_250526/joint/joint_38007749_1748249286.799.json,1748249286.799,0.0,-41.3127272199876,-70.1630424272896,93.98422996596534,-113.8087871287128,-90.00021755105197,48.68727278001238,/home/najo/NAS/DIP/datasets/Fr5_intertek_dataset/preprocessed_roi/Fr5_intertek_6th_250526_zed_38007749_left_1748249286.799.jpg,382,270,1230,1039
/home/najo/NAS/DIP/datasets/Fr5_intertek_dataset/Fr5_intertek_6th_250526/top/zed_30779426_left_1748249286.803.jpg,30779426,left,1748249286.803,/home/najo/NAS/DIP/datasets/Fr5_intertek_dataset/Fr5_intertek_6th_250526/joint/joint_30779426_1748249286.803.json,1748249286.803,0.0,-41.31250966893564,-70.18457998143565,93.94985689975248,-113.7526589573019,-90.0,48.68727278001238,/home/najo/NAS/DIP/datasets/Fr5_intertek_dataset/preprocessed_roi/Fr5_intertek_6th_250526_zed_30779426_left_1748249286.803.jpg,941,187,1432,721
/home/najo/NAS/DIP/datasets/Fr5_intertek_dataset/Fr5_intertek_6th_250526/top/zed_30779426_right_1748249286.803.jpg,30779426,right,1748249286.803,/home/najo/NAS/DIP/datasets/Fr5_intertek_dataset/Fr5_intertek_6th_250526/joint/joint_30779426_1748249286.803.json,1748249286.803,0.0,-41.31250966893564,-70.18457998143565,93.94985689975248,-113.7526589573019,-90.0,48.68727278001238,/home/najo/NAS/DIP/datasets/Fr5_intertek_dataset/preprocessed_roi/Fr5_intertek_6th_250526_zed_30779426_right_1748249286.803.jpg,847,187,1323,723
/home/najo/NAS/DIP/datasets/Fr5_intertek_dataset/Fr5_intertek_6th_250526/right/zed_34850673_left_1748249286.809.jpg,34850673,left,1748249286.809,/home/najo/NAS/DIP/datasets/Fr5_intertek_dataset/Fr5_intertek_6th_250526/joint/joint_34850673_1748249286.809.json,1748249286.809,0.0,-41.31250966893564,-70.20111386138613,93.92375077351484,-113.7102365021658,-90.0,48.68727278001238,/home/najo/NAS/DIP/datasets/Fr5_intertek_dataset/preprocessed_roi/Fr5_intertek_6th_250526_zed_34850673_left_1748249286.809.jpg,873,263,1616,1029
/home/najo/NAS/DIP/datasets/Fr5_intertek_dataset/Fr5_intertek_6th_250526/left/zed_38007749_left_1748249286.936.jpg,38007749,left,1748249286.936,/home/najo/NAS/DIP/datasets/Fr5_intertek_dataset/Fr5_intertek_6th_250526/joint/joint_38007749_1748249286.936.json,1748249286.936,0.0,-41.31359742419554,-70.87552212252476,92.82533551206684,-111.9472027769183,-90.0,48.68749033106435,/home/najo/NAS/DIP/datasets/Fr5_intertek_dataset/preprocessed_roi/Fr5_intertek_6th_250526_zed_38007749_left_1748249286.936.jpg,382,267,1230,1016
/home/najo/NAS/DIP/datasets/Fr5_intertek_dataset/Fr5_intertek_6th_250526/right/zed_34850673_right_1748249286.809.jpg,34850673,right,1748249286.809,/home/najo/NAS/DIP/datasets/Fr5_intertek_dataset/Fr5_intertek_6th_250526/joint/joint_34850673_1748249286.809.json,1748249286.809,0.0,-41.31250966893564,-70.20111386138613,93.92375077351484,-113.7102365021658,-90.0,48.68727278001238,/home/najo/NAS/DIP/datasets/Fr5_intertek_dataset/preprocessed_roi/Fr5_intertek_6th_250526_zed_34850673_right_1748249286.809.jpg,772,261,1470,1029
/home/najo/NAS/DIP/datasets/Fr5_intertek_dataset/Fr5_intertek_6th_250526/left/zed_38007749_right_1748249286.936.jpg,38007749,right,1748249286.936,/home/najo/NAS/DIP/datasets/Fr5_intertek_dataset/Fr5_intertek_6th_250526/joint/joint_38007749_1748249286.936.json,1748249286.936,0.0,-41.31359742419554,-70.87552212252476,92.82533551206684,-111.9472027769183,-90.0,48.68749033106435,/home/najo/NAS/DIP/datasets/Fr5_intertek_dataset/preprocessed_roi/Fr5_intertek_6th_250526_zed_38007749_right_1748249286.936.jpg,243,267,1020,1008
/home/najo/NAS/DIP/datasets/Fr5_intertek_dataset/Fr5_intertek_6th_250526/top/zed_30779426_right_1748249286.940.jpg,30779426,right,1748249286.94,/home/najo/NAS/DIP/datasets/Fr5_intertek_dataset/Fr5_intertek_6th_250526/joint/joint_30779426_1748249286.940.json,1748249286.94,0.0,-41.31359742419554,-70.9135935566213,92.76485631961634,-111.8523505182549,-90.00021755105197,48.68727278001238,/home/najo/NAS/DIP/datasets/Fr5_intertek_dataset/preprocessed_roi/Fr5_intertek_6th_250526_zed_30779426_right_1748249286.940.jpg,847,183,1327,723
/home/najo/NAS/DIP/datasets/Fr5_intertek_dataset/Fr5_intertek_6th_250526/top/zed_30779426_left_1748249286.940.jpg,30779426,left,1748249286.94,/home/najo/NAS/DIP/datasets/Fr5_intertek_dataset/Fr5_intertek_6th_250526/joint/joint_30779426_1748249286.940.json,1748249286.94,0.0,-41.31359742419554,-70.9135935566213,92.76485631961634,-111.8523505182549,-90.00021755105197,48.68727278001238,/home/najo/NAS/DIP/datasets/Fr5_intertek_dataset/preprocessed_roi/Fr5_intertek_6th_250526_zed_30779426_left_1748249286.940.jpg,941,183,1440,721
/home/najo/NAS/DIP/datasets/Fr5_intertek_dataset/Fr5_intertek_6th_250526/right/zed_34850673_left_1748249286.946.jpg,34850673,left,1748249286.946,/home/najo/NAS/DIP/datasets/Fr5_intertek_dataset/Fr5_intertek_6th_250526/joint/joint_34850673_1748249286.946.json,1748249286.946,0.0,-41.31359742419554,-70.92403600711634,92.7476697865099,-111.8236337793935,-90.0,48.68705522896039,/home/najo/NAS/DIP/datasets/Fr5_intertek_dataset/preprocessed_roi/Fr5_intertek_6th_250526_zed_34850673_left_1748249286.946.jpg,877,259,1616,1029
/home/najo/NAS/DIP/datasets/Fr5_intertek_dataset/Fr5_intertek_6th_250526/right/zed_34850673_right_1748249286.946.jpg,34850673,right,1748249286.946,/home/najo/NAS/DIP/datasets/Fr5_intertek_dataset/Fr5_intertek_6th_250526/joint/joint_34850673_1748249286.946.json,1748249286.946,0.0,-41.31359742419554,-70.92403600711634,92.7476697865099,-111.8236337793935,-90.0,48.68705522896039,/home/najo/NAS/DIP/datasets/Fr5_intertek_dataset/preprocessed_roi/Fr5_intertek_6th_250526_zed_34850673_right_1748249286.946.jpg,772,259,1470,1029
/home/najo/NAS/DIP/datasets/Fr5_intertek_dataset/Fr5_intertek_6th_250526/left/zed_38007749_left_1748249287.073.jpg,38007749,left,1748249287.073,/home/najo/NAS/DIP/datasets/Fr5_intertek_dataset/Fr5_intertek_6th_250526/joint/joint_38007749_1748249287.073.json,1748249287.073,0.0,-41.3140325262995,-71.5451442605198,91.58768757735147,-110.0355816831683,-90.00021755105197,48.68727278001238,/home/najo/NAS/DIP/datasets/Fr5_intertek_dataset/preprocessed_roi/Fr5_intertek_6th_250526_zed_38007749_left_1748249287.073.jpg,382,267,1230,1010
/home/najo/NAS/DIP/datasets/Fr5_intertek_dataset/Fr5_intertek_6th_250526/left/zed_38007749_right_1748249287.073.jpg,38007749,right,1748249287.073,/home/najo/NAS/DIP/datasets/Fr5_intertek_dataset/Fr5_intertek_6th_250526/joint/joint_38007749_1748249287.073.json,1748249287.073,0.0,-41.3140325262995,-71.5451442605198,91.58768757735147,-110.0355816831683,-90.00021755105197,48.68727278001238,/home/najo/NAS/DIP/datasets/Fr5_intertek_dataset/preprocessed_roi/Fr5_intertek_6th_250526_zed_38007749_right_1748249287.073.jpg,243,267,1020,1008
/home/najo/NAS/DIP/datasets/Fr5_intertek_dataset/Fr5_intertek_6th_250526/top/zed_30779426_left_1748249287.077.jpg,30779426,left,1748249287.077,/home/najo/NAS/DIP/datasets/Fr5_intertek_dataset/Fr5_intertek_6th_250526/joint/joint_30779426_1748249287.077.json,1748249287.077,0.0,-41.31381497524752,-71.56950997834159,91.5435247137995,-109.9705339186262,-90.0,48.68727278001238,/home/najo/NAS/DIP/datasets/Fr5_intertek_dataset/preprocessed_roi/Fr5_intertek_6th_250526_zed_30779426_left_1748249287.077.jpg,941,177,1443,721
/home/najo/NAS/DIP/datasets/Fr5_intertek_dataset/Fr5_intertek_6th_250526/top/zed_30779426_right_1748249287.077.jpg,30779426,right,1748249287.077,/home/najo/NAS/DIP/datasets/Fr5_intertek_dataset/Fr5_intertek_6th_250526/joint/joint_30779426_1748249287.077.json,1748249287.077,0.0,-41.31381497524752,-71.56950997834159,91.5435247137995,-109.9705339186262,-90.0,48.68727278001238,/home/najo/NAS/DIP/datasets/Fr5_intertek_dataset/preprocessed_roi/Fr5_intertek_6th_250526_zed_30779426_right_1748249287.077.jpg,847,177,1335,723
/home/najo/NAS/DIP/datasets/Fr5_intertek_dataset/Fr5_intertek_6th_250526/right/zed_34850673_right_1748249287.083.jpg,34850673,right,1748249287.083,/home/najo/NAS/DIP/datasets/Fr5_intertek_dataset/Fr5_intertek_6th_250526/joint/joint_34850673_1748249287.083.json,1748249287.083,0.0,-41.31359742419554,-71.57429610148515,91.5335173654084,-109.9576984065594,-89.99978244894803,48.68727278001238,/home/najo/NAS/DIP/datasets/Fr5_intertek_dataset/preprocessed_roi/Fr5_intertek_6th_250526_zed_34850673_right_1748249287.083.jpg,768,255,1470,1029
/home/najo/NAS/DIP/datasets/Fr5_intertek_dataset/Fr5_intertek_6th_250526/right/zed_34850673_left_1748249287.083.jpg,34850673,left,1748249287.083,/home/najo/NAS/DIP/datasets/Fr5_intertek_dataset/Fr5_intertek_6th_250526/joint/joint_34850673_1748249287.083.json,1748249287.083,0.0,-41.31359742419554,-71.57429610148515,91.5335173654084,-109.9576984065594,-89.99978244894803,48.68727278001238,/home/najo/NAS/DIP/datasets/Fr5_intertek_dataset/preprocessed_roi/Fr5_intertek_6th_250526_zed_34850673_left_1748249287.083.jpg,877,255,1612,1029
/home/najo/NAS/DIP/datasets/Fr5_intertek_dataset/Fr5_intertek_6th_250526/left/zed_38007749_right_1748249287.211.jpg,38007749,right,1748249287.211,/home/najo/NAS/DIP/datasets/Fr5_intertek_dataset/Fr5_intertek_6th_250526/joint/joint_38007749_1748249287.211.json,1748249287.211,0.0,-41.3127272199876,-72.15102394028466,90.2986975943688,-108.1330977336015,-89.99978244894803,48.68705522896039,/home/najo/NAS/DIP/datasets/Fr5_intertek_dataset/preprocessed_roi/Fr5_intertek_6th_250526_zed_38007749_right_1748249287.211.jpg,243,265,1016,1008
/home/najo/NAS/DIP/datasets/Fr5_intertek_dataset/Fr5_intertek_6th_250526/left/zed_38007749_left_1748249287.211.jpg,38007749,left,1748249287.211,/home/najo/NAS/DIP/datasets/Fr5_intertek_dataset/Fr5_intertek_6th_250526/joint/joint_38007749_1748249287.211.json,1748249287.211,0.0,-41.3127272199876,-72.15102394028466,90.2986975943688,-108.1330977336015,-89.99978244894803,48.68705522896039,/home/najo/NAS/DIP/datasets/Fr5_intertek_dataset/preprocessed_roi/Fr5_intertek_6th_250526_zed_38007749_left_1748249287.211.jpg,382,265,1230,1010
/home/najo/NAS/DIP/datasets/Fr5_intertek_dataset/Fr5_intertek_6th_250526/top/zed_30779426_left_1748249287.215.jpg,30779426,left,1748249287.215,/home/najo/NAS/DIP/datasets/Fr5_intertek_dataset/Fr5_intertek_6th_250526/joint/joint_30779426_1748249287.215.json,1748249287.215,0.0,-41.3127272199876,-72.1592908802599,90.27824779548268,-108.104816096844,-89.99978244894803,48.68727278001238,/home/najo/NAS/DIP/datasets/Fr5_intertek_dataset/preprocessed_roi/Fr5_intertek_6th_250526_zed_30779426_left_1748249287.215.jpg,941,172,1451,721
/home/najo/NAS/DIP/datasets/Fr5_intertek_dataset/Fr5_intertek_6th_250526/top/zed_30779426_right_1748249287.215.jpg,30779426,right,1748249287.215,/home/najo/NAS/DIP/datasets/Fr5_intertek_dataset/Fr5_intertek_6th_250526/joint/joint_30779426_1748249287.215.json,1748249287.215,0.0,-41.3127272199876,-72.1592908802599,90.27824779548268,-108.104816096844,-89.99978244894803,48.68727278001238,/home/najo/NAS/DIP/datasets/Fr5_intertek_dataset/preprocessed_roi/Fr5_intertek_6th_250526_zed_30779426_right_1748249287.215.jpg,847,172,1338,723
/home/najo/NAS/DIP/datasets/Fr5_intertek_dataset/Fr5_intertek_6th_250526/right/zed_34850673_left_1748249287.221.jpg,34850673,left,1748249287.221,/home/najo/NAS/DIP/datasets/Fr5_intertek_dataset/Fr5_intertek_6th_250526/joint/joint_34850673_1748249287.221.json,1748249287.221,0.0,-41.31337987314356,-72.19714476330445,90.18948696627476,-107.9818997524752,-89.99978244894803,48.68727278001238,/home/najo/NAS/DIP/datasets/Fr5_intertek_dataset/preprocessed_roi/Fr5_intertek_6th_250526_zed_34850673_left_1748249287.221.jpg,877,253,1616,1029
/home/najo/NAS/DIP/datasets/Fr5_intertek_dataset/Fr5_intertek_6th_250526/right/zed_34850673_right_1748249287.221.jpg,34850673,right,1748249287.221,/home/najo/NAS/DIP/datasets/Fr5_intertek_dataset/Fr5_intertek_6th_250526/joint/joint_34850673_1748249287.221.json,1748249287.221,0.0,-41.31337987314356,-72.19714476330445,90.18948696627476,-107.9818997524752,-89.99978244894803,48.68727278001238,/home/najo/NAS/DIP/datasets/Fr5_intertek_dataset/preprocessed_roi/Fr5_intertek_6th_250526_zed_34850673_right_1748249287.221.jpg,768,253,1470,1029
/home/najo/NAS/DIP/datasets/Fr5_intertek_dataset/Fr5_intertek_6th_250526/left/zed_38007749_left_1748249287.348.jpg,38007749,left,1748249287.348,/home/najo/NAS/DIP/datasets/Fr5_intertek_dataset/Fr5_intertek_6th_250526/joint/joint_38007749_1748249287.348.json,1748249287.348,0.0,-41.31163946472772,-72.70882483756186,88.93835086633663,-106.2282207224628,-89.99978244894803,48.68727278001238,/home/najo/NAS/DIP/datasets/Fr5_intertek_dataset/preprocessed_roi/Fr5_intertek_6th_250526_zed_38007749_left_1748249287.348.jpg,382,265,1230,1010
/home/najo/NAS/DIP/datasets/Fr5_intertek_dataset/Fr5_intertek_6th_250526/left/zed_38007749_right_1748249287.348.jpg,38007749,right,1748249287.348,/home/najo/NAS/DIP/datasets/Fr5_intertek_dataset/Fr5_intertek_6th_250526/joint/joint_38007749_1748249287.348.json,1748249287.348,0.0,-41.31163946472772,-72.70882483756186,88.93835086633663,-106.2282207224628,-89.99978244894803,48.68727278001238,/home/najo/NAS/DIP/datasets/Fr5_intertek_dataset/preprocessed_roi/Fr5_intertek_6th_250526_zed_38007749_right_1748249287.348.jpg,247,265,1020,1008
/home/najo/NAS/DIP/datasets/Fr5_intertek_dataset/Fr5_intertek_6th_250526/top/zed_30779426_right_1748249287.352.jpg,30779426,right,1748249287.352,/home/najo/NAS/DIP/datasets/Fr5_intertek_dataset/Fr5_intertek_6th_250526/joint/joint_30779426_1748249287.352.json,1748249287.352,0.0,-41.31163946472772,-72.70882483756186,88.93835086633663,-106.2282207224628,-89.99978244894803,48.68727278001238,/home/najo/NAS/DIP/datasets/Fr5_intertek_dataset/preprocessed_roi/Fr5_intertek_6th_250526_zed_30779426_right_1748249287.352.jpg,847,168,1342,723
/home/najo/NAS/DIP/datasets/Fr5_intertek_dataset/Fr5_intertek_6th_250526/top/zed_30779426_left_1748249287.352.jpg,30779426,left,1748249287.352,/home/najo/NAS/DIP/datasets/Fr5_intertek_dataset/Fr5_intertek_6th_250526/joint/joint_30779426_1748249287.352.json,1748249287.352,0.0,-41.31163946472772,-72.70882483756186,88.93835086633663,-106.2282207224628,-89.99978244894803,48.68727278001238,/home/najo/NAS/DIP/datasets/Fr5_intertek_dataset/preprocessed_roi/Fr5_intertek_6th_250526_zed_30779426_left_1748249287.352.jpg,941,168,1455,721
/home/najo/NAS/DIP/datasets/Fr5_intertek_dataset/Fr5_intertek_6th_250526/right/zed_34850673_left_1748249287.359.jpg,34850673,left,1748249287.359,/home/najo/NAS/DIP/datasets/Fr5_intertek_dataset/Fr5_intertek_6th_250526/joint/joint_34850673_1748249287.359.json,1748249287.359,0.0,-41.31229211788366,-72.7436330058787,88.83718962716584,-106.0868125386757,-89.99978244894803,48.68727278001238,/home/najo/NAS/DIP/datasets/Fr5_intertek_dataset/preprocessed_roi/Fr5_intertek_6th_250526_zed_34850673_left_1748249287.359.jpg,877,248,1616,1029
/home/najo/NAS/DIP/datasets/Fr5_intertek_dataset/Fr5_intertek_6th_250526/right/zed_34850673_right_1748249287.359.jpg,34850673,right,1748249287.359,/home/najo/NAS/DIP/datasets/Fr5_intertek_dataset/Fr5_intertek_6th_250526/joint/joint_34850673_1748249287.359.json,1748249287.359,0.0,-41.31229211788366,-72.7436330058787,88.83718962716584,-106.0868125386757,-89.99978244894803,48.68727278001238,/home/najo/NAS/DIP/datasets/Fr5_intertek_dataset/preprocessed_roi/Fr5_intertek_6th_250526_zed_34850673_right_1748249287.359.jpg,768,248,1470,1029
/home/najo/NAS/DIP/datasets/Fr5_intertek_dataset/Fr5_intertek_6th_250526/left/zed_38007749_left_1748249287.486.jpg,38007749,left,1748249287.486,/home/najo/NAS/DIP/datasets/Fr5_intertek_dataset/Fr5_intertek_6th_250526/joint/joint_38007749_1748249287.486.json,1748249287.486,0.0,-41.31120436262376,-73.19244082611387,87.52774984529702,-104.3387898360148,-90.00021755105197,48.68749033106435,/home/najo/NAS/DIP/datasets/Fr5_intertek_dataset/preprocessed_roi/Fr5_intertek_6th_250526_zed_38007749_left_1748249287.486.jpg,382,265,1233,1010
/home/najo/NAS/DIP/datasets/Fr5_intertek_dataset/Fr5_intertek_6th_250526/left/zed_38007749_right_1748249287.486.jpg,38007749,right,1748249287.486,/home/najo/NAS/DIP/datasets/Fr5_intertek_dataset/Fr5_intertek_6th_250526/joint/joint_38007749_1748249287.486.json,1748249287.486,0.0,-41.31120436262376,-73.19244082611387,87.52774984529702,-104.3387898360148,-90.00021755105197,48.68749033106435,/home/najo/NAS/DIP/datasets/Fr5_intertek_dataset/preprocessed_roi/Fr5_intertek_6th_250526_zed_38007749_right_1748249287.486.jpg,247,263,1020,1008
/home/najo/NAS/DIP/datasets/Fr5_intertek_dataset/Fr5_intertek_6th_250526/top/zed_30779426_left_1748249287.490.jpg,30779426,left,1748249287.49,/home/najo/NAS/DIP/datasets/Fr5_intertek_dataset/Fr5_intertek_6th_250526/joint/joint_30779426_1748249287.490.json,1748249287.49,0.0,-41.31120436262376,-73.1987498066213,87.505994740099,-104.3118135055693,-90.0,48.68727278001238,/home/najo/NAS/DIP/datasets/Fr5_intertek_dataset/preprocessed_roi/Fr5_intertek_6th_250526_zed_30779426_left_1748249287.490.jpg,941,164,1462,721
/home/najo/NAS/DIP/datasets/Fr5_intertek_dataset/Fr5_intertek_6th_250526/top/zed_30779426_right_1748249287.490.jpg,30779426,right,1748249287.49,/home/najo/NAS/DIP/datasets/Fr5_intertek_dataset/Fr5_intertek_6th_250526/joint/joint_30779426_1748249287.490.json,1748249287.49,0.0,-41.31120436262376,-73.1987498066213,87.505994740099,-104.3118135055693,-90.0,48.68727278001238,/home/najo/NAS/DIP/datasets/Fr5_intertek_dataset/preprocessed_roi/Fr5_intertek_6th_250526_zed_30779426_right_1748249287.490.jpg,847,164,1350,723
/home/najo/NAS/DIP/datasets/Fr5_intertek_dataset/Fr5_intertek_6th_250526/right/zed_34850673_right_1748249287.497.jpg,34850673,right,1748249287.497,/home/najo/NAS/DIP/datasets/Fr5_intertek_dataset/Fr5_intertek_6th_250526/joint/joint_34850673_1748249287.497.json,1748249287.497,0.0,-41.31120436262376,-73.2281191986386,87.4091845219678,-104.1906375696163,-89.99978244894803,48.68727278001238,/home/najo/NAS/DIP/datasets/Fr5_intertek_dataset/preprocessed_roi/Fr5_intertek_6th_250526_zed_34850673_right_1748249287.497.jpg,768,246,1470,1029
/home/najo/NAS/DIP/datasets/Fr5_intertek_dataset/Fr5_intertek_6th_250526/right/zed_34850673_left_1748249287.497.jpg,34850673,left,1748249287.497,/home/najo/NAS/DIP/datasets/Fr5_intertek_dataset/Fr5_intertek_6th_250526/joint/joint_34850673_1748249287.497.json,1748249287.497,0.0,-41.31120436262376,-73.2281191986386,87.4091845219678,-104.1906375696163,-89.99978244894803,48.68727278001238,/home/najo/NAS/DIP/datasets/Fr5_intertek_dataset/preprocessed_roi/Fr5_intertek_6th_250526_zed_34850673_left_1748249287.497.jpg,877,246,1616,1029
/home/najo/NAS/DIP/datasets/Fr5_intertek_dataset/Fr5_intertek_6th_250526/left/zed_38007749_left_1748249287.624.jpg,38007749,left,1748249287.624,/home/najo/NAS/DIP/datasets/Fr5_intertek_dataset/Fr5_intertek_6th_250526/joint/joint_38007749_1748249287.624.json,1748249287.624,0.0,-41.3127272199876,-73.62645517481435,86.02904064820545,-102.401497718131,-90.0,48.68705522896039,/home/najo/NAS/DIP/datasets/Fr5_intertek_dataset/preprocessed_roi/Fr5_intertek_6th_250526_zed_38007749_left_1748249287.624.jpg,382,263,1233,1010
/home/najo/NAS/DIP/datasets/Fr5_intertek_dataset/Fr5_intertek_6th_250526/left/zed_38007749_right_1748249287.624.jpg,38007749,right,1748249287.624,/home/najo/NAS/DIP/datasets/Fr5_intertek_dataset/Fr5_intertek_6th_250526/joint/joint_38007749_1748249287.624.json,1748249287.624,0.0,-41.3127272199876,-73.62645517481435,86.02904064820545,-102.401497718131,-90.0,48.68705522896039,/home/najo/NAS/DIP/datasets/Fr5_intertek_dataset/preprocessed_roi/Fr5_intertek_6th_250526_zed_38007749_right_1748249287.624.jpg,247,263,1020,1008
/home/najo/NAS/DIP/datasets/Fr5_intertek_dataset/Fr5_intertek_6th_250526/top/zed_30779426_left_1748249287.628.jpg,30779426,left,1748249287.628,/home/najo/NAS/DIP/datasets/Fr5_intertek_dataset/Fr5_intertek_6th_250526/joint/joint_30779426_1748249287.628.json,1748249287.628,0.0,-41.31229211788366,-73.64103109529702,85.97204227258663,-102.3279654625618,-90.0,48.68727278001238,/home/najo/NAS/DIP/datasets/Fr5_intertek_dataset/preprocessed_roi/Fr5_intertek_6th_250526_zed_30779426_left_1748249287.628.jpg,941,160,1466,721
/home/najo/NAS/DIP/datasets/Fr5_intertek_dataset/Fr5_intertek_6th_250526/top/zed_30779426_right_1748249287.628.jpg,30779426,right,1748249287.628,/home/najo/NAS/DIP/datasets/Fr5_intertek_dataset/Fr5_intertek_6th_250526/joint/joint_30779426_1748249287.628.json,1748249287.628,0.0,-41.31229211788366,-73.64103109529702,85.97204227258663,-102.3279654625618,-90.0,48.68727278001238,/home/najo/NAS/DIP/datasets/Fr5_intertek_dataset/preprocessed_roi/Fr5_intertek_6th_250526_zed_30779426_right_1748249287.628.jpg,847,158,1353,723
/home/najo/NAS/DIP/datasets/Fr5_intertek_dataset/Fr5_intertek_6th_250526/right/zed_34850673_left_1748249287.636.jpg,34850673,left,1748249287.636,/home/najo/NAS/DIP/datasets/Fr5_intertek_dataset/Fr5_intertek_6th_250526/joint/joint_34850673_1748249287.636.json,1748249287.636,0.0,-41.31207456683168,-73.65865273050743,85.9065594059406,-102.249864634901,-89.99956489789604,48.68705522896039,/home/najo/NAS/DIP/datasets/Fr5_intertek_dataset/preprocessed_roi/Fr5_intertek_6th_250526_zed_34850673_left_1748249287.636.jpg,877,246,1612,1029
/home/najo/NAS/DIP/datasets/Fr5_intertek_dataset/Fr5_intertek_6th_250526/right/zed_34850673_right_1748249287.636.jpg,34850673,right,1748249287.636,/home/najo/NAS/DIP/datasets/Fr5_intertek_dataset/Fr5_intertek_6th_250526/joint/joint_34850673_1748249287.636.json,1748249287.636,0.0,-41.31207456683168,-73.65865273050743,85.9065594059406,-102.249864634901,-89.99956489789604,48.68705522896039,/home/najo/NAS/DIP/datasets/Fr5_intertek_dataset/preprocessed_roi/Fr5_intertek_6th_250526_zed_34850673_right_1748249287.636.jpg,768,244,1470,1029
/home/najo/NAS/DIP/datasets/Fr5_intertek_dataset/Fr5_intertek_6th_250526/left/zed_38007749_right_1748249287.763.jpg,38007749,right,1748249287.763,/home/najo/NAS/DIP/datasets/Fr5_intertek_dataset/Fr5_intertek_6th_250526/joint/joint_38007749_1748249287.763.json,1748249287.763,0.0,-41.31229211788366,-73.99694461633663,84.4707224628713,-100.478999071782,-89.99956489789604,48.68727278001238,/home/najo/NAS/DIP/datasets/Fr5_intertek_dataset/preprocessed_roi/Fr5_intertek_6th_250526_zed_38007749_right_1748249287.763.jpg,247,263,1020,1008
/home/najo/NAS/DIP/datasets/Fr5_intertek_dataset/Fr5_intertek_6th_250526/left/zed_38007749_left_1748249287.763.jpg,38007749,left,1748249287.763,/home/najo/NAS/DIP/datasets/Fr5_intertek_dataset/Fr5_intertek_6th_250526/joint/joint_38007749_1748249287.763.json,1748249287.763,0.0,-41.31229211788366,-73.99694461633663,84.4707224628713,-100.478999071782,-89.99956489789604,48.68727278001238,/home/najo/NAS/DIP/datasets/Fr5_intertek_dataset/preprocessed_roi/Fr5_intertek_6th_250526_zed_38007749_left_1748249287.763.jpg,382,263,1233,1010
/home/najo/NAS/DIP/datasets/Fr5_intertek_dataset/Fr5_intertek_6th_250526/top/zed_30779426_right_1748249287.767.jpg,30779426,right,1748249287.767,/home/najo/NAS/DIP/datasets/Fr5_intertek_dataset/Fr5_intertek_6th_250526/joint/joint_30779426_1748249287.767.json,1748249287.767,0.0,-41.31250966893564,-74.00999767945545,84.4132889851485,-100.4045966120049,-90.00043510210396,48.68727278001238,/home/najo/NAS/DIP/datasets/Fr5_intertek_dataset/preprocessed_roi/Fr5_intertek_6th_250526_zed_30779426_right_1748249287.767.jpg,847,153,1357,723
/home/najo/NAS/DIP/datasets/Fr5_intertek_dataset/Fr5_intertek_6th_250526/top/zed_30779426_left_1748249287.767.jpg,30779426,left,1748249287.767,/home/najo/NAS/DIP/datasets/Fr5_intertek_dataset/Fr5_intertek_6th_250526/joint/joint_30779426_1748249287.767.json,1748249287.767,0.0,-41.31250966893564,-74.00999767945545,84.4132889851485,-100.4045966120049,-90.00043510210396,48.68727278001238,/home/najo/NAS/DIP/datasets/Fr5_intertek_dataset/preprocessed_roi/Fr5_intertek_6th_250526_zed_30779426_left_1748249287.767.jpg,941,153,1473,721
/home/najo/NAS/DIP/datasets/Fr5_intertek_dataset/Fr5_intertek_6th_250526/right/zed_34850673_right_1748249287.773.jpg,34850673,right,1748249287.773,/home/najo/NAS/DIP/datasets/Fr5_intertek_dataset/Fr5_intertek_6th_250526/joint/joint_34850673_1748249287.773.json,1748249287.773,0.0,-41.3127272199876,-74.02218053836634,84.3562906095297,-100.3347627243193,-90.0,48.68727278001238,/home/najo/NAS/DIP/datasets/Fr5_intertek_dataset/preprocessed_roi/Fr5_intertek_6th_250526_zed_34850673_right_1748249287.773.jpg,768,242,1470,1029
/home/najo/NAS/DIP/datasets/Fr5_intertek_dataset/Fr5_intertek_6th_250526/right/zed_34850673_left_1748249287.773.jpg,34850673,left,1748249287.773,/home/najo/NAS/DIP/datasets/Fr5_intertek_dataset/Fr5_intertek_6th_250526/joint/joint_34850673_1748249287.773.json,1748249287.773,0.0,-41.3127272199876,-74.02218053836634,84.3562906095297,-100.3347627243193,-90.0,48.68727278001238,/home/najo/NAS/DIP/datasets/Fr5_intertek_dataset/preprocessed_roi/Fr5_intertek_6th_250526_zed_34850673_left_1748249287.773.jpg,873,242,1612,1029
/home/najo/NAS/DIP/datasets/Fr5_intertek_dataset/Fr5_intertek_6th_250526/left/zed_38007749_right_1748249287.901.jpg,38007749,right,1748249287.901,/home/najo/NAS/DIP/datasets/Fr5_intertek_dataset/Fr5_intertek_6th_250526/joint/joint_38007749_1748249287.901.json,1748249287.901,0.0,-41.31229211788366,-74.2982528233292,82.869764271349,-98.56737797803218,-90.0,48.68727278001238,/home/najo/NAS/DIP/datasets/Fr5_intertek_dataset/preprocessed_roi/Fr5_intertek_6th_250526_zed_38007749_right_1748249287.901.jpg,247,261,1020,1008
/home/najo/NAS/DIP/datasets/Fr5_intertek_dataset/Fr5_intertek_6th_250526/left/zed_38007749_left_1748249287.901.jpg,38007749,left,1748249287.901,/home/najo/NAS/DIP/datasets/Fr5_intertek_dataset/Fr5_intertek_6th_250526/joint/joint_38007749_1748249287.901.json,1748249287.901,0.0,-41.31229211788366,-74.2982528233292,82.869764271349,-98.56737797803218,-90.0,48.68727278001238,/home/najo/NAS/DIP/datasets/Fr5_intertek_dataset/preprocessed_roi/Fr5_intertek_6th_250526_zed_38007749_left_1748249287.901.jpg,382,263,1233,1010
/home/najo/NAS/DIP/datasets/Fr5_intertek_dataset/Fr5_intertek_6th_250526/top/zed_30779426_right_1748249287.905.jpg,30779426,right,1748249287.905,/home/najo/NAS/DIP/datasets/Fr5_intertek_dataset/Fr5_intertek_6th_250526/joint/joint_30779426_1748249287.905.json,1748249287.905,0.0,-41.31207456683168,-74.30869527382426,82.80884997679455,-98.49950204981435,-90.0,48.68727278001238,/home/najo/NAS/DIP/datasets/Fr5_intertek_dataset/preprocessed_roi/Fr5_intertek_6th_250526_zed_30779426_right_1748249287.905.jpg,847,149,1361,723
/home/najo/NAS/DIP/datasets/Fr5_intertek_dataset/Fr5_intertek_6th_250526/top/zed_30779426_left_1748249287.905.jpg,30779426,left,1748249287.905,/home/najo/NAS/DIP/datasets/Fr5_intertek_dataset/Fr5_intertek_6th_250526/joint/joint_30779426_1748249287.905.json,1748249287.905,0.0,-41.31207456683168,-74.30869527382426,82.80884997679455,-98.49950204981435,-90.0,48.68727278001238,/home/najo/NAS/DIP/datasets/Fr5_intertek_dataset/preprocessed_roi/Fr5_intertek_6th_250526_zed_30779426_left_1748249287.905.jpg,941,149,1481,721
/home/najo/NAS/DIP/datasets/Fr5_intertek_dataset/Fr5_intertek_6th_250526/right/zed_34850673_right_1748249287.911.jpg,34850673,right,1748249287.911,/home/najo/NAS/DIP/datasets/Fr5_intertek_dataset/Fr5_intertek_6th_250526/joint/joint_34850673_1748249287.911.json,1748249287.911,0.0,-41.31207456683168,-74.3256642558787,82.7116046565594,-98.3913791769802,-89.99934734684406,48.68727278001238,/home/najo/NAS/DIP/datasets/Fr5_intertek_dataset/preprocessed_roi/Fr5_intertek_6th_250526_zed_34850673_right_1748249287.911.jpg,768,242,1470,1029
/home/najo/NAS/DIP/datasets/Fr5_intertek_dataset/Fr5_intertek_6th_250526/right/zed_34850673_left_1748249287.911.jpg,34850673,left,1748249287.911,/home/najo/NAS/DIP/datasets/Fr5_intertek_dataset/Fr5_intertek_6th_250526/joint/joint_34850673_1748249287.911.json,1748249287.911,0.0,-41.31207456683168,-74.3256642558787,82.7116046565594,-98.3913791769802,-89.99934734684406,48.68727278001238,/home/najo/NAS/DIP/datasets/Fr5_intertek_dataset/preprocessed_roi/Fr5_intertek_6th_250526_zed_34850673_left_1748249287.911.jpg,877,242,1612,1029
/home/najo/NAS/DIP/datasets/Fr5_intertek_dataset/Fr5_intertek_6th_250526/left/zed_38007749_right_1748249288.037.jpg,38007749,right,1748249288.037,/home/najo/NAS/DIP/datasets/Fr5_intertek_dataset/Fr5_intertek_6th_250526/joint/joint_38007749_1748249288.037.json,1748249288.037,0.0,-41.31250966893564,-74.55061204362623,81.17221341274752,-96.61855565439356,-89.99978244894803,48.68749033106435,/home/najo/NAS/DIP/datasets/Fr5_intertek_dataset/preprocessed_roi/Fr5_intertek_6th_250526_zed_38007749_right_1748249288.037.jpg,247,261,1023,1008
/home/najo/NAS/DIP/datasets/Fr5_intertek_dataset/Fr5_intertek_6th_250526/left/zed_38007749_left_1748249288.037.jpg,38007749,left,1748249288.037,/home/najo/NAS/DIP/datasets/Fr5_intertek_dataset/Fr5_intertek_6th_250526/joint/joint_38007749_1748249288.037.json,1748249288.037,0.0,-41.31250966893564,-74.55061204362623,81.17221341274752,-96.61855565439356,-89.99978244894803,48.68749033106435,/home/najo/NAS/DIP/datasets/Fr5_intertek_dataset/preprocessed_roi/Fr5_intertek_6th_250526_zed_38007749_left_1748249288.037.jpg,382,261,1237,1010
/home/najo/NAS/DIP/datasets/Fr5_intertek_dataset/Fr5_intertek_6th_250526/top/zed_30779426_right_1748249288.042.jpg,30779426,right,1748249288.042,/home/najo/NAS/DIP/datasets/Fr5_intertek_dataset/Fr5_intertek_6th_250526/joint/joint_30779426_1748249288.042.json,1748249288.042,0.0,-41.31250966893564,-74.55387530940594,81.14675993966584,-96.5928846302599,-90.0,48.68749033106435,/home/najo/NAS/DIP/datasets/Fr5_intertek_dataset/preprocessed_roi/Fr5_intertek_6th_250526_zed_30779426_right_1748249288.042.jpg,847,145,1365,723
/home/najo/NAS/DIP/datasets/Fr5_intertek_dataset/Fr5_intertek_6th_250526/top/zed_30779426_left_1748249288.042.jpg,30779426,left,1748249288.042,/home/najo/NAS/DIP/datasets/Fr5_intertek_dataset/Fr5_intertek_6th_250526/joint/joint_30779426_1748249288.042.json,1748249288.042,0.0,-41.31250966893564,-74.55387530940594,81.14675993966584,-96.5928846302599,-90.0,48.68749033106435,/home/najo/NAS/DIP/datasets/Fr5_intertek_dataset/preprocessed_roi/Fr5_intertek_6th_250526_zed_30779426_left_1748249288.042.jpg,941,145,1485,721
/home/najo/NAS/DIP/datasets/Fr5_intertek_dataset/Fr5_intertek_6th_250526/right/zed_34850673_right_1748249288.049.jpg,34850673,right,1748249288.049,/home/najo/NAS/DIP/datasets/Fr5_intertek_dataset/Fr5_intertek_6th_250526/joint/joint_34850673_1748249288.049.json,1748249288.049,0.0,-41.31250966893564,-74.5706267404084,81.00600440903466,-96.44647277227725,-89.99978244894803,48.68705522896039,/home/najo/NAS/DIP/datasets/Fr5_intertek_dataset/preprocessed_roi/Fr5_intertek_6th_250526_zed_34850673_right_1748249288.049.jpg,768,240,1470,1029
/home/najo/NAS/DIP/datasets/Fr5_intertek_dataset/Fr5_intertek_6th_250526/right/zed_34850673_left_1748249288.049.jpg,34850673,left,1748249288.049,/home/najo/NAS/DIP/datasets/Fr5_intertek_dataset/Fr5_intertek_6th_250526/joint/joint_34850673_1748249288.049.json,1748249288.049,0.0,-41.31250966893564,-74.5706267404084,81.00600440903466,-96.44647277227725,-89.99978244894803,48.68705522896039,/home/najo/NAS/DIP/datasets/Fr5_intertek_dataset/preprocessed_roi/Fr5_intertek_6th_250526_zed_34850673_left_1748249288.049.jpg,873,240,1612,1029
/home/najo/NAS/DIP/datasets/Fr5_intertek_dataset/Fr5_intertek_6th_250526/left/zed_38007749_right_1748249288.175.jpg,38007749,right,1748249288.175,/home/najo/NAS/DIP/datasets/Fr5_intertek_dataset/Fr5_intertek_6th_250526/joint/joint_38007749_1748249288.175.json,1748249288.175,0.0,-41.31250966893564,-74.73357247834159,79.38568417388613,-94.65624516553218,-90.00021755105197,48.68727278001238,/home/najo/NAS/DIP/datasets/Fr5_intertek_dataset/preprocessed_roi/Fr5_intertek_6th_250526_zed_38007749_right_1748249288.175.jpg,247,248,1023,1008
/home/najo/NAS/DIP/datasets/Fr5_intertek_dataset/Fr5_intertek_6th_250526/left/zed_38007749_left_1748249288.175.jpg,38007749,left,1748249288.175,/home/najo/NAS/DIP/datasets/Fr5_intertek_dataset/Fr5_intertek_6th_250526/joint/joint_38007749_1748249288.175.json,1748249288.175,0.0,-41.31250966893564,-74.73357247834159,79.38568417388613,-94.65624516553218,-90.00021755105197,48.68727278001238,/home/najo/NAS/DIP/datasets/Fr5_intertek_dataset/preprocessed_roi/Fr5_intertek_6th_250526_zed_38007749_left_1748249288.175.jpg,382,248,1233,1010
/home/najo/NAS/DIP/datasets/Fr5_intertek_dataset/Fr5_intertek_6th_250526/top/zed_30779426_right_1748249288.180.jpg,30779426,right,1748249288.18,/home/najo/NAS/DIP/datasets/Fr5_intertek_dataset/Fr5_intertek_6th_250526/joint/joint_30779426_1748249288.180.json,1748249288.18,0.0,-41.31229211788366,-74.73466023360149,79.37219600866337,-94.6427570003094,-90.0,48.68727278001238,/home/najo/NAS/DIP/datasets/Fr5_intertek_dataset/preprocessed_roi/Fr5_intertek_6th_250526_zed_30779426_right_1748249288.180.jpg,847,139,1372,723
/home/najo/NAS/DIP/datasets/Fr5_intertek_dataset/Fr5_intertek_6th_250526/top/zed_30779426_left_1748249288.180.jpg,30779426,left,1748249288.18,/home/najo/NAS/DIP/datasets/Fr5_intertek_dataset/Fr5_intertek_6th_250526/joint/joint_30779426_1748249288.180.json,1748249288.18,0.0,-41.31229211788366,-74.73466023360149,79.37219600866337,-94.6427570003094,-90.0,48.68727278001238,/home/najo/NAS/DIP/datasets/Fr5_intertek_dataset/preprocessed_roi/Fr5_intertek_6th_250526_zed_30779426_left_1748249288.180.jpg,941,141,1492,721
/home/najo/NAS/DIP/datasets/Fr5_intertek_dataset/Fr5_intertek_6th_250526/right/zed_34850673_right_1748249288.187.jpg,34850673,right,1748249288.187,/home/najo/NAS/DIP/datasets/Fr5_intertek_dataset/Fr5_intertek_6th_250526/joint/joint_34850673_1748249288.187.json,1748249288.187,0.0,-41.31229211788366,-74.74706064356435,79.22491394647275,-94.48155167079209,-89.99978244894803,48.68727278001238,/home/najo/NAS/DIP/datasets/Fr5_intertek_dataset/preprocessed_roi/Fr5_intertek_6th_250526_zed_34850673_right_1748249288.187.jpg,768,240,1470,1029
/home/najo/NAS/DIP/datasets/Fr5_intertek_dataset/Fr5_intertek_6th_250526/right/zed_34850673_left_1748249288.187.jpg,34850673,left,1748249288.187,/home/najo/NAS/DIP/datasets/Fr5_intertek_dataset/Fr5_intertek_6th_250526/joint/joint_34850673_1748249288.187.json,1748249288.187,0.0,-41.31229211788366,-74.74706064356435,79.22491394647275,-94.48155167079209,-89.99978244894803,48.68727278001238,/home/najo/NAS/DIP/datasets/Fr5_intertek_dataset/preprocessed_roi/Fr5_intertek_6th_250526_zed_34850673_left_1748249288.187.jpg,873,240,1612,1029
/home/najo/NAS/DIP/datasets/Fr5_intertek_dataset/Fr5_intertek_6th_250526/left/zed_38007749_left_1748249288.313.jpg,38007749,left,1748249288.313,/home/najo/NAS/DIP/datasets/Fr5_intertek_dataset/Fr5_intertek_6th_250526/joint/joint_38007749_1748249288.313.json,1748249288.313,0.0,-41.31250966893564,-74.8519202506188,77.54955329517327,-92.70437712716584,-90.0,48.68705522896039,/home/najo/NAS/DIP/datasets/Fr5_intertek_dataset/preprocessed_roi/Fr5_intertek_6th_250526_zed_38007749_left_1748249288.313.jpg,386,223,1237,1008
/home/najo/NAS/DIP/datasets/Fr5_intertek_dataset/Fr5_intertek_6th_250526/left/zed_38007749_right_1748249288.313.jpg,38007749,right,1748249288.313,/home/najo/NAS/DIP/datasets/Fr5_intertek_dataset/Fr5_intertek_6th_250526/joint/joint_38007749_1748249288.313.json,1748249288.313,0.0,-41.31250966893564,-74.8519202506188,77.54955329517327,-92.70437712716584,-90.0,48.68705522896039,/home/najo/NAS/DIP/datasets/Fr5_intertek_dataset/preprocessed_roi/Fr5_intertek_6th_250526_zed_38007749_right_1748249288.313.jpg,247,223,1023,1008
/home/najo/NAS/DIP/datasets/Fr5_intertek_dataset/Fr5_intertek_6th_250526/top/zed_30779426_left_1748249288.317.jpg,30779426,left,1748249288.317,/home/najo/NAS/DIP/datasets/Fr5_intertek_dataset/Fr5_intertek_6th_250526/joint/joint_38007749_1748249288.313.json,1748249288.313,0.0039999485015869,-41.31250966893564,-74.8519202506188,77.54955329517327,-92.70437712716584,-90.0,48.68705522896039,/home/najo/NAS/DIP/datasets/Fr5_intertek_dataset/preprocessed_roi/Fr5_intertek_6th_250526_zed_30779426_left_1748249288.317.jpg,941,135,1500,721
/home/najo/NAS/DIP/datasets/Fr5_intertek_dataset/Fr5_intertek_6th_250526/top/zed_30779426_right_1748249288.317.jpg,30779426,right,1748249288.317,/home/najo/NAS/DIP/datasets/Fr5_intertek_dataset/Fr5_intertek_6th_250526/joint/joint_38007749_1748249288.313.json,1748249288.313,0.0039999485015869,-41.31250966893564,-74.8519202506188,77.54955329517327,-92.70437712716584,-90.0,48.68705522896039,/home/najo/NAS/DIP/datasets/Fr5_intertek_dataset/preprocessed_roi/Fr5_intertek_6th_250526_zed_30779426_right_1748249288.317.jpg,847,132,1380,723
/home/najo/NAS/DIP/datasets/Fr5_intertek_dataset/Fr5_intertek_6th_250526/right/zed_34850673_right_1748249288.325.jpg,34850673,right,1748249288.325,/home/najo/NAS/DIP/datasets/Fr5_intertek_dataset/Fr5_intertek_6th_250526/joint/joint_34850673_1748249288.325.json,1748249288.325,0.0,-41.31316232209158,-74.86018719059406,77.4020536819307,-92.548828125,-90.00021755105197,48.68727278001238,/home/najo/NAS/DIP/datasets/Fr5_intertek_dataset/preprocessed_roi/Fr5_intertek_6th_250526_zed_34850673_right_1748249288.325.jpg,768,238,1470,1029
/home/najo/NAS/DIP/datasets/Fr5_intertek_dataset/Fr5_intertek_6th_250526/right/zed_34850673_left_1748249288.325.jpg,34850673,left,1748249288.325,/home/najo/NAS/DIP/datasets/Fr5_intertek_dataset/Fr5_intertek_6th_250526/joint/joint_34850673_1748249288.325.json,1748249288.325,0.0,-41.31316232209158,-74.86018719059406,77.4020536819307,-92.548828125,-90.00021755105197,48.68727278001238,/home/najo/NAS/DIP/datasets/Fr5_intertek_dataset/preprocessed_roi/Fr5_intertek_6th_250526_zed_34850673_left_1748249288.325.jpg,873,240,1612,1029
/home/najo/NAS/DIP/datasets/Fr5_intertek_dataset/Fr5_intertek_6th_250526/top/zed_30779426_left_1748249288.451.jpg,30779426,left,1748249288.451,/home/najo/NAS/DIP/datasets/Fr5_intertek_dataset/Fr5_intertek_6th_250526/joint/joint_30779426_1748249288.451.json,1748249288.451,0.0,-41.3129447710396,-74.90108678836634,76.20138942605197,-91.2939936571782,-90.0,48.68727278001238,/home/najo/NAS/DIP/datasets/Fr5_intertek_dataset/preprocessed_roi/Fr5_intertek_6th_250526_zed_30779426_left_1748249288.451.jpg,941,128,1507,721
/home/najo/NAS/DIP/datasets/Fr5_intertek_dataset/Fr5_intertek_6th_250526/top/zed_30779426_right_1748249288.451.jpg,30779426,right,1748249288.451,/home/najo/NAS/DIP/datasets/Fr5_intertek_dataset/Fr5_intertek_6th_250526/joint/joint_30779426_1748249288.451.json,1748249288.451,0.0,-41.3129447710396,-74.90108678836634,76.20138942605197,-91.2939936571782,-90.0,48.68727278001238,/home/najo/NAS/DIP/datasets/Fr5_intertek_dataset/preprocessed_roi/Fr5_intertek_6th_250526_zed_30779426_right_1748249288.451.jpg,847,126,1383,723
/home/najo/NAS/DIP/datasets/Fr5_intertek_dataset/Fr5_intertek_6th_250526/left/zed_38007749_left_1748249288.456.jpg,38007749,left,1748249288.456,/home/najo/NAS/DIP/datasets/Fr5_intertek_dataset/Fr5_intertek_6th_250526/joint/joint_38007749_1748249288.456.json,1748249288.456,0.0,-41.3127272199876,-74.9013043394183,76.17593595297029,-91.26854018409654,-90.0,48.68727278001238,/home/najo/NAS/DIP/datasets/Fr5_intertek_dataset/preprocessed_roi/Fr5_intertek_6th_250526_zed_38007749_left_1748249288.456.jpg,386,200,1237,1008
/home/najo/NAS/DIP/datasets/Fr5_intertek_dataset/Fr5_intertek_6th_250526/left/zed_38007749_right_1748249288.456.jpg,38007749,right,1748249288.456,/home/najo/NAS/DIP/datasets/Fr5_intertek_dataset/Fr5_intertek_6th_250526/joint/joint_38007749_1748249288.456.json,1748249288.456,0.0,-41.3127272199876,-74.9013043394183,76.17593595297029,-91.26854018409654,-90.0,48.68727278001238,/home/najo/NAS/DIP/datasets/Fr5_intertek_dataset/preprocessed_roi/Fr5_intertek_6th_250526_zed_38007749_right_1748249288.456.jpg,247,200,1023,1008
/home/najo/NAS/DIP/datasets/Fr5_intertek_dataset/Fr5_intertek_6th_250526/right/zed_34850673_left_1748249288.463.jpg,34850673,left,1748249288.463,/home/najo/NAS/DIP/datasets/Fr5_intertek_dataset/Fr5_intertek_6th_250526/joint/joint_34850673_1748249288.463.json,1748249288.463,0.0,-41.3129447710396,-74.90173944152228,76.1276396194307,-91.2171981358292,-89.99978244894803,48.68705522896039,/home/najo/NAS/DIP/datasets/Fr5_intertek_dataset/preprocessed_roi/Fr5_intertek_6th_250526_zed_34850673_left_1748249288.463.jpg,873,238,1612,1029
/home/najo/NAS/DIP/datasets/Fr5_intertek_dataset/Fr5_intertek_6th_250526/right/zed_34850673_right_1748249288.463.jpg,34850673,right,1748249288.463,/home/najo/NAS/DIP/datasets/Fr5_intertek_dataset/Fr5_intertek_6th_250526/joint/joint_34850673_1748249288.463.json,1748249288.463,0.0,-41.3129447710396,-74.90173944152228,76.1276396194307,-91.2171981358292,-89.99978244894803,48.68705522896039,/home/najo/NAS/DIP/datasets/Fr5_intertek_dataset/preprocessed_roi/Fr5_intertek_6th_250526_zed_34850673_right_1748249288.463.jpg,768,238,1470,1029
/home/najo/NAS/DIP/datasets/Fr5_intertek_dataset/Fr5_intertek_6th_250526/top/zed_30779426_right_1748249288.590.jpg,30779426,right,1748249288.59,/home/najo/NAS/DIP/datasets/Fr5_intertek_dataset/Fr5_intertek_6th_250526/joint/joint_30779426_1748249288.590.json,1748249288.59,0.0,-41.30119701423267,-74.9078308709777,75.82763671875,-90.90784053991337,-90.00152285736387,48.71185604888614,/home/najo/NAS/DIP/datasets/Fr5_intertek_dataset/preprocessed_roi/Fr5_intertek_6th_250526_zed_30779426_right_1748249288.590.jpg,847,124,1383,723
/home/najo/NAS/DIP/datasets/Fr5_intertek_dataset/Fr5_intertek_6th_250526/top/zed_30779426_left_1748249288.590.jpg,30779426,left,1748249288.59,/home/najo/NAS/DIP/datasets/Fr5_intertek_dataset/Fr5_intertek_6th_250526/joint/joint_30779426_1748249288.590.json,1748249288.59,0.0,-41.30119701423267,-74.9078308709777,75.82763671875,-90.90784053991337,-90.00152285736387,48.71185604888614,/home/najo/NAS/DIP/datasets/Fr5_intertek_dataset/preprocessed_roi/Fr5_intertek_6th_250526_zed_30779426_left_1748249288.590.jpg,941,126,1511,721
/home/najo/NAS/DIP/datasets/Fr5_intertek_dataset/Fr5_intertek_6th_250526/left/zed_38007749_left_1748249288.596.jpg,38007749,left,1748249288.596,/home/najo/NAS/DIP/datasets/Fr5_intertek_dataset/Fr5_intertek_6th_250526/joint/joint_38007749_1748249288.596.json,1748249288.596,0.0,-41.29401782951733,-74.90739576887377,75.82567875928218,-90.9063176825495,-90.00174040841584,48.7209931930693,/home/najo/NAS/DIP/datasets/Fr5_intertek_dataset/preprocessed_roi/Fr5_intertek_6th_250526_zed_38007749_left_1748249288.596.jpg,386,183,1237,1008
/home/najo/NAS/DIP/datasets/Fr5_intertek_dataset/Fr5_intertek_6th_250526/left/zed_38007749_right_1748249288.596.jpg,38007749,right,1748249288.596,/home/najo/NAS/DIP/datasets/Fr5_intertek_dataset/Fr5_intertek_6th_250526/joint/joint_38007749_1748249288.596.json,1748249288.596,0.0,-41.29401782951733,-74.90739576887377,75.82567875928218,-90.9063176825495,-90.00174040841584,48.7209931930693,/home/najo/NAS/DIP/datasets/Fr5_intertek_dataset/preprocessed_roi/Fr5_intertek_6th_250526_zed_38007749_right_1748249288.596.jpg,247,185,1023,1008
/home/najo/NAS/DIP/datasets/Fr5_intertek_dataset/Fr5_intertek_6th_250526/right/zed_34850673_right_1748249288.601.jpg,34850673,right,1748249288.601,/home/najo/NAS/DIP/datasets/Fr5_intertek_dataset/Fr5_intertek_6th_250526/joint/joint_34850673_1748249288.601.json,1748249288.601,0.0,-41.27813660272277,-74.90761331992574,75.8221979424505,-90.9030544167698,-90.00174040841584,48.73904993038366,/home/najo/NAS/DIP/datasets/Fr5_intertek_dataset/preprocessed_roi/Fr5_intertek_6th_250526_zed_34850673_right_1748249288.601.jpg,768,238,1470,1029
/home/najo/NAS/DIP/datasets/Fr5_intertek_dataset/Fr5_intertek_6th_250526/right/zed_34850673_left_1748249288.601.jpg,34850673,left,1748249288.601,/home/najo/NAS/DIP/datasets/Fr5_intertek_dataset/Fr5_intertek_6th_250526/joint/joint_34850673_1748249288.601.json,1748249288.601,0.0,-41.27813660272277,-74.90761331992574,75.8221979424505,-90.9030544167698,-90.00174040841584,48.73904993038366,/home/najo/NAS/DIP/datasets/Fr5_intertek_dataset/preprocessed_roi/Fr5_intertek_6th_250526_zed_34850673_left_1748249288.601.jpg,873,238,1612,1029
/home/najo/NAS/DIP/datasets/Fr5_intertek_dataset/Fr5_intertek_6th_250526/top/zed_30779426_right_1748249288.727.jpg,30779426,right,1748249288.727,/home/najo/NAS/DIP/datasets/Fr5_intertek_dataset/Fr5_intertek_6th_250526/joint/joint_38007749_1748249288.733.json,1748249288.733,0.0060000419616699,-40.34658299814356,-74.9091361772896,75.7880424272896,-90.88608543471534,-90.00021755105197,49.64645536819306,/home/najo/NAS/DIP/datasets/Fr5_intertek_dataset/preprocessed_roi/Fr5_intertek_6th_250526_zed_30779426_right_1748249288.727.jpg,847,122,1383,723
/home/najo/NAS/DIP/datasets/Fr5_intertek_dataset/Fr5_intertek_6th_250526/top/zed_30779426_left_1748249288.727.jpg,30779426,left,1748249288.727,/home/najo/NAS/DIP/datasets/Fr5_intertek_dataset/Fr5_intertek_6th_250526/joint/joint_38007749_1748249288.733.json,1748249288.733,0.0060000419616699,-40.34658299814356,-74.9091361772896,75.7880424272896,-90.88608543471534,-90.00021755105197,49.64645536819306,/home/najo/NAS/DIP/datasets/Fr5_intertek_dataset/preprocessed_roi/Fr5_intertek_6th_250526_zed_30779426_left_1748249288.727.jpg,941,124,1507,721
/home/najo/NAS/DIP/datasets/Fr5_intertek_dataset/Fr5_intertek_6th_250526/left/zed_38007749_left_1748249288.733.jpg,38007749,left,1748249288.733,/home/najo/NAS/DIP/datasets/Fr5_intertek_dataset/Fr5_intertek_6th_250526/joint/joint_38007749_1748249288.733.json,1748249288.733,0.0,-40.34658299814356,-74.9091361772896,75.7880424272896,-90.88608543471534,-90.00021755105197,49.64645536819306,/home/najo/NAS/DIP/datasets/Fr5_intertek_dataset/preprocessed_roi/Fr5_intertek_6th_250526_zed_38007749_left_1748249288.733.jpg,386,185,1237,1008
/home/najo/NAS/DIP/datasets/Fr5_intertek_dataset/Fr5_intertek_6th_250526/left/zed_38007749_right_1748249288.733.jpg,38007749,right,1748249288.733,/home/najo/NAS/DIP/datasets/Fr5_intertek_dataset/Fr5_intertek_6th_250526/joint/joint_38007749_1748249288.733.json,1748249288.733,0.0,-40.34658299814356,-74.9091361772896,75.7880424272896,-90.88608543471534,-90.00021755105197,49.64645536819306,/home/najo/NAS/DIP/datasets/Fr5_intertek_dataset/preprocessed_roi/Fr5_intertek_6th_250526_zed_38007749_right_1748249288.733.jpg,247,185,1027,1008
/home/najo/NAS/DIP/datasets/Fr5_intertek_dataset/Fr5_intertek_6th_250526/right/zed_34850673_left_1748249288.740.jpg,34850673,left,1748249288.74,/home/najo/NAS/DIP/datasets/Fr5_intertek_dataset/Fr5_intertek_6th_250526/joint/joint_34850673_1748249288.740.json,1748249288.74,0.0,-40.21953318378713,-74.90870107518565,75.7878248762376,-90.88608543471534,-90.00043510210396,49.77981416305693,/home/najo/NAS/DIP/datasets/Fr5_intertek_dataset/preprocessed_roi/Fr5_intertek_6th_250526_zed_34850673_left_1748249288.740.jpg,870,238,1612,1029
/home/najo/NAS/DIP/datasets/Fr5_intertek_dataset/Fr5_intertek_6th_250526/right/zed_34850673_right_1748249288.740.jpg,34850673,right,1748249288.74,/home/najo/NAS/DIP/datasets/Fr5_intertek_dataset/Fr5_intertek_6th_250526/joint/joint_34850673_1748249288.740.json,1748249288.74,0.0,-40.21953318378713,-74.90870107518565,75.7878248762376,-90.88608543471534,-90.00043510210396,49.77981416305693,/home/najo/NAS/DIP/datasets/Fr5_intertek_dataset/preprocessed_roi/Fr5_intertek_6th_250526_zed_34850673_right_1748249288.740.jpg,765,238,1470,1029
/home/najo/NAS/DIP/datasets/Fr5_intertek_dataset/Fr5_intertek_6th_250526/top/zed_30779426_right_1748249288.868.jpg,30779426,right,1748249288.868,/home/najo/NAS/DIP/datasets/Fr5_intertek_dataset/Fr5_intertek_6th_250526/joint/joint_30779426_1748249288.868.json,1748249288.868,0.0,-38.12516920637376,-74.9078308709777,75.77934038521039,-90.8854327815594,-89.99956489789604,51.85699160736386,/home/najo/NAS/DIP/datasets/Fr5_intertek_dataset/preprocessed_roi/Fr5_intertek_6th_250526_zed_30779426_right_1748249288.868.jpg,847,113,1372,723
/home/najo/NAS/DIP/datasets/Fr5_intertek_dataset/Fr5_intertek_6th_250526/top/zed_30779426_left_1748249288.868.jpg,30779426,left,1748249288.868,/home/najo/NAS/DIP/datasets/Fr5_intertek_dataset/Fr5_intertek_6th_250526/joint/joint_30779426_1748249288.868.json,1748249288.868,0.0,-38.12516920637376,-74.9078308709777,75.77934038521039,-90.8854327815594,-89.99956489789604,51.85699160736386,/home/najo/NAS/DIP/datasets/Fr5_intertek_dataset/preprocessed_roi/Fr5_intertek_6th_250526_zed_30779426_left_1748249288.868.jpg,937,116,1496,721
