Najongs/2025_ICRA_Multi_View_Robot_Pose_Estimation/dataset/Fr5/Fr5_5th_250526/matched_index_with_roi.csv
img.path,img.serial,img.view,img.ts,joint.path,joint.ts,abs_dt,joint.0,joint.1,joint.2,joint.3,joint.4,joint.5,roi.path,roi.x1,roi.y1,roi.x2,roi.y2
/home/najo/NAS/DIP/datasets/Fr5_intertek_dataset/Fr5_intertek_5th_250526/right/zed_34850673_left_1748249172.164.jpg,34850673,left,1748249172.164,/home/najo/NAS/DIP/datasets/Fr5_intertek_dataset/Fr5_intertek_5th_250526/joint/joint_34850673_1748249172.164.json,1748249172.164,0.0,-55.31191986386138,-90.6546111154084,91.6005230894183,-90.94090829981435,-90.00043510210396,34.6980874845297,/home/najo/NAS/DIP/datasets/Fr5_intertek_dataset/preprocessed_roi/Fr5_intertek_5th_250526_zed_34850673_left_1748249172.164.jpg,1027,198,1612,1027
/home/najo/NAS/DIP/datasets/Fr5_intertek_dataset/Fr5_intertek_5th_250526/right/zed_34850673_right_1748249172.164.jpg,34850673,right,1748249172.164,/home/najo/NAS/DIP/datasets/Fr5_intertek_dataset/Fr5_intertek_5th_250526/joint/joint_34850673_1748249172.164.json,1748249172.164,0.0,-55.31191986386138,-90.6546111154084,91.6005230894183,-90.94090829981435,-90.00043510210396,34.6980874845297,/home/najo/NAS/DIP/datasets/Fr5_intertek_dataset/preprocessed_roi/Fr5_intertek_5th_250526_zed_34850673_right_1748249172.164.jpg,926,198,1470,1029
/home/najo/NAS/DIP/datasets/Fr5_intertek_dataset/Fr5_intertek_5th_250526/left/zed_38007749_left_1748249172.176.jpg,38007749,left,1748249172.176,/home/najo/NAS/DIP/datasets/Fr5_intertek_dataset/Fr5_intertek_5th_250526/joint/joint_38007749_1748249172.176.json,1748249172.176,0.0,-55.26297087716584,-90.60044090346534,91.54613532642328,-90.94156095297028,-90.00043510210396,34.74616626701733,/home/najo/NAS/DIP/datasets/Fr5_intertek_dataset/preprocessed_roi/Fr5_intertek_5th_250526_zed_38007749_left_1748249172.176.jpg,386,137,930,1008
/home/najo/NAS/DIP/datasets/Fr5_intertek_dataset/Fr5_intertek_5th_250526/left/zed_38007749_right_1748249172.176.jpg,38007749,right,1748249172.176,/home/najo/NAS/DIP/datasets/Fr5_intertek_dataset/Fr5_intertek_5th_250526/joint/joint_38007749_1748249172.176.json,1748249172.176,0.0,-55.26297087716584,-90.60044090346534,91.54613532642328,-90.94156095297028,-90.00043510210396,34.74616626701733,/home/najo/NAS/DIP/datasets/Fr5_intertek_dataset/preprocessed_roi/Fr5_intertek_5th_250526_zed_38007749_right_1748249172.176.jpg,247,137,712,1008
/home/najo/NAS/DIP/datasets/Fr5_intertek_dataset/Fr5_intertek_5th_250526/top/zed_30779426_right_1748249172.186.jpg,30779426,right,1748249172.186,/home/najo/NAS/DIP/datasets/Fr5_intertek_dataset/Fr5_intertek_5th_250526/joint/joint_30779426_1748249172.186.json,1748249172.186,0.0,-55.0819684019183,-90.40769067141088,91.34838142017328,-90.94003809560644,-90.00021755105197,34.92042465965346,/home/najo/NAS/DIP/datasets/Fr5_intertek_dataset/preprocessed_roi/Fr5_intertek_5th_250526_zed_30779426_right_1748249172.186.jpg,813,305,1398,761
/home/najo/NAS/DIP/datasets/Fr5_intertek_dataset/Fr5_intertek_5th_250526/top/zed_30779426_left_1748249172.186.jpg,30779426,left,1748249172.186,/home/najo/NAS/DIP/datasets/Fr5_intertek_dataset/Fr5_intertek_5th_250526/joint/joint_30779426_1748249172.186.json,1748249172.186,0.0,-55.0819684019183,-90.40769067141088,91.34838142017328,-90.94003809560644,-90.00021755105197,34.92042465965346,/home/najo/NAS/DIP/datasets/Fr5_intertek_dataset/preprocessed_roi/Fr5_intertek_5th_250526_zed_30779426_left_1748249172.186.jpg,941,305,1526,763
/home/najo/NAS/DIP/datasets/Fr5_intertek_dataset/Fr5_intertek_5th_250526/right/zed_34850673_right_1748249172.315.jpg,34850673,right,1748249172.315,/home/najo/NAS/DIP/datasets/Fr5_intertek_dataset/Fr5_intertek_5th_250526/joint/joint_34850673_1748249172.315.json,1748249172.315,0.0,-53.06701055847772,-88.15255646658416,89.07780109065594,-90.93525197246286,-90.00021755105197,36.92755066522277,/home/najo/NAS/DIP/datasets/Fr5_intertek_dataset/preprocessed_roi/Fr5_intertek_5th_250526_zed_34850673_right_1748249172.315.jpg,900,202,1470,1029
/home/najo/NAS/DIP/datasets/Fr5_intertek_dataset/Fr5_intertek_5th_250526/right/zed_34850673_left_1748249172.315.jpg,34850673,left,1748249172.315,/home/najo/NAS/DIP/datasets/Fr5_intertek_dataset/Fr5_intertek_5th_250526/joint/joint_34850673_1748249172.315.json,1748249172.315,0.0,-53.06701055847772,-88.15255646658416,89.07780109065594,-90.93525197246286,-90.00021755105197,36.92755066522277,/home/najo/NAS/DIP/datasets/Fr5_intertek_dataset/preprocessed_roi/Fr5_intertek_5th_250526_zed_34850673_left_1748249172.315.jpg,1005,202,1612,1027
/home/najo/NAS/DIP/datasets/Fr5_intertek_dataset/Fr5_intertek_5th_250526/left/zed_38007749_right_1748249172.319.jpg,38007749,right,1748249172.319,/home/najo/NAS/DIP/datasets/Fr5_intertek_dataset/Fr5_intertek_5th_250526/joint/joint_38007749_1748249172.319.json,1748249172.319,0.0,-53.06701055847772,-88.15255646658416,89.07780109065594,-90.93525197246286,-90.00021755105197,36.92755066522277,/home/najo/NAS/DIP/datasets/Fr5_intertek_dataset/preprocessed_roi/Fr5_intertek_5th_250526_zed_38007749_right_1748249172.319.jpg,243,137,753,1008
/home/najo/NAS/DIP/datasets/Fr5_intertek_dataset/Fr5_intertek_5th_250526/left/zed_38007749_left_1748249172.319.jpg,38007749,left,1748249172.319,/home/najo/NAS/DIP/datasets/Fr5_intertek_dataset/Fr5_intertek_5th_250526/joint/joint_38007749_1748249172.319.json,1748249172.319,0.0,-53.06701055847772,-88.15255646658416,89.07780109065594,-90.93525197246286,-90.00021755105197,36.92755066522277,/home/najo/NAS/DIP/datasets/Fr5_intertek_dataset/preprocessed_roi/Fr5_intertek_5th_250526_zed_38007749_left_1748249172.319.jpg,382,137,971,1008
/home/najo/NAS/DIP/datasets/Fr5_intertek_dataset/Fr5_intertek_5th_250526/top/zed_30779426_right_1748249172.329.jpg,30779426,right,1748249172.329,/home/najo/NAS/DIP/datasets/Fr5_intertek_dataset/Fr5_intertek_5th_250526/joint/joint_30779426_1748249172.329.json,1748249172.329,0.0,-52.87251991800742,-87.94022663985149,88.8661239170792,-90.93394666615096,-90.0,37.12095355043317,/home/najo/NAS/DIP/datasets/Fr5_intertek_dataset/preprocessed_roi/Fr5_intertek_5th_250526_zed_30779426_right_1748249172.329.jpg,825,280,1398,753
/home/najo/NAS/DIP/datasets/Fr5_intertek_dataset/Fr5_intertek_5th_250526/top/zed_30779426_left_1748249172.329.jpg,30779426,left,1748249172.329,/home/najo/NAS/DIP/datasets/Fr5_intertek_dataset/Fr5_intertek_5th_250526/joint/joint_30779426_1748249172.329.json,1748249172.329,0.0,-52.87251991800742,-87.94022663985149,88.8661239170792,-90.93394666615096,-90.0,37.12095355043317,/home/najo/NAS/DIP/datasets/Fr5_intertek_dataset/preprocessed_roi/Fr5_intertek_5th_250526_zed_30779426_left_1748249172.329.jpg,948,280,1530,753
/home/najo/NAS/DIP/datasets/Fr5_intertek_dataset/Fr5_intertek_5th_250526/left/zed_38007749_right_1748249172.453.jpg,38007749,right,1748249172.453,/home/najo/NAS/DIP/datasets/Fr5_intertek_dataset/Fr5_intertek_5th_250526/joint/joint_38007749_1748249172.453.json,1748249172.453,0.0,-50.86691676980198,-85.6692112082302,86.60141746596534,-90.9258972772277,-89.99956489789604,39.13069016862624,/home/najo/NAS/DIP/datasets/Fr5_intertek_dataset/preprocessed_roi/Fr5_intertek_5th_250526_zed_38007749_right_1748249172.453.jpg,247,137,798,1008
/home/najo/NAS/DIP/datasets/Fr5_intertek_dataset/Fr5_intertek_5th_250526/left/zed_38007749_left_1748249172.453.jpg,38007749,left,1748249172.453,/home/najo/NAS/DIP/datasets/Fr5_intertek_dataset/Fr5_intertek_5th_250526/joint/joint_38007749_1748249172.453.json,1748249172.453,0.0,-50.86691676980198,-85.6692112082302,86.60141746596534,-90.9258972772277,-89.99956489789604,39.13069016862624,/home/najo/NAS/DIP/datasets/Fr5_intertek_dataset/preprocessed_roi/Fr5_intertek_5th_250526_zed_38007749_left_1748249172.453.jpg,386,139,1016,1008
/home/najo/NAS/DIP/datasets/Fr5_intertek_dataset/Fr5_intertek_5th_250526/right/zed_34850673_right_1748249172.458.jpg,34850673,right,1748249172.458,/home/najo/NAS/DIP/datasets/Fr5_intertek_dataset/Fr5_intertek_5th_250526/joint/joint_34850673_1748249172.458.json,1748249172.458,0.0,-50.83602452042079,-85.6317924272896,86.5644337871287,-90.92654993038364,-89.99934734684406,39.1617999690594,/home/najo/NAS/DIP/datasets/Fr5_intertek_dataset/preprocessed_roi/Fr5_intertek_5th_250526_zed_34850673_right_1748249172.458.jpg,881,206,1470,1029
/home/najo/NAS/DIP/datasets/Fr5_intertek_dataset/Fr5_intertek_5th_250526/top/zed_30779426_right_1748249172.467.jpg,30779426,right,1748249172.467,/home/najo/NAS/DIP/datasets/Fr5_intertek_dataset/Fr5_intertek_5th_250526/joint/joint_30779426_1748249172.467.json,1748249172.467,0.0,-50.66524694461633,-85.43338586788364,86.36319906404702,-90.92676748143565,-90.0,39.3375812190594,/home/najo/NAS/DIP/datasets/Fr5_intertek_dataset/preprocessed_roi/Fr5_intertek_5th_250526_zed_30779426_right_1748249172.467.jpg,836,248,1402,738
/home/najo/NAS/DIP/datasets/Fr5_intertek_dataset/Fr5_intertek_5th_250526/right/zed_34850673_left_1748249172.458.jpg,34850673,left,1748249172.458,/home/najo/NAS/DIP/datasets/Fr5_intertek_dataset/Fr5_intertek_5th_250526/joint/joint_34850673_1748249172.458.json,1748249172.458,0.0,-50.83602452042079,-85.6317924272896,86.5644337871287,-90.92654993038364,-89.99934734684406,39.1617999690594,/home/najo/NAS/DIP/datasets/Fr5_intertek_dataset/preprocessed_roi/Fr5_intertek_5th_250526_zed_34850673_left_1748249172.458.jpg,986,208,1612,1027
/home/najo/NAS/DIP/datasets/Fr5_intertek_dataset/Fr5_intertek_5th_250526/top/zed_30779426_left_1748249172.467.jpg,30779426,left,1748249172.467,/home/najo/NAS/DIP/datasets/Fr5_intertek_dataset/Fr5_intertek_5th_250526/joint/joint_30779426_1748249172.467.json,1748249172.467,0.0,-50.66524694461633,-85.43338586788364,86.36319906404702,-90.92676748143565,-90.0,39.3375812190594,/home/najo/NAS/DIP/datasets/Fr5_intertek_dataset/preprocessed_roi/Fr5_intertek_5th_250526_zed_30779426_left_1748249172.467.jpg,952,248,1530,738
/home/najo/NAS/DIP/datasets/Fr5_intertek_dataset/Fr5_intertek_5th_250526/left/zed_38007749_right_1748249172.592.jpg,38007749,right,1748249172.592,/home/najo/NAS/DIP/datasets/Fr5_intertek_dataset/Fr5_intertek_5th_250526/joint/joint_38007749_1748249172.592.json,1748249172.592,0.0,-48.67770053372525,-83.19195737933168,84.11002281868812,-90.92111115408416,-90.00043510210396,41.33208926361386,/home/najo/NAS/DIP/datasets/Fr5_intertek_dataset/preprocessed_roi/Fr5_intertek_5th_250526_zed_38007749_right_1748249172.592.jpg,247,141,840,1008
/home/najo/NAS/DIP/datasets/Fr5_intertek_dataset/Fr5_intertek_5th_250526/left/zed_38007749_left_1748249172.592.jpg,38007749,left,1748249172.592,/home/najo/NAS/DIP/datasets/Fr5_intertek_dataset/Fr5_intertek_5th_250526/joint/joint_38007749_1748249172.592.json,1748249172.592,0.0,-48.67770053372525,-83.19195737933168,84.11002281868812,-90.92111115408416,-90.00043510210396,41.33208926361386,/home/najo/NAS/DIP/datasets/Fr5_intertek_dataset/preprocessed_roi/Fr5_intertek_5th_250526_zed_38007749_left_1748249172.592.jpg,386,145,1061,1008
/home/najo/NAS/DIP/datasets/Fr5_intertek_dataset/Fr5_intertek_5th_250526/right/zed_34850673_left_1748249172.597.jpg,34850673,left,1748249172.597,/home/najo/NAS/DIP/datasets/Fr5_intertek_dataset/Fr5_intertek_5th_250526/joint/joint_34850673_1748249172.597.json,1748249172.597,0.0,-48.5989470529084,-83.10297899907178,84.01843382580445,-90.9204585009282,-90.00043510210396,41.41367090810643,/home/najo/NAS/DIP/datasets/Fr5_intertek_dataset/preprocessed_roi/Fr5_intertek_5th_250526_zed_34850673_left_1748249172.597.jpg,963,213,1612,1027
/home/najo/NAS/DIP/datasets/Fr5_intertek_dataset/Fr5_intertek_5th_250526/right/zed_34850673_right_1748249172.597.jpg,34850673,right,1748249172.597,/home/najo/NAS/DIP/datasets/Fr5_intertek_dataset/Fr5_intertek_5th_250526/joint/joint_34850673_1748249172.597.json,1748249172.597,0.0,-48.5989470529084,-83.10297899907178,84.01843382580445,-90.9204585009282,-90.00043510210396,41.41367090810643,/home/najo/NAS/DIP/datasets/Fr5_intertek_dataset/preprocessed_roi/Fr5_intertek_5th_250526_zed_34850673_right_1748249172.597.jpg,862,213,1470,1029
/home/najo/NAS/DIP/datasets/Fr5_intertek_dataset/Fr5_intertek_5th_250526/top/zed_30779426_left_1748249172.605.jpg,30779426,left,1748249172.605,/home/najo/NAS/DIP/datasets/Fr5_intertek_dataset/Fr5_intertek_5th_250526/joint/joint_30779426_1748249172.605.json,1748249172.605,0.0,-48.4703743811881,-82.96070061107673,83.87223951887377,-90.91958829672028,-90.0010877552599,41.54311378403465,/home/najo/NAS/DIP/datasets/Fr5_intertek_dataset/preprocessed_roi/Fr5_intertek_5th_250526_zed_30779426_left_1748249172.605.jpg,948,223,1522,725
/home/najo/NAS/DIP/datasets/Fr5_intertek_dataset/Fr5_intertek_5th_250526/top/zed_30779426_right_1748249172.605.jpg,30779426,right,1748249172.605,/home/najo/NAS/DIP/datasets/Fr5_intertek_dataset/Fr5_intertek_5th_250526/joint/joint_30779426_1748249172.605.json,1748249172.605,0.0,-48.4703743811881,-82.96070061107673,83.87223951887377,-90.91958829672028,-90.0010877552599,41.54311378403465,/home/najo/NAS/DIP/datasets/Fr5_intertek_dataset/preprocessed_roi/Fr5_intertek_5th_250526_zed_30779426_right_1748249172.605.jpg,847,223,1395,725
/home/najo/NAS/DIP/datasets/Fr5_intertek_dataset/Fr5_intertek_5th_250526/left/zed_38007749_left_1748249172.730.jpg,38007749,left,1748249172.73,/home/najo/NAS/DIP/datasets/Fr5_intertek_dataset/Fr5_intertek_5th_250526/joint/joint_38007749_1748249172.730.json,1748249172.73,0.0,-46.46520633508663,-80.7207949798886,81.6295057240099,-90.91480217357672,-90.0,43.53827448174505,/home/najo/NAS/DIP/datasets/Fr5_intertek_dataset/preprocessed_roi/Fr5_intertek_5th_250526_zed_38007749_left_1748249172.730.jpg,386,147,1106,1008
/home/najo/NAS/DIP/datasets/Fr5_intertek_dataset/Fr5_intertek_5th_250526/left/zed_38007749_right_1748249172.730.jpg,38007749,right,1748249172.73,/home/najo/NAS/DIP/datasets/Fr5_intertek_dataset/Fr5_intertek_5th_250526/joint/joint_38007749_1748249172.730.json,1748249172.73,0.0,-46.46520633508663,-80.7207949798886,81.6295057240099,-90.91480217357672,-90.0,43.53827448174505,/home/najo/NAS/DIP/datasets/Fr5_intertek_dataset/preprocessed_roi/Fr5_intertek_5th_250526_zed_38007749_right_1748249172.730.jpg,247,149,885,1008
/home/najo/NAS/DIP/datasets/Fr5_intertek_dataset/Fr5_intertek_5th_250526/right/zed_34850673_right_1748249172.735.jpg,34850673,right,1748249172.735,/home/najo/NAS/DIP/datasets/Fr5_intertek_dataset/Fr5_intertek_5th_250526/joint/joint_34850673_1748249172.735.json,1748249172.735,0.0,-46.41669245049505,-80.6659721147896,81.5766408183787,-90.91545482673268,-89.99934734684406,43.58570061107673,/home/najo/NAS/DIP/datasets/Fr5_intertek_dataset/preprocessed_roi/Fr5_intertek_5th_250526_zed_34850673_right_1748249172.735.jpg,840,217,1470,1029
/home/najo/NAS/DIP/datasets/Fr5_intertek_dataset/Fr5_intertek_5th_250526/right/zed_34850673_left_1748249172.735.jpg,34850673,left,1748249172.735,/home/najo/NAS/DIP/datasets/Fr5_intertek_dataset/Fr5_intertek_5th_250526/joint/joint_34850673_1748249172.735.json,1748249172.735,0.0,-46.41669245049505,-80.6659721147896,81.5766408183787,-90.91545482673268,-89.99934734684406,43.58570061107673,/home/najo/NAS/DIP/datasets/Fr5_intertek_dataset/preprocessed_roi/Fr5_intertek_5th_250526_zed_34850673_left_1748249172.735.jpg,945,217,1612,1029
/home/najo/NAS/DIP/datasets/Fr5_intertek_dataset/Fr5_intertek_5th_250526/top/zed_30779426_left_1748249172.742.jpg,30779426,left,1748249172.742,/home/najo/NAS/DIP/datasets/Fr5_intertek_dataset/Fr5_intertek_5th_250526/joint/joint_30779426_1748249172.742.json,1748249172.742,0.0,-46.27180344987624,-80.50476678527228,81.41978650990097,-90.91436707147275,-90.0,43.72689124381188,/home/najo/NAS/DIP/datasets/Fr5_intertek_dataset/preprocessed_roi/Fr5_intertek_5th_250526_zed_30779426_left_1748249172.742.jpg,945,198,1518,721
/home/najo/NAS/DIP/datasets/Fr5_intertek_dataset/Fr5_intertek_5th_250526/top/zed_30779426_right_1748249172.742.jpg,30779426,right,1748249172.742,/home/najo/NAS/DIP/datasets/Fr5_intertek_dataset/Fr5_intertek_5th_250526/joint/joint_30779426_1748249172.742.json,1748249172.742,0.0,-46.27180344987624,-80.50476678527228,81.41978650990097,-90.91436707147275,-90.0,43.72689124381188,/home/najo/NAS/DIP/datasets/Fr5_intertek_dataset/preprocessed_roi/Fr5_intertek_5th_250526_zed_30779426_right_1748249172.742.jpg,855,198,1391,721
/home/najo/NAS/DIP/datasets/Fr5_intertek_dataset/Fr5_intertek_5th_250526/left/zed_38007749_left_1748249172.867.jpg,38007749,left,1748249172.867,/home/najo/NAS/DIP/datasets/Fr5_intertek_dataset/Fr5_intertek_5th_250526/joint/joint_38007749_1748249172.867.json,1748249172.867,0.0,-44.30057336788366,-78.2709525835396,79.1818388381807,-90.9074054378094,-90.00043510210396,45.70203724474009,/home/najo/NAS/DIP/datasets/Fr5_intertek_dataset/preprocessed_roi/Fr5_intertek_5th_250526_zed_38007749_left_1748249172.867.jpg,386,158,1147,1008
/home/najo/NAS/DIP/datasets/Fr5_intertek_dataset/Fr5_intertek_5th_250526/left/zed_38007749_right_1748249172.867.jpg,38007749,right,1748249172.867,/home/najo/NAS/DIP/datasets/Fr5_intertek_dataset/Fr5_intertek_5th_250526/joint/joint_38007749_1748249172.867.json,1748249172.867,0.0,-44.30057336788366,-78.2709525835396,79.1818388381807,-90.9074054378094,-90.00043510210396,45.70203724474009,/home/najo/NAS/DIP/datasets/Fr5_intertek_dataset/preprocessed_roi/Fr5_intertek_5th_250526_zed_38007749_right_1748249172.867.jpg,247,158,930,1008
/home/najo/NAS/DIP/datasets/Fr5_intertek_dataset/Fr5_intertek_5th_250526/right/zed_34850673_left_1748249172.873.jpg,34850673,left,1748249172.873,/home/najo/NAS/DIP/datasets/Fr5_intertek_dataset/Fr5_intertek_5th_250526/joint/joint_34850673_1748249172.873.json,1748249172.873,0.0,-44.20398070080445,-78.16152440439356,79.07349841429455,-90.90718788675744,-90.00043510210396,45.79449644183168,/home/najo/NAS/DIP/datasets/Fr5_intertek_dataset/preprocessed_roi/Fr5_intertek_5th_250526_zed_34850673_left_1748249172.873.jpg,915,225,1612,1029
/home/najo/NAS/DIP/datasets/Fr5_intertek_dataset/Fr5_intertek_5th_250526/right/zed_34850673_right_1748249172.873.jpg,34850673,right,1748249172.873,/home/najo/NAS/DIP/datasets/Fr5_intertek_dataset/Fr5_intertek_5th_250526/joint/joint_34850673_1748249172.873.json,1748249172.873,0.0,-44.20398070080445,-78.16152440439356,79.07349841429455,-90.90718788675744,-90.00043510210396,45.79449644183168,/home/najo/NAS/DIP/datasets/Fr5_intertek_dataset/preprocessed_roi/Fr5_intertek_5th_250526_zed_34850673_right_1748249172.873.jpg,813,225,1470,1029
/home/najo/NAS/DIP/datasets/Fr5_intertek_dataset/Fr5_intertek_5th_250526/top/zed_30779426_left_1748249172.879.jpg,30779426,left,1748249172.879,/home/najo/NAS/DIP/datasets/Fr5_intertek_dataset/Fr5_intertek_5th_250526/joint/joint_30779426_1748249172.879.json,1748249172.879,0.0,-44.07606068224009,-78.0181582611386,78.92839186262377,-90.9050123762376,-90.0,45.92132870513614,/home/najo/NAS/DIP/datasets/Fr5_intertek_dataset/preprocessed_roi/Fr5_intertek_5th_250526_zed_30779426_left_1748249172.879.jpg,945,175,1518,721
/home/najo/NAS/DIP/datasets/Fr5_intertek_dataset/Fr5_intertek_5th_250526/top/zed_30779426_right_1748249172.879.jpg,30779426,right,1748249172.879,/home/najo/NAS/DIP/datasets/Fr5_intertek_dataset/Fr5_intertek_5th_250526/joint/joint_30779426_1748249172.879.json,1748249172.879,0.0,-44.07606068224009,-78.0181582611386,78.92839186262377,-90.9050123762376,-90.0,45.92132870513614,/home/najo/NAS/DIP/datasets/Fr5_intertek_dataset/preprocessed_roi/Fr5_intertek_5th_250526_zed_30779426_right_1748249172.879.jpg,855,172,1391,723
/home/najo/NAS/DIP/datasets/Fr5_intertek_dataset/Fr5_intertek_5th_250526/left/zed_38007749_right_1748249173.006.jpg,38007749,right,1748249173.006,/home/najo/NAS/DIP/datasets/Fr5_intertek_dataset/Fr5_intertek_5th_250526/joint/joint_38007749_1748249173.006.json,1748249173.006,0.0,-42.30976369121287,-76.0295240949876,76.93192585860149,-90.9019666615099,-89.99956489789604,47.69654528929455,/home/najo/NAS/DIP/datasets/Fr5_intertek_dataset/preprocessed_roi/Fr5_intertek_5th_250526_zed_38007749_right_1748249173.006.jpg,247,172,986,1008
/home/najo/NAS/DIP/datasets/Fr5_intertek_dataset/Fr5_intertek_5th_250526/left/zed_38007749_left_1748249173.006.jpg,38007749,left,1748249173.006,/home/najo/NAS/DIP/datasets/Fr5_intertek_dataset/Fr5_intertek_5th_250526/joint/joint_38007749_1748249173.006.json,1748249173.006,0.0,-42.30976369121287,-76.0295240949876,76.93192585860149,-90.9019666615099,-89.99956489789604,47.69654528929455,/home/najo/NAS/DIP/datasets/Fr5_intertek_dataset/preprocessed_roi/Fr5_intertek_5th_250526_zed_38007749_left_1748249173.006.jpg,386,172,1200,1008
/home/najo/NAS/DIP/datasets/Fr5_intertek_dataset/Fr5_intertek_5th_250526/right/zed_34850673_right_1748249173.010.jpg,34850673,right,1748249173.01,/home/najo/NAS/DIP/datasets/Fr5_intertek_dataset/Fr5_intertek_5th_250526/joint/joint_34850673_1748249173.010.json,1748249173.01,0.0,-42.29975634282178,-76.01734123607673,76.91930789758663,-90.90174911045791,-90.0,47.70720529084158,/home/najo/NAS/DIP/datasets/Fr5_intertek_dataset/preprocessed_roi/Fr5_intertek_5th_250526_zed_34850673_right_1748249173.010.jpg,787,232,1470,1029
/home/najo/NAS/DIP/datasets/Fr5_intertek_dataset/Fr5_intertek_5th_250526/right/zed_34850673_left_1748249173.010.jpg,34850673,left,1748249173.01,/home/najo/NAS/DIP/datasets/Fr5_intertek_dataset/Fr5_intertek_5th_250526/joint/joint_34850673_1748249173.010.json,1748249173.01,0.0,-42.29975634282178,-76.01734123607673,76.91930789758663,-90.90174911045791,-90.0,47.70720529084158,/home/najo/NAS/DIP/datasets/Fr5_intertek_dataset/preprocessed_roi/Fr5_intertek_5th_250526_zed_34850673_left_1748249173.010.jpg,892,232,1612,1029
/home/najo/NAS/DIP/datasets/Fr5_intertek_dataset/Fr5_intertek_5th_250526/top/zed_30779426_right_1748249173.017.jpg,30779426,right,1748249173.017,/home/najo/NAS/DIP/datasets/Fr5_intertek_dataset/Fr5_intertek_5th_250526/joint/joint_30779426_1748249173.017.json,1748249173.017,0.0,-42.20403387995049,-75.90247428063118,76.7966091042698,-90.90087890625,-89.99956489789604,47.8166334699876,/home/najo/NAS/DIP/datasets/Fr5_intertek_dataset/preprocessed_roi/Fr5_intertek_5th_250526_zed_30779426_right_1748249173.017.jpg,851,147,1387,723
/home/najo/NAS/DIP/datasets/Fr5_intertek_dataset/Fr5_intertek_5th_250526/top/zed_30779426_left_1748249173.017.jpg,30779426,left,1748249173.017,/home/najo/NAS/DIP/datasets/Fr5_intertek_dataset/Fr5_intertek_5th_250526/joint/joint_30779426_1748249173.017.json,1748249173.017,0.0,-42.20403387995049,-75.90247428063118,76.7966091042698,-90.90087890625,-89.99956489789604,47.8166334699876,/home/najo/NAS/DIP/datasets/Fr5_intertek_dataset/preprocessed_roi/Fr5_intertek_5th_250526_zed_30779426_left_1748249173.017.jpg,941,149,1515,721
/home/najo/NAS/DIP/datasets/Fr5_intertek_dataset/Fr5_intertek_5th_250526/left/zed_38007749_left_1748249173.142.jpg,38007749,left,1748249173.142,/home/najo/NAS/DIP/datasets/Fr5_intertek_dataset/Fr5_intertek_5th_250526/joint/joint_38007749_1748249173.142.json,1748249173.142,0.0,-41.4030109065594,-74.9948512917698,75.89703550433168,-90.89957359993812,-89.99956489789604,48.61352297339109,/home/najo/NAS/DIP/datasets/Fr5_intertek_dataset/preprocessed_roi/Fr5_intertek_5th_250526_zed_38007749_left_1748249173.142.jpg,382,181,1226,1008
/home/najo/NAS/DIP/datasets/Fr5_intertek_dataset/Fr5_intertek_5th_250526/left/zed_38007749_right_1748249173.142.jpg,38007749,right,1748249173.142,/home/najo/NAS/DIP/datasets/Fr5_intertek_dataset/Fr5_intertek_5th_250526/joint/joint_38007749_1748249173.142.json,1748249173.142,0.0,-41.4030109065594,-74.9948512917698,75.89703550433168,-90.89957359993812,-89.99956489789604,48.61352297339109,/home/najo/NAS/DIP/datasets/Fr5_intertek_dataset/preprocessed_roi/Fr5_intertek_5th_250526_zed_38007749_right_1748249173.142.jpg,247,183,1016,1008
/home/najo/NAS/DIP/datasets/Fr5_intertek_dataset/Fr5_intertek_5th_250526/right/zed_34850673_right_1748249173.147.jpg,34850673,right,1748249173.147,/home/najo/NAS/DIP/datasets/Fr5_intertek_dataset/Fr5_intertek_5th_250526/joint/joint_34850673_1748249173.147.json,1748249173.147,0.0,-41.39104559870049,-74.98310353496286,75.88615795173267,-90.89935604888612,-89.99978244894803,48.62244256652227,/home/najo/NAS/DIP/datasets/Fr5_intertek_dataset/preprocessed_roi/Fr5_intertek_5th_250526_zed_34850673_right_1748249173.147.jpg,772,236,1470,1029
/home/najo/NAS/DIP/datasets/Fr5_intertek_dataset/Fr5_intertek_5th_250526/right/zed_34850673_left_1748249173.147.jpg,34850673,left,1748249173.147,/home/najo/NAS/DIP/datasets/Fr5_intertek_dataset/Fr5_intertek_5th_250526/joint/joint_34850673_1748249173.147.json,1748249173.147,0.0,-41.39104559870049,-74.98310353496286,75.88615795173267,-90.89935604888612,-89.99978244894803,48.62244256652227,/home/najo/NAS/DIP/datasets/Fr5_intertek_dataset/preprocessed_roi/Fr5_intertek_5th_250526_zed_34850673_left_1748249173.147.jpg,877,236,1612,1027
/home/najo/NAS/DIP/datasets/Fr5_intertek_dataset/Fr5_intertek_5th_250526/top/zed_30779426_left_1748249173.155.jpg,30779426,left,1748249173.155,/home/najo/NAS/DIP/datasets/Fr5_intertek_dataset/Fr5_intertek_5th_250526/joint/joint_30779426_1748249173.155.json,1748249173.155,0.0,-41.36319906404703,-74.9606957766089,75.86440284653466,-90.89892094678218,-90.0,48.64158705909653,/home/najo/NAS/DIP/datasets/Fr5_intertek_dataset/preprocessed_roi/Fr5_intertek_5th_250526_zed_30779426_left_1748249173.155.jpg,941,130,1511,721
/home/najo/NAS/DIP/datasets/Fr5_intertek_dataset/Fr5_intertek_5th_250526/top/zed_30779426_right_1748249173.155.jpg,30779426,right,1748249173.155,/home/najo/NAS/DIP/datasets/Fr5_intertek_dataset/Fr5_intertek_5th_250526/joint/joint_30779426_1748249173.155.json,1748249173.155,0.0,-41.36319906404703,-74.9606957766089,75.86440284653466,-90.89892094678218,-90.0,48.64158705909653,/home/najo/NAS/DIP/datasets/Fr5_intertek_dataset/preprocessed_roi/Fr5_intertek_5th_250526_zed_30779426_right_1748249173.155.jpg,847,128,1383,723
/home/najo/NAS/DIP/datasets/Fr5_intertek_dataset/Fr5_intertek_5th_250526/left/zed_38007749_right_1748249173.278.jpg,38007749,right,1748249173.278,/home/najo/NAS/DIP/datasets/Fr5_intertek_dataset/Fr5_intertek_5th_250526/joint/joint_38007749_1748249173.278.json,1748249173.278,0.0,-41.28553333849009,-74.8871635210396,76.05628287438118,-91.15758914758663,-89.99956489789604,48.69771523050742,/home/najo/NAS/DIP/datasets/Fr5_intertek_dataset/preprocessed_roi/Fr5_intertek_5th_250526_zed_38007749_right_1748249173.278.jpg,247,185,1023,1008
/home/najo/NAS/DIP/datasets/Fr5_intertek_dataset/Fr5_intertek_5th_250526/left/zed_38007749_left_1748249173.278.jpg,38007749,left,1748249173.278,/home/najo/NAS/DIP/datasets/Fr5_intertek_dataset/Fr5_intertek_5th_250526/joint/joint_38007749_1748249173.278.json,1748249173.278,0.0,-41.28553333849009,-74.8871635210396,76.05628287438118,-91.15758914758663,-89.99956489789604,48.69771523050742,/home/najo/NAS/DIP/datasets/Fr5_intertek_dataset/preprocessed_roi/Fr5_intertek_5th_250526_zed_38007749_left_1748249173.278.jpg,382,183,1237,1008
/home/najo/NAS/DIP/datasets/Fr5_intertek_dataset/Fr5_intertek_5th_250526/right/zed_34850673_left_1748249173.284.jpg,34850673,left,1748249173.284,/home/najo/NAS/DIP/datasets/Fr5_intertek_dataset/Fr5_intertek_5th_250526/joint/joint_34850673_1748249173.284.json,1748249173.284,0.0,-41.2787892558787,-74.8860757657797,76.08739267481435,-91.19000425433168,-89.99891224474008,48.69880298576733,/home/najo/NAS/DIP/datasets/Fr5_intertek_dataset/preprocessed_roi/Fr5_intertek_5th_250526_zed_34850673_left_1748249173.284.jpg,873,238,1612,1027
/home/najo/NAS/DIP/datasets/Fr5_intertek_dataset/Fr5_intertek_5th_250526/right/zed_34850673_right_1748249173.284.jpg,34850673,right,1748249173.284,/home/najo/NAS/DIP/datasets/Fr5_intertek_dataset/Fr5_intertek_5th_250526/joint/joint_34850673_1748249173.284.json,1748249173.284,0.0,-41.2787892558787,-74.8860757657797,76.08739267481435,-91.19000425433168,-89.99891224474008,48.69880298576733,/home/najo/NAS/DIP/datasets/Fr5_intertek_dataset/preprocessed_roi/Fr5_intertek_5th_250526_zed_34850673_right_1748249173.284.jpg,768,238,1470,1029
/home/najo/NAS/DIP/datasets/Fr5_intertek_dataset/Fr5_intertek_5th_250526/top/zed_30779426_left_1748249173.292.jpg,30779426,left,1748249173.292,/home/najo/NAS/DIP/datasets/Fr5_intertek_dataset/Fr5_intertek_5th_250526/joint/joint_30779426_1748249173.292.json,1748249173.292,0.0,-41.27487333694306,-74.8858582147277,76.13264329362623,-91.23612507735147,-89.99891224474008,48.6990205368193,/home/najo/NAS/DIP/datasets/Fr5_intertek_dataset/preprocessed_roi/Fr5_intertek_5th_250526_zed_30779426_left_1748249173.292.jpg,941,126,1511,721
/home/najo/NAS/DIP/datasets/Fr5_intertek_dataset/Fr5_intertek_5th_250526/top/zed_30779426_right_1748249173.292.jpg,30779426,right,1748249173.292,/home/najo/NAS/DIP/datasets/Fr5_intertek_dataset/Fr5_intertek_5th_250526/joint/joint_30779426_1748249173.292.json,1748249173.292,0.0,-41.27487333694306,-74.8858582147277,76.13264329362623,-91.23612507735147,-89.99891224474008,48.6990205368193,/home/najo/NAS/DIP/datasets/Fr5_intertek_dataset/preprocessed_roi/Fr5_intertek_5th_250526_zed_30779426_right_1748249173.292.jpg,847,124,1383,723
/home/najo/NAS/DIP/datasets/Fr5_intertek_dataset/Fr5_intertek_5th_250526/left/zed_38007749_right_1748249173.413.jpg,38007749,right,1748249173.413,/home/najo/NAS/DIP/datasets/Fr5_intertek_dataset/Fr5_intertek_5th_250526/joint/joint_38007749_1748249173.413.json,1748249173.413,0.0,-41.28466313428217,-74.85148514851485,77.2425887608292,-92.38479463180693,-89.99956489789604,48.69858543471534,/home/najo/NAS/DIP/datasets/Fr5_intertek_dataset/preprocessed_roi/Fr5_intertek_5th_250526_zed_38007749_right_1748249173.413.jpg,247,191,1023,1008
/home/najo/NAS/DIP/datasets/Fr5_intertek_dataset/Fr5_intertek_5th_250526/left/zed_38007749_left_1748249173.413.jpg,38007749,left,1748249173.413,/home/najo/NAS/DIP/datasets/Fr5_intertek_dataset/Fr5_intertek_5th_250526/joint/joint_38007749_1748249173.413.json,1748249173.413,0.0,-41.28466313428217,-74.85148514851485,77.2425887608292,-92.38479463180693,-89.99956489789604,48.69858543471534,/home/najo/NAS/DIP/datasets/Fr5_intertek_dataset/preprocessed_roi/Fr5_intertek_5th_250526_zed_38007749_left_1748249173.413.jpg,386,191,1237,1008
/home/najo/NAS/DIP/datasets/Fr5_intertek_dataset/Fr5_intertek_5th_250526/right/zed_34850673_left_1748249173.422.jpg,34850673,left,1748249173.422,/home/najo/NAS/DIP/datasets/Fr5_intertek_dataset/Fr5_intertek_5th_250526/joint/joint_34850673_1748249173.422.json,1748249173.422,0.0,-41.286403542698,-74.84778678063118,77.33787612159654,-92.48160484993812,-89.99978244894803,48.69815033261138,/home/najo/NAS/DIP/datasets/Fr5_intertek_dataset/preprocessed_roi/Fr5_intertek_5th_250526_zed_34850673_left_1748249173.422.jpg,873,238,1612,1029
/home/najo/NAS/DIP/datasets/Fr5_intertek_dataset/Fr5_intertek_5th_250526/right/zed_34850673_right_1748249173.422.jpg,34850673,right,1748249173.422,/home/najo/NAS/DIP/datasets/Fr5_intertek_dataset/Fr5_intertek_5th_250526/joint/joint_34850673_1748249173.422.json,1748249173.422,0.0,-41.286403542698,-74.84778678063118,77.33787612159654,-92.48160484993812,-89.99978244894803,48.69815033261138,/home/najo/NAS/DIP/datasets/Fr5_intertek_dataset/preprocessed_roi/Fr5_intertek_5th_250526_zed_34850673_right_1748249173.422.jpg,768,238,1470,1029
/home/najo/NAS/DIP/datasets/Fr5_intertek_dataset/Fr5_intertek_5th_250526/top/zed_30779426_right_1748249173.429.jpg,30779426,right,1748249173.429,/home/najo/NAS/DIP/datasets/Fr5_intertek_dataset/Fr5_intertek_5th_250526/joint/joint_30779426_1748249173.429.json,1748249173.429,0.0,-41.28814395111386,-74.84474106590346,77.4116259282178,-92.5640566986386,-89.99934734684406,48.6979327815594,/home/najo/NAS/DIP/datasets/Fr5_intertek_dataset/preprocessed_roi/Fr5_intertek_5th_250526_zed_30779426_right_1748249173.429.jpg,847,126,1383,723
/home/najo/NAS/DIP/datasets/Fr5_intertek_dataset/Fr5_intertek_5th_250526/top/zed_30779426_left_1748249173.429.jpg,30779426,left,1748249173.429,/home/najo/NAS/DIP/datasets/Fr5_intertek_dataset/Fr5_intertek_5th_250526/joint/joint_30779426_1748249173.429.json,1748249173.429,0.0,-41.28814395111386,-74.84474106590346,77.4116259282178,-92.5640566986386,-89.99934734684406,48.6979327815594,/home/najo/NAS/DIP/datasets/Fr5_intertek_dataset/preprocessed_roi/Fr5_intertek_5th_250526_zed_30779426_left_1748249173.429.jpg,941,128,1507,721
/home/najo/NAS/DIP/datasets/Fr5_intertek_dataset/Fr5_intertek_5th_250526/left/zed_38007749_left_1748249173.550.jpg,38007749,left,1748249173.55,/home/najo/NAS/DIP/datasets/Fr5_intertek_dataset/Fr5_intertek_5th_250526/joint/joint_38007749_1748249173.550.json,1748249173.55,0.0,-41.29684599319306,-74.78295656714108,78.7204130569307,-93.94420057240096,-89.99978244894803,48.69292910736386,/home/najo/NAS/DIP/datasets/Fr5_intertek_dataset/preprocessed_roi/Fr5_intertek_5th_250526_zed_38007749_left_1748249173.550.jpg,382,210,1237,1008
/home/najo/NAS/DIP/datasets/Fr5_intertek_dataset/Fr5_intertek_5th_250526/left/zed_38007749_right_1748249173.550.jpg,38007749,right,1748249173.55,/home/najo/NAS/DIP/datasets/Fr5_intertek_dataset/Fr5_intertek_5th_250526/joint/joint_38007749_1748249173.550.json,1748249173.55,0.0,-41.29684599319306,-74.78295656714108,78.7204130569307,-93.94420057240096,-89.99978244894803,48.69292910736386,/home/najo/NAS/DIP/datasets/Fr5_intertek_dataset/preprocessed_roi/Fr5_intertek_5th_250526_zed_38007749_right_1748249173.550.jpg,247,210,1023,1008
/home/najo/NAS/DIP/datasets/Fr5_intertek_dataset/Fr5_intertek_5th_250526/right/zed_34850673_left_1748249173.559.jpg,34850673,left,1748249173.559,/home/najo/NAS/DIP/datasets/Fr5_intertek_dataset/Fr5_intertek_5th_250526/joint/joint_34850673_1748249173.559.json,1748249173.559,0.0,-41.29880395266089,-74.77795289294555,78.7982963335396,-94.02273650216584,-90.0,48.69271155631188,/home/najo/NAS/DIP/datasets/Fr5_intertek_dataset/preprocessed_roi/Fr5_intertek_5th_250526_zed_34850673_left_1748249173.559.jpg,873,238,1612,1029
/home/najo/NAS/DIP/datasets/Fr5_intertek_dataset/Fr5_intertek_5th_250526/right/zed_34850673_right_1748249173.559.jpg,34850673,right,1748249173.559,/home/najo/NAS/DIP/datasets/Fr5_intertek_dataset/Fr5_intertek_5th_250526/joint/joint_34850673_1748249173.559.json,1748249173.559,0.0,-41.29880395266089,-74.77795289294555,78.7982963335396,-94.02273650216584,-90.0,48.69271155631188,/home/najo/NAS/DIP/datasets/Fr5_intertek_dataset/preprocessed_roi/Fr5_intertek_5th_250526_zed_34850673_right_1748249173.559.jpg,768,238,1470,1029
/home/najo/NAS/DIP/datasets/Fr5_intertek_dataset/Fr5_intertek_5th_250526/top/zed_30779426_right_1748249173.566.jpg,30779426,right,1748249173.566,/home/najo/NAS/DIP/datasets/Fr5_intertek_dataset/Fr5_intertek_5th_250526/joint/joint_30779426_1748249173.566.json,1748249173.566,0.0,-41.30097946318069,-74.77120881033416,78.8859694074876,-94.1167185566213,-89.99978244894803,48.69271155631188,/home/najo/NAS/DIP/datasets/Fr5_intertek_dataset/preprocessed_roi/Fr5_intertek_5th_250526_zed_30779426_right_1748249173.566.jpg,847,130,1380,723
/home/najo/NAS/DIP/datasets/Fr5_intertek_dataset/Fr5_intertek_5th_250526/top/zed_30779426_left_1748249173.566.jpg,30779426,left,1748249173.566,/home/najo/NAS/DIP/datasets/Fr5_intertek_dataset/Fr5_intertek_5th_250526/joint/joint_30779426_1748249173.566.json,1748249173.566,0.0,-41.30097946318069,-74.77120881033416,78.8859694074876,-94.1167185566213,-89.99978244894803,48.69271155631188,/home/najo/NAS/DIP/datasets/Fr5_intertek_dataset/preprocessed_roi/Fr5_intertek_5th_250526_zed_30779426_left_1748249173.566.jpg,941,132,1503,721
/home/najo/NAS/DIP/datasets/Fr5_intertek_dataset/Fr5_intertek_5th_250526/left/zed_38007749_left_1748249173.688.jpg,38007749,left,1748249173.688,/home/najo/NAS/DIP/datasets/Fr5_intertek_dataset/Fr5_intertek_5th_250526/joint/joint_38007749_1748249173.688.json,1748249173.688,0.0,-41.30576558632425,-74.6509030785891,80.25697613706683,-95.61303469214108,-90.0,48.68988339263614,/home/najo/NAS/DIP/datasets/Fr5_intertek_dataset/preprocessed_roi/Fr5_intertek_5th_250526_zed_38007749_left_1748249173.688.jpg,382,232,1237,1010
/home/najo/NAS/DIP/datasets/Fr5_intertek_dataset/Fr5_intertek_5th_250526/left/zed_38007749_right_1748249173.688.jpg,38007749,right,1748249173.688,/home/najo/NAS/DIP/datasets/Fr5_intertek_dataset/Fr5_intertek_5th_250526/joint/joint_38007749_1748249173.688.json,1748249173.688,0.0,-41.30576558632425,-74.6509030785891,80.25697613706683,-95.61303469214108,-90.0,48.68988339263614,/home/najo/NAS/DIP/datasets/Fr5_intertek_dataset/preprocessed_roi/Fr5_intertek_5th_250526_zed_38007749_right_1748249173.688.jpg,247,232,1023,1008
/home/najo/NAS/DIP/datasets/Fr5_intertek_dataset/Fr5_intertek_5th_250526/right/zed_34850673_left_1748249173.696.jpg,34850673,left,1748249173.696,/home/najo/NAS/DIP/datasets/Fr5_intertek_dataset/Fr5_intertek_5th_250526/joint/joint_34850673_1748249173.696.json,1748249173.696,0.0,-41.3053304842203,-74.65329614016089,80.2363087871287,-95.58997428063118,-90.0,48.68988339263614,/home/najo/NAS/DIP/datasets/Fr5_intertek_dataset/preprocessed_roi/Fr5_intertek_5th_250526_zed_34850673_left_1748249173.696.jpg,873,238,1616,1029
/home/najo/NAS/DIP/datasets/Fr5_intertek_dataset/Fr5_intertek_5th_250526/right/zed_34850673_right_1748249173.696.jpg,34850673,right,1748249173.696,/home/najo/NAS/DIP/datasets/Fr5_intertek_dataset/Fr5_intertek_5th_250526/joint/joint_34850673_1748249173.696.json,1748249173.696,0.0,-41.3053304842203,-74.65329614016089,80.2363087871287,-95.58997428063118,-90.0,48.68988339263614,/home/najo/NAS/DIP/datasets/Fr5_intertek_dataset/preprocessed_roi/Fr5_intertek_5th_250526_zed_34850673_right_1748249173.696.jpg,768,238,1470,1029
/home/najo/NAS/DIP/datasets/Fr5_intertek_dataset/Fr5_intertek_5th_250526/top/zed_30779426_right_1748249173.705.jpg,30779426,right,1748249173.705,/home/najo/NAS/DIP/datasets/Fr5_intertek_dataset/Fr5_intertek_5th_250526/joint/joint_30779426_1748249173.705.json,1748249173.705,0.0,-41.30815864789603,-74.63937287283416,80.37119043935644,-95.74073715965346,-90.00021755105197,48.68966584158416,/home/najo/NAS/DIP/datasets/Fr5_intertek_dataset/preprocessed_roi/Fr5_intertek_5th_250526_zed_30779426_right_1748249173.705.jpg,847,135,1372,723
/home/najo/NAS/DIP/datasets/Fr5_intertek_dataset/Fr5_intertek_5th_250526/top/zed_30779426_left_1748249173.705.jpg,30779426,left,1748249173.705,/home/najo/NAS/DIP/datasets/Fr5_intertek_dataset/Fr5_intertek_5th_250526/joint/joint_30779426_1748249173.705.json,1748249173.705,0.0,-41.30815864789603,-74.63937287283416,80.37119043935644,-95.74073715965346,-90.00021755105197,48.68966584158416,/home/najo/NAS/DIP/datasets/Fr5_intertek_dataset/preprocessed_roi/Fr5_intertek_5th_250526_zed_30779426_left_1748249173.705.jpg,941,137,1496,721
/home/najo/NAS/DIP/datasets/Fr5_intertek_dataset/Fr5_intertek_5th_250526/right/zed_34850673_left_1748249173.833.jpg,34850673,left,1748249173.833,/home/najo/NAS/DIP/datasets/Fr5_intertek_dataset/Fr5_intertek_5th_250526/joint/joint_34850673_1748249173.833.json,1748249173.833,0.0,-41.308376198948,-74.48556427908416,81.64560450185644,-97.15895246751238,-90.0,48.6881429842203,/home/najo/NAS/DIP/datasets/Fr5_intertek_dataset/preprocessed_roi/Fr5_intertek_5th_250526_zed_34850673_left_1748249173.833.jpg,873,240,1612,1029
/home/najo/NAS/DIP/datasets/Fr5_intertek_dataset/Fr5_intertek_5th_250526/right/zed_34850673_right_1748249173.833.jpg,34850673,right,1748249173.833,/home/najo/NAS/DIP/datasets/Fr5_intertek_dataset/Fr5_intertek_5th_250526/joint/joint_34850673_1748249173.833.json,1748249173.833,0.0,-41.308376198948,-74.48556427908416,81.64560450185644,-97.15895246751238,-90.0,48.6881429842203,/home/najo/NAS/DIP/datasets/Fr5_intertek_dataset/preprocessed_roi/Fr5_intertek_5th_250526_zed_34850673_right_1748249173.833.jpg,768,240,1470,1029
/home/najo/NAS/DIP/datasets/Fr5_intertek_dataset/Fr5_intertek_5th_250526/left/zed_38007749_right_1748249173.838.jpg,38007749,right,1748249173.838,/home/najo/NAS/DIP/datasets/Fr5_intertek_dataset/Fr5_intertek_5th_250526/joint/joint_38007749_1748249173.838.json,1748249173.838,0.0,-41.30859375,-74.48012550278466,81.68237062964108,-97.20550839263612,-89.99956489789604,48.68836053527227,/home/najo/NAS/DIP/datasets/Fr5_intertek_dataset/preprocessed_roi/Fr5_intertek_5th_250526_zed_38007749_right_1748249173.838.jpg,247,253,1023,1008
/home/najo/NAS/DIP/datasets/Fr5_intertek_dataset/Fr5_intertek_5th_250526/left/zed_38007749_left_1748249173.838.jpg,38007749,left,1748249173.838,/home/najo/NAS/DIP/datasets/Fr5_intertek_dataset/Fr5_intertek_5th_250526/joint/joint_38007749_1748249173.838.json,1748249173.838,0.0,-41.30859375,-74.48012550278466,81.68237062964108,-97.20550839263612,-89.99956489789604,48.68836053527227,/home/najo/NAS/DIP/datasets/Fr5_intertek_dataset/preprocessed_roi/Fr5_intertek_5th_250526_zed_38007749_left_1748249173.838.jpg,382,253,1237,1010
/home/najo/NAS/DIP/datasets/Fr5_intertek_dataset/Fr5_intertek_5th_250526/top/zed_30779426_right_1748249173.845.jpg,30779426,right,1748249173.845,/home/najo/NAS/DIP/datasets/Fr5_intertek_dataset/Fr5_intertek_5th_250526/joint/joint_30779426_1748249173.845.json,1748249173.845,0.0,-41.3096815052599,-74.46924795018565,81.7580783957302,-97.29470432394804,-90.0,48.68836053527227,/home/najo/NAS/DIP/datasets/Fr5_intertek_dataset/preprocessed_roi/Fr5_intertek_5th_250526_zed_30779426_right_1748249173.845.jpg,847,141,1368,723
/home/najo/NAS/DIP/datasets/Fr5_intertek_dataset/Fr5_intertek_5th_250526/top/zed_30779426_left_1748249173.845.jpg,30779426,left,1748249173.845,/home/najo/NAS/DIP/datasets/Fr5_intertek_dataset/Fr5_intertek_5th_250526/joint/joint_30779426_1748249173.845.json,1748249173.845,0.0,-41.3096815052599,-74.46924795018565,81.7580783957302,-97.29470432394804,-90.0,48.68836053527227,/home/najo/NAS/DIP/datasets/Fr5_intertek_dataset/preprocessed_roi/Fr5_intertek_5th_250526_zed_30779426_left_1748249173.845.jpg,941,141,1488,721
/home/najo/NAS/DIP/datasets/Fr5_intertek_dataset/Fr5_intertek_5th_250526/right/zed_34850673_left_1748249173.970.jpg,34850673,left,1748249173.97,/home/najo/NAS/DIP/datasets/Fr5_intertek_dataset/Fr5_intertek_5th_250526/joint/joint_34850673_1748249173.970.json,1748249173.97,0.0,-41.3107692605198,-74.28084873917079,82.98963490099008,-98.69986656868812,-90.00021755105197,48.68770788211633,/home/najo/NAS/DIP/datasets/Fr5_intertek_dataset/preprocessed_roi/Fr5_intertek_5th_250526_zed_34850673_left_1748249173.970.jpg,877,240,1612,1029
/home/najo/NAS/DIP/datasets/Fr5_intertek_dataset/Fr5_intertek_5th_250526/right/zed_34850673_right_1748249173.970.jpg,34850673,right,1748249173.97,/home/najo/NAS/DIP/datasets/Fr5_intertek_dataset/Fr5_intertek_5th_250526/joint/joint_34850673_1748249173.970.json,1748249173.97,0.0,-41.3107692605198,-74.28084873917079,82.98963490099008,-98.69986656868812,-90.00021755105197,48.68770788211633,/home/najo/NAS/DIP/datasets/Fr5_intertek_dataset/preprocessed_roi/Fr5_intertek_5th_250526_zed_34850673_right_1748249173.970.jpg,768,240,1470,1029
/home/najo/NAS/DIP/datasets/Fr5_intertek_dataset/Fr5_intertek_5th_250526/left/zed_38007749_right_1748249173.976.jpg,38007749,right,1748249173.976,/home/najo/NAS/DIP/datasets/Fr5_intertek_dataset/Fr5_intertek_5th_250526/joint/joint_38007749_1748249173.976.json,1748249173.976,0.0,-41.31055170946782,-74.27432220761139,83.0292291924505,-98.74664004486388,-89.99978244894803,48.6879254331683,/home/najo/NAS/DIP/datasets/Fr5_intertek_dataset/preprocessed_roi/Fr5_intertek_5th_250526_zed_38007749_right_1748249173.976.jpg,247,261,1023,1008
/home/najo/NAS/DIP/datasets/Fr5_intertek_dataset/Fr5_intertek_5th_250526/top/zed_30779426_left_1748249173.982.jpg,30779426,left,1748249173.982,/home/najo/NAS/DIP/datasets/Fr5_intertek_dataset/Fr5_intertek_5th_250526/joint/joint_30779426_1748249173.982.json,1748249173.982,0.0,-41.3107692605198,-74.25713567450495,83.1258218595297,-98.85737353032178,-90.0,48.68770788211633,/home/najo/NAS/DIP/datasets/Fr5_intertek_dataset/preprocessed_roi/Fr5_intertek_5th_250526_zed_30779426_left_1748249173.982.jpg,941,145,1485,721
/home/najo/NAS/DIP/datasets/Fr5_intertek_dataset/Fr5_intertek_5th_250526/left/zed_38007749_left_1748249173.976.jpg,38007749,left,1748249173.976,/home/najo/NAS/DIP/datasets/Fr5_intertek_dataset/Fr5_intertek_5th_250526/joint/joint_38007749_1748249173.976.json,1748249173.976,0.0,-41.31055170946782,-74.27432220761139,83.0292291924505,-98.74664004486388,-89.99978244894803,48.6879254331683,/home/najo/NAS/DIP/datasets/Fr5_intertek_dataset/preprocessed_roi/Fr5_intertek_5th_250526_zed_38007749_left_1748249173.976.jpg,382,261,1237,1010
/home/najo/NAS/DIP/datasets/Fr5_intertek_dataset/Fr5_intertek_5th_250526/top/zed_30779426_right_1748249173.982.jpg,30779426,right,1748249173.982,/home/najo/NAS/DIP/datasets/Fr5_intertek_dataset/Fr5_intertek_5th_250526/joint/joint_30779426_1748249173.982.json,1748249173.982,0.0,-41.3107692605198,-74.25713567450495,83.1258218595297,-98.85737353032178,-90.0,48.68770788211633,/home/najo/NAS/DIP/datasets/Fr5_intertek_dataset/preprocessed_roi/Fr5_intertek_5th_250526_zed_30779426_right_1748249173.982.jpg,847,145,1365,723
/home/najo/NAS/DIP/datasets/Fr5_intertek_dataset/Fr5_intertek_5th_250526/right/zed_34850673_right_1748249174.110.jpg,34850673,right,1748249174.11,/home/najo/NAS/DIP/datasets/Fr5_intertek_dataset/Fr5_intertek_5th_250526/joint/joint_34850673_1748249174.110.json,1748249174.11,0.0,-41.31163946472772,-74.04045482673267,84.28449876237623,-100.2392578125,-90.00065265315594,48.68749033106435,/home/najo/NAS/DIP/datasets/Fr5_intertek_dataset/preprocessed_roi/Fr5_intertek_5th_250526_zed_34850673_right_1748249174.110.jpg,768,242,1470,1029
/home/najo/NAS/DIP/datasets/Fr5_intertek_dataset/Fr5_intertek_5th_250526/right/zed_34850673_left_1748249174.110.jpg,34850673,left,1748249174.11,/home/najo/NAS/DIP/datasets/Fr5_intertek_dataset/Fr5_intertek_5th_250526/joint/joint_34850673_1748249174.110.json,1748249174.11,0.0,-41.31163946472772,-74.04045482673267,84.28449876237623,-100.2392578125,-90.00065265315594,48.68749033106435,/home/najo/NAS/DIP/datasets/Fr5_intertek_dataset/preprocessed_roi/Fr5_intertek_5th_250526_zed_34850673_left_1748249174.110.jpg,877,242,1616,1029
/home/najo/NAS/DIP/datasets/Fr5_intertek_dataset/Fr5_intertek_5th_250526/left/zed_38007749_left_1748249174.114.jpg,38007749,left,1748249174.114,/home/najo/NAS/DIP/datasets/Fr5_intertek_dataset/Fr5_intertek_5th_250526/joint/joint_38007749_1748249174.114.json,1748249174.114,0.0,-41.31207456683168,-74.03110013149752,84.33192489170793,-100.293210473391,-89.99956489789604,48.68749033106435,/home/najo/NAS/DIP/datasets/Fr5_intertek_dataset/preprocessed_roi/Fr5_intertek_5th_250526_zed_38007749_left_1748249174.114.jpg,382,263,1233,1010
/home/najo/NAS/DIP/datasets/Fr5_intertek_dataset/Fr5_intertek_5th_250526/top/zed_30779426_right_1748249174.120.jpg,30779426,right,1748249174.12,/home/najo/NAS/DIP/datasets/Fr5_intertek_dataset/Fr5_intertek_5th_250526/joint/joint_30779426_1748249174.120.json,1748249174.12,0.0,-41.31163946472772,-74.01521890470298,84.40698000464108,-100.381536200495,-90.00021755105197,48.68749033106435,/home/najo/NAS/DIP/datasets/Fr5_intertek_dataset/preprocessed_roi/Fr5_intertek_5th_250526_zed_30779426_right_1748249174.120.jpg,847,149,1361,723
/home/najo/NAS/DIP/datasets/Fr5_intertek_dataset/Fr5_intertek_5th_250526/left/zed_38007749_right_1748249174.114.jpg,38007749,right,1748249174.114,/home/najo/NAS/DIP/datasets/Fr5_intertek_dataset/Fr5_intertek_5th_250526/joint/joint_38007749_1748249174.114.json,1748249174.114,0.0,-41.31207456683168,-74.03110013149752,84.33192489170793,-100.293210473391,-89.99956489789604,48.68749033106435,/home/najo/NAS/DIP/datasets/Fr5_intertek_dataset/preprocessed_roi/Fr5_intertek_5th_250526_zed_38007749_right_1748249174.114.jpg,247,261,1020,1008
/home/najo/NAS/DIP/datasets/Fr5_intertek_dataset/Fr5_intertek_5th_250526/right/zed_34850673_left_1748249174.247.jpg,34850673,left,1748249174.247,/home/najo/NAS/DIP/datasets/Fr5_intertek_dataset/Fr5_intertek_5th_250526/joint/joint_34850673_1748249174.247.json,1748249174.247,0.0,-41.31229211788366,-73.75372254022275,85.5317189433787,-101.7927898746906,-90.00021755105197,48.68727278001238,/home/najo/NAS/DIP/datasets/Fr5_intertek_dataset/preprocessed_roi/Fr5_intertek_5th_250526_zed_34850673_left_1748249174.247.jpg,877,242,1616,1029
/home/najo/NAS/DIP/datasets/Fr5_intertek_dataset/Fr5_intertek_5th_250526/top/zed_30779426_left_1748249174.120.jpg,30779426,left,1748249174.12,/home/najo/NAS/DIP/datasets/Fr5_intertek_dataset/Fr5_intertek_5th_250526/joint/joint_30779426_1748249174.120.json,1748249174.12,0.0,-41.31163946472772,-74.01521890470298,84.40698000464108,-100.381536200495,-90.00021755105197,48.68749033106435,/home/najo/NAS/DIP/datasets/Fr5_intertek_dataset/preprocessed_roi/Fr5_intertek_5th_250526_zed_30779426_left_1748249174.120.jpg,941,149,1481,721
/home/najo/NAS/DIP/datasets/Fr5_intertek_dataset/Fr5_intertek_5th_250526/right/zed_34850673_right_1748249174.247.jpg,34850673,right,1748249174.247,/home/najo/NAS/DIP/datasets/Fr5_intertek_dataset/Fr5_intertek_5th_250526/joint/joint_34850673_1748249174.247.json,1748249174.247,0.0,-41.31229211788366,-73.75372254022275,85.5317189433787,-101.7927898746906,-90.00021755105197,48.68727278001238,/home/najo/NAS/DIP/datasets/Fr5_intertek_dataset/preprocessed_roi/Fr5_intertek_5th_250526_zed_34850673_right_1748249174.247.jpg,768,242,1470,1029
/home/najo/NAS/DIP/datasets/Fr5_intertek_dataset/Fr5_intertek_5th_250526/left/zed_38007749_right_1748249174.251.jpg,38007749,right,1748249174.251,/home/najo/NAS/DIP/datasets/Fr5_intertek_dataset/Fr5_intertek_5th_250526/joint/joint_38007749_1748249174.251.json,1748249174.251,0.0,-41.31250966893564,-73.74502049814356,85.56652711169555,-101.8328192682549,-90.00021755105197,48.68727278001238,/home/najo/NAS/DIP/datasets/Fr5_intertek_dataset/preprocessed_roi/Fr5_intertek_5th_250526_zed_38007749_right_1748249174.251.jpg,247,263,1020,1008
/home/najo/NAS/DIP/datasets/Fr5_intertek_dataset/Fr5_intertek_5th_250526/top/zed_30779426_left_1748249174.258.jpg,30779426,left,1748249174.258,/home/najo/NAS/DIP/datasets/Fr5_intertek_dataset/Fr5_intertek_5th_250526/joint/joint_30779426_1748249174.258.json,1748249174.258,0.0,-41.3127272199876,-73.72892172029702,85.6285291615099,-101.9111376469678,-90.0,48.68727278001238,/home/najo/NAS/DIP/datasets/Fr5_intertek_dataset/preprocessed_roi/Fr5_intertek_5th_250526_zed_30779426_left_1748249174.258.jpg,941,153,1473,721
/home/najo/NAS/DIP/datasets/Fr5_intertek_dataset/Fr5_intertek_5th_250526/left/zed_38007749_left_1748249174.251.jpg,38007749,left,1748249174.251,/home/najo/NAS/DIP/datasets/Fr5_intertek_dataset/Fr5_intertek_5th_250526/joint/joint_38007749_1748249174.251.json,1748249174.251,0.0,-41.31250966893564,-73.74502049814356,85.56652711169555,-101.8328192682549,-90.00021755105197,48.68727278001238,/home/najo/NAS/DIP/datasets/Fr5_intertek_dataset/preprocessed_roi/Fr5_intertek_5th_250526_zed_38007749_left_1748249174.251.jpg,382,263,1233,1010
/home/najo/NAS/DIP/datasets/Fr5_intertek_dataset/Fr5_intertek_5th_250526/top/zed_30779426_right_1748249174.258.jpg,30779426,right,1748249174.258,/home/najo/NAS/DIP/datasets/Fr5_intertek_dataset/Fr5_intertek_5th_250526/joint/joint_30779426_1748249174.258.json,1748249174.258,0.0,-41.3127272199876,-73.72892172029702,85.6285291615099,-101.9111376469678,-90.0,48.68727278001238,/home/najo/NAS/DIP/datasets/Fr5_intertek_dataset/preprocessed_roi/Fr5_intertek_5th_250526_zed_30779426_right_1748249174.258.jpg,847,151,1357,723
/home/najo/NAS/DIP/datasets/Fr5_intertek_dataset/Fr5_intertek_5th_250526/right/zed_34850673_right_1748249174.383.jpg,34850673,right,1748249174.383,/home/najo/NAS/DIP/datasets/Fr5_intertek_dataset/Fr5_intertek_5th_250526/joint/joint_34850673_1748249174.383.json,1748249174.383,0.0,-41.3127272199876,-73.421522083849,86.77741626701733,-103.3506729579208,-90.00043510210396,48.68727278001238,/home/najo/NAS/DIP/datasets/Fr5_intertek_dataset/preprocessed_roi/Fr5_intertek_5th_250526_zed_34850673_right_1748249174.383.jpg,768,244,1470,1029
/home/najo/NAS/DIP/datasets/Fr5_intertek_dataset/Fr5_intertek_5th_250526/right/zed_34850673_left_1748249174.383.jpg,34850673,left,1748249174.383,/home/najo/NAS/DIP/datasets/Fr5_intertek_dataset/Fr5_intertek_5th_250526/joint/joint_34850673_1748249174.383.json,1748249174.383,0.0,-41.3127272199876,-73.421522083849,86.77741626701733,-103.3506729579208,-90.00043510210396,48.68727278001238,/home/najo/NAS/DIP/datasets/Fr5_intertek_dataset/preprocessed_roi/Fr5_intertek_5th_250526_zed_34850673_left_1748249174.383.jpg,877,244,1616,1029
/home/najo/NAS/DIP/datasets/Fr5_intertek_dataset/Fr5_intertek_5th_250526/left/zed_38007749_left_1748249174.388.jpg,38007749,left,1748249174.388,/home/najo/NAS/DIP/datasets/Fr5_intertek_dataset/Fr5_intertek_5th_250526/joint/joint_34850673_1748249174.383.json,1748249174.383,0.0050001144409179,-41.3127272199876,-73.421522083849,86.77741626701733,-103.3506729579208,-90.00043510210396,48.68727278001238,/home/najo/NAS/DIP/datasets/Fr5_intertek_dataset/preprocessed_roi/Fr5_intertek_5th_250526_zed_38007749_left_1748249174.388.jpg,382,263,1233,1010
/home/najo/NAS/DIP/datasets/Fr5_intertek_dataset/Fr5_intertek_5th_250526/left/zed_38007749_right_1748249174.388.jpg,38007749,right,1748249174.388,/home/najo/NAS/DIP/datasets/Fr5_intertek_dataset/Fr5_intertek_5th_250526/joint/joint_34850673_1748249174.383.json,1748249174.383,0.0050001144409179,-41.3127272199876,-73.421522083849,86.77741626701733,-103.3506729579208,-90.00043510210396,48.68727278001238,/home/najo/NAS/DIP/datasets/Fr5_intertek_dataset/preprocessed_roi/Fr5_intertek_5th_250526_zed_38007749_right_1748249174.388.jpg,247,263,1020,1008
/home/najo/NAS/DIP/datasets/Fr5_intertek_dataset/Fr5_intertek_5th_250526/top/zed_30779426_right_1748249174.395.jpg,30779426,right,1748249174.395,/home/najo/NAS/DIP/datasets/Fr5_intertek_dataset/Fr5_intertek_5th_250526/joint/joint_30779426_1748249174.395.json,1748249174.395,0.0,-41.31250966893564,-73.39128248762377,86.88118811881186,-103.4851195080445,-90.00021755105197,48.68705522896039,/home/najo/NAS/DIP/datasets/Fr5_intertek_dataset/preprocessed_roi/Fr5_intertek_5th_250526_zed_30779426_right_1748249174.395.jpg,847,156,1353,723
/home/najo/NAS/DIP/datasets/Fr5_intertek_dataset/Fr5_intertek_5th_250526/top/zed_30779426_left_1748249174.395.jpg,30779426,left,1748249174.395,/home/najo/NAS/DIP/datasets/Fr5_intertek_dataset/Fr5_intertek_5th_250526/joint/joint_30779426_1748249174.395.json,1748249174.395,0.0,-41.31250966893564,-73.39128248762377,86.88118811881186,-103.4851195080445,-90.00021755105197,48.68705522896039,/home/najo/NAS/DIP/datasets/Fr5_intertek_dataset/preprocessed_roi/Fr5_intertek_5th_250526_zed_30779426_left_1748249174.395.jpg,941,158,1470,721
/home/najo/NAS/DIP/datasets/Fr5_intertek_dataset/Fr5_intertek_5th_250526/left/zed_38007749_right_1748249174.522.jpg,38007749,right,1748249174.522,/home/najo/NAS/DIP/datasets/Fr5_intertek_dataset/Fr5_intertek_5th_250526/joint/joint_38007749_1748249174.522.json,1748249174.522,0.0,-41.31250966893564,-73.06734897122524,87.923475208849,-104.8495997060643,-90.00043510210396,48.68705522896039,/home/najo/NAS/DIP/datasets/Fr5_intertek_dataset/preprocessed_roi/Fr5_intertek_5th_250526_zed_38007749_right_1748249174.522.jpg,247,263,1020,1008
/home/najo/NAS/DIP/datasets/Fr5_intertek_dataset/Fr5_intertek_5th_250526/left/zed_38007749_left_1748249174.522.jpg,38007749,left,1748249174.522,/home/najo/NAS/DIP/datasets/Fr5_intertek_dataset/Fr5_intertek_5th_250526/joint/joint_38007749_1748249174.522.json,1748249174.522,0.0,-41.31250966893564,-73.06734897122524,87.923475208849,-104.8495997060643,-90.00043510210396,48.68705522896039,/home/najo/NAS/DIP/datasets/Fr5_intertek_dataset/preprocessed_roi/Fr5_intertek_5th_250526_zed_38007749_left_1748249174.522.jpg,382,263,1230,1010
/home/najo/NAS/DIP/datasets/Fr5_intertek_dataset/Fr5_intertek_5th_250526/right/zed_34850673_left_1748249174.526.jpg,34850673,left,1748249174.526,/home/najo/NAS/DIP/datasets/Fr5_intertek_dataset/Fr5_intertek_5th_250526/joint/joint_34850673_1748249174.526.json,1748249174.526,0.0,-41.3127272199876,-73.05908203125,87.94914623298267,-104.8820148128094,-90.0,48.68727278001238,/home/najo/NAS/DIP/datasets/Fr5_intertek_dataset/preprocessed_roi/Fr5_intertek_5th_250526_zed_34850673_left_1748249174.526.jpg,877,246,1616,1029
/home/najo/NAS/DIP/datasets/Fr5_intertek_dataset/Fr5_intertek_5th_250526/right/zed_34850673_right_1748249174.526.jpg,34850673,right,1748249174.526,/home/najo/NAS/DIP/datasets/Fr5_intertek_dataset/Fr5_intertek_5th_250526/joint/joint_34850673_1748249174.526.json,1748249174.526,0.0,-41.3127272199876,-73.05908203125,87.94914623298267,-104.8820148128094,-90.0,48.68727278001238,/home/najo/NAS/DIP/datasets/Fr5_intertek_dataset/preprocessed_roi/Fr5_intertek_5th_250526_zed_34850673_right_1748249174.526.jpg,768,244,1470,1029
/home/najo/NAS/DIP/datasets/Fr5_intertek_dataset/Fr5_intertek_5th_250526/top/zed_30779426_right_1748249174.534.jpg,30779426,right,1748249174.534,/home/najo/NAS/DIP/datasets/Fr5_intertek_dataset/Fr5_intertek_5th_250526/joint/joint_30779426_1748249174.534.json,1748249174.534,0.0,-41.3127272199876,-73.03101794554455,88.0322507348391,-104.996229115099,-90.00021755105197,48.68749033106435,/home/najo/NAS/DIP/datasets/Fr5_intertek_dataset/preprocessed_roi/Fr5_intertek_5th_250526_zed_30779426_right_1748249174.534.jpg,847,160,1353,723
/home/najo/NAS/DIP/datasets/Fr5_intertek_dataset/Fr5_intertek_5th_250526/top/zed_30779426_left_1748249174.534.jpg,30779426,left,1748249174.534,/home/najo/NAS/DIP/datasets/Fr5_intertek_dataset/Fr5_intertek_5th_250526/joint/joint_30779426_1748249174.534.json,1748249174.534,0.0,-41.3127272199876,-73.03101794554455,88.0322507348391,-104.996229115099,-90.00021755105197,48.68749033106435,/home/najo/NAS/DIP/datasets/Fr5_intertek_dataset/preprocessed_roi/Fr5_intertek_5th_250526_zed_30779426_left_1748249174.534.jpg,941,160,1466,721
/home/najo/NAS/DIP/datasets/Fr5_intertek_dataset/Fr5_intertek_5th_250526/left/zed_38007749_left_1748249174.659.jpg,38007749,left,1748249174.659,/home/najo/NAS/DIP/datasets/Fr5_intertek_dataset/Fr5_intertek_5th_250526/joint/joint_38007749_1748249174.659.json,1748249174.659,0.0,-41.31316232209158,-72.66052850402228,89.05865659808168,-106.4068301361386,-90.00021755105197,48.68705522896039,/home/najo/NAS/DIP/datasets/Fr5_intertek_dataset/preprocessed_roi/Fr5_intertek_5th_250526_zed_38007749_left_1748249174.659.jpg,382,265,1233,1010
/home/najo/NAS/DIP/datasets/Fr5_intertek_dataset/Fr5_intertek_5th_250526/left/zed_38007749_right_1748249174.659.jpg,38007749,right,1748249174.659,/home/najo/NAS/DIP/datasets/Fr5_intertek_dataset/Fr5_intertek_5th_250526/joint/joint_38007749_1748249174.659.json,1748249174.659,0.0,-41.31316232209158,-72.66052850402228,89.05865659808168,-106.4068301361386,-90.00021755105197,48.68705522896039,/home/najo/NAS/DIP/datasets/Fr5_intertek_dataset/preprocessed_roi/Fr5_intertek_5th_250526_zed_38007749_right_1748249174.659.jpg,247,263,1020,1008
/home/najo/NAS/DIP/datasets/Fr5_intertek_dataset/Fr5_intertek_5th_250526/right/zed_34850673_right_1748249174.664.jpg,34850673,right,1748249174.664,/home/najo/NAS/DIP/datasets/Fr5_intertek_dataset/Fr5_intertek_5th_250526/joint/joint_34850673_1748249174.664.json,1748249174.664,0.0,-41.31316232209158,-72.6546546256188,89.07410272277228,-106.4290203434406,-90.0,48.68705522896039,/home/najo/NAS/DIP/datasets/Fr5_intertek_dataset/preprocessed_roi/Fr5_intertek_5th_250526_zed_34850673_right_1748249174.664.jpg,768,246,1470,1029
/home/najo/NAS/DIP/datasets/Fr5_intertek_dataset/Fr5_intertek_5th_250526/right/zed_34850673_left_1748249174.664.jpg,34850673,left,1748249174.664,/home/najo/NAS/DIP/datasets/Fr5_intertek_dataset/Fr5_intertek_5th_250526/joint/joint_34850673_1748249174.664.json,1748249174.664,0.0,-41.31316232209158,-72.6546546256188,89.07410272277228,-106.4290203434406,-90.0,48.68705522896039,/home/najo/NAS/DIP/datasets/Fr5_intertek_dataset/preprocessed_roi/Fr5_intertek_5th_250526_zed_34850673_left_1748249174.664.jpg,877,246,1616,1029
/home/najo/NAS/DIP/datasets/Fr5_intertek_dataset/Fr5_intertek_5th_250526/top/zed_30779426_right_1748249174.671.jpg,30779426,right,1748249174.671,/home/najo/NAS/DIP/datasets/Fr5_intertek_dataset/Fr5_intertek_5th_250526/joint/joint_30779426_1748249174.671.json,1748249174.671,0.0,-41.31316232209158,-72.63072400990097,89.13675742574257,-106.5158232131807,-90.00021755105197,48.68727278001238,/home/najo/NAS/DIP/datasets/Fr5_intertek_dataset/preprocessed_roi/Fr5_intertek_5th_250526_zed_30779426_right_1748249174.671.jpg,847,164,1346,723
/home/najo/NAS/DIP/datasets/Fr5_intertek_dataset/Fr5_intertek_5th_250526/top/zed_30779426_left_1748249174.671.jpg,30779426,left,1748249174.671,/home/najo/NAS/DIP/datasets/Fr5_intertek_dataset/Fr5_intertek_5th_250526/joint/joint_30779426_1748249174.671.json,1748249174.671,0.0,-41.31316232209158,-72.63072400990097,89.13675742574257,-106.5158232131807,-90.00021755105197,48.68727278001238,/home/najo/NAS/DIP/datasets/Fr5_intertek_dataset/preprocessed_roi/Fr5_intertek_5th_250526_zed_30779426_left_1748249174.671.jpg,941,164,1462,721
/home/najo/NAS/DIP/datasets/Fr5_intertek_dataset/Fr5_intertek_5th_250526/left/zed_38007749_left_1748249174.797.jpg,38007749,left,1748249174.797,/home/najo/NAS/DIP/datasets/Fr5_intertek_dataset/Fr5_intertek_5th_250526/joint/joint_38007749_1748249174.797.json,1748249174.797,0.0,-41.31250966893564,-72.23304068688118,90.1416257348391,-107.9114132116336,-89.99956489789604,48.68705522896039,/home/najo/NAS/DIP/datasets/Fr5_intertek_dataset/preprocessed_roi/Fr5_intertek_5th_250526_zed_38007749_left_1748249174.797.jpg,382,265,1230,1010
/home/najo/NAS/DIP/datasets/Fr5_intertek_dataset/Fr5_intertek_5th_250526/right/zed_34850673_left_1748249174.802.jpg,34850673,left,1748249174.802,/home/najo/NAS/DIP/datasets/Fr5_intertek_dataset/Fr5_intertek_5th_250526/joint/joint_34850673_1748249174.802.json,1748249174.802,0.0,-41.3127272199876,-72.21933497060644,90.1712126779084,-107.9531830136138,-90.00021755105197,48.68727278001238,/home/najo/NAS/DIP/datasets/Fr5_intertek_dataset/preprocessed_roi/Fr5_intertek_5th_250526_zed_34850673_left_1748249174.802.jpg,877,248,1616,1029
/home/najo/NAS/DIP/datasets/Fr5_intertek_dataset/Fr5_intertek_5th_250526/right/zed_34850673_right_1748249174.802.jpg,34850673,right,1748249174.802,/home/najo/NAS/DIP/datasets/Fr5_intertek_dataset/Fr5_intertek_5th_250526/joint/joint_34850673_1748249174.802.json,1748249174.802,0.0,-41.3127272199876,-72.21933497060644,90.1712126779084,-107.9531830136138,-90.00021755105197,48.68727278001238,/home/najo/NAS/DIP/datasets/Fr5_intertek_dataset/preprocessed_roi/Fr5_intertek_5th_250526_zed_34850673_right_1748249174.802.jpg,772,248,1470,1029
/home/najo/NAS/DIP/datasets/Fr5_intertek_dataset/Fr5_intertek_5th_250526/left/zed_38007749_right_1748249174.797.jpg,38007749,right,1748249174.797,/home/najo/NAS/DIP/datasets/Fr5_intertek_dataset/Fr5_intertek_5th_250526/joint/joint_38007749_1748249174.797.json,1748249174.797,0.0,-41.31250966893564,-72.23304068688118,90.1416257348391,-107.9114132116336,-89.99956489789604,48.68705522896039,/home/najo/NAS/DIP/datasets/Fr5_intertek_dataset/preprocessed_roi/Fr5_intertek_5th_250526_zed_38007749_right_1748249174.797.jpg,247,265,1020,1008
/home/najo/NAS/DIP/datasets/Fr5_intertek_dataset/Fr5_intertek_5th_250526/top/zed_30779426_right_1748249174.809.jpg,30779426,right,1748249174.809,/home/najo/NAS/DIP/datasets/Fr5_intertek_dataset/Fr5_intertek_5th_250526/joint/joint_30779426_1748249174.809.json,1748249174.809,0.0,-41.3127272199876,-72.1921410891089,90.23364982982672,-108.0439018022896,-89.99978244894803,48.68727278001238,/home/najo/NAS/DIP/datasets/Fr5_intertek_dataset/preprocessed_roi/Fr5_intertek_5th_250526_zed_30779426_right_1748249174.809.jpg,847,168,1342,723
/home/najo/NAS/DIP/datasets/Fr5_intertek_dataset/Fr5_intertek_5th_250526/top/zed_30779426_left_1748249174.809.jpg,30779426,left,1748249174.809,/home/najo/NAS/DIP/datasets/Fr5_intertek_dataset/Fr5_intertek_5th_250526/joint/joint_30779426_1748249174.809.json,1748249174.809,0.0,-41.3127272199876,-72.1921410891089,90.23364982982672,-108.0439018022896,-89.99978244894803,48.68727278001238,/home/najo/NAS/DIP/datasets/Fr5_intertek_dataset/preprocessed_roi/Fr5_intertek_5th_250526_zed_30779426_left_1748249174.809.jpg,941,168,1455,721
/home/najo/NAS/DIP/datasets/Fr5_intertek_dataset/Fr5_intertek_5th_250526/left/zed_38007749_right_1748249174.933.jpg,38007749,right,1748249174.933,/home/najo/NAS/DIP/datasets/Fr5_intertek_dataset/Fr5_intertek_5th_250526/joint/joint_38007749_1748249174.933.json,1748249174.933,0.0,-41.3129447710396,-71.75964959777228,91.16455078125,-109.4053362855817,-90.0,48.68727278001238,/home/najo/NAS/DIP/datasets/Fr5_intertek_dataset/preprocessed_roi/Fr5_intertek_5th_250526_zed_38007749_right_1748249174.933.jpg,243,265,1016,1008
/home/najo/NAS/DIP/datasets/Fr5_intertek_dataset/Fr5_intertek_5th_250526/left/zed_38007749_left_1748249174.933.jpg,38007749,left,1748249174.933,/home/najo/NAS/DIP/datasets/Fr5_intertek_dataset/Fr5_intertek_5th_250526/joint/joint_38007749_1748249174.933.json,1748249174.933,0.0,-41.3129447710396,-71.75964959777228,91.16455078125,-109.4053362855817,-90.0,48.68727278001238,/home/najo/NAS/DIP/datasets/Fr5_intertek_dataset/preprocessed_roi/Fr5_intertek_5th_250526_zed_38007749_left_1748249174.933.jpg,382,265,1233,1010
/home/najo/NAS/DIP/datasets/Fr5_intertek_dataset/Fr5_intertek_5th_250526/right/zed_34850673_right_1748249174.939.jpg,34850673,right,1748249174.939,/home/najo/NAS/DIP/datasets/Fr5_intertek_dataset/Fr5_intertek_5th_250526/joint/joint_34850673_1748249174.939.json,1748249174.939,0.0,-41.3127272199876,-71.73789449257426,91.21132425742574,-109.4732122137995,-90.0,48.68727278001238,/home/najo/NAS/DIP/datasets/Fr5_intertek_dataset/preprocessed_roi/Fr5_intertek_5th_250526_zed_34850673_right_1748249174.939.jpg,772,251,1470,1029
/home/najo/NAS/DIP/datasets/Fr5_intertek_dataset/Fr5_intertek_5th_250526/right/zed_34850673_left_1748249174.939.jpg,34850673,left,1748249174.939,/home/najo/NAS/DIP/datasets/Fr5_intertek_dataset/Fr5_intertek_5th_250526/joint/joint_34850673_1748249174.939.json,1748249174.939,0.0,-41.3127272199876,-71.73789449257426,91.21132425742574,-109.4732122137995,-90.0,48.68727278001238,/home/najo/NAS/DIP/datasets/Fr5_intertek_dataset/preprocessed_roi/Fr5_intertek_5th_250526_zed_34850673_left_1748249174.939.jpg,877,251,1616,1029
/home/najo/NAS/DIP/datasets/Fr5_intertek_dataset/Fr5_intertek_5th_250526/top/zed_30779426_right_1748249174.947.jpg,30779426,right,1748249174.947,/home/najo/NAS/DIP/datasets/Fr5_intertek_dataset/Fr5_intertek_5th_250526/joint/joint_30779426_1748249174.947.json,1748249174.947,0.0,-41.31316232209158,-71.70613203898515,91.2809405940594,-109.5702399829826,-89.99978244894803,48.68705522896039,/home/najo/NAS/DIP/datasets/Fr5_intertek_dataset/preprocessed_roi/Fr5_intertek_5th_250526_zed_30779426_right_1748249174.947.jpg,847,172,1338,723
/home/najo/NAS/DIP/datasets/Fr5_intertek_dataset/Fr5_intertek_5th_250526/top/zed_30779426_left_1748249174.947.jpg,30779426,left,1748249174.947,/home/najo/NAS/DIP/datasets/Fr5_intertek_dataset/Fr5_intertek_5th_250526/joint/joint_30779426_1748249174.947.json,1748249174.947,0.0,-41.31316232209158,-71.70613203898515,91.2809405940594,-109.5702399829826,-89.99978244894803,48.68705522896039,/home/najo/NAS/DIP/datasets/Fr5_intertek_dataset/preprocessed_roi/Fr5_intertek_5th_250526_zed_30779426_left_1748249174.947.jpg,941,172,1451,721
/home/najo/NAS/DIP/datasets/Fr5_intertek_dataset/Fr5_intertek_5th_250526/left/zed_38007749_right_1748249175.070.jpg,38007749,right,1748249175.07,/home/najo/NAS/DIP/datasets/Fr5_intertek_dataset/Fr5_intertek_5th_250526/joint/joint_38007749_1748249175.070.json,1748249175.07,0.0,-41.31316232209158,-71.2364393177599,92.19226195080444,-110.9477732441213,-90.0,48.68705522896039,/home/najo/NAS/DIP/datasets/Fr5_intertek_dataset/preprocessed_roi/Fr5_intertek_5th_250526_zed_38007749_right_1748249175.070.jpg,247,265,1020,1008
/home/najo/NAS/DIP/datasets/Fr5_intertek_dataset/Fr5_intertek_5th_250526/left/zed_38007749_left_1748249175.070.jpg,38007749,left,1748249175.07,/home/najo/NAS/DIP/datasets/Fr5_intertek_dataset/Fr5_intertek_5th_250526/joint/joint_38007749_1748249175.070.json,1748249175.07,0.0,-41.31316232209158,-71.2364393177599,92.19226195080444,-110.9477732441213,-90.0,48.68705522896039,/home/najo/NAS/DIP/datasets/Fr5_intertek_dataset/preprocessed_roi/Fr5_intertek_5th_250526_zed_38007749_left_1748249175.070.jpg,382,265,1230,1010
/home/najo/NAS/DIP/datasets/Fr5_intertek_dataset/Fr5_intertek_5th_250526/right/zed_34850673_left_1748249175.077.jpg,34850673,left,1748249175.077,/home/najo/NAS/DIP/datasets/Fr5_intertek_dataset/Fr5_intertek_5th_250526/joint/joint_34850673_1748249175.077.json,1748249175.077,0.0,-41.31359742419554,-71.2175123762376,92.22837542543316,-110.9980275371287,-90.00021755105197,48.68727278001238,/home/najo/NAS/DIP/datasets/Fr5_intertek_dataset/preprocessed_roi/Fr5_intertek_5th_250526_zed_34850673_left_1748249175.077.jpg,877,253,1616,1029
/home/najo/NAS/DIP/datasets/Fr5_intertek_dataset/Fr5_intertek_5th_250526/right/zed_34850673_right_1748249175.077.jpg,34850673,right,1748249175.077,/home/najo/NAS/DIP/datasets/Fr5_intertek_dataset/Fr5_intertek_5th_250526/joint/joint_34850673_1748249175.077.json,1748249175.077,0.0,-41.31359742419554,-71.2175123762376,92.22837542543316,-110.9980275371287,-90.00021755105197,48.68727278001238,/home/najo/NAS/DIP/datasets/Fr5_intertek_dataset/preprocessed_roi/Fr5_intertek_5th_250526_zed_34850673_right_1748249175.077.jpg,772,253,1470,1029
/home/najo/NAS/DIP/datasets/Fr5_intertek_dataset/Fr5_intertek_5th_250526/top/zed_30779426_left_1748249175.084.jpg,30779426,left,1748249175.084,/home/najo/NAS/DIP/datasets/Fr5_intertek_dataset/Fr5_intertek_5th_250526/joint/joint_30779426_1748249175.084.json,1748249175.084,0.0,-41.31316232209158,-71.1944519647277,92.2707978805693,-111.0611173422029,-90.00021755105197,48.68727278001238,/home/najo/NAS/DIP/datasets/Fr5_intertek_dataset/preprocessed_roi/Fr5_intertek_5th_250526_zed_30779426_left_1748249175.084.jpg,941,177,1447,721
/home/najo/NAS/DIP/datasets/Fr5_intertek_dataset/Fr5_intertek_5th_250526/top/zed_30779426_right_1748249175.084.jpg,30779426,right,1748249175.084,/home/najo/NAS/DIP/datasets/Fr5_intertek_dataset/Fr5_intertek_5th_250526/joint/joint_30779426_1748249175.084.json,1748249175.084,0.0,-41.31316232209158,-71.1944519647277,92.2707978805693,-111.0611173422029,-90.00021755105197,48.68727278001238,/home/najo/NAS/DIP/datasets/Fr5_intertek_dataset/preprocessed_roi/Fr5_intertek_5th_250526_zed_30779426_right_1748249175.084.jpg,847,175,1335,723
/home/najo/NAS/DIP/datasets/Fr5_intertek_dataset/Fr5_intertek_5th_250526/left/zed_38007749_right_1748249175.210.jpg,38007749,right,1748249175.21,/home/najo/NAS/DIP/datasets/Fr5_intertek_dataset/Fr5_intertek_5th_250526/joint/joint_38007749_1748249175.210.json,1748249175.21,0.0,-41.31316232209158,-70.6890808709777,93.1497041305693,-112.4597530553836,-90.00021755105197,48.68727278001238,/home/najo/NAS/DIP/datasets/Fr5_intertek_dataset/preprocessed_roi/Fr5_intertek_5th_250526_zed_38007749_right_1748249175.210.jpg,243,267,1020,1008
/home/najo/NAS/DIP/datasets/Fr5_intertek_dataset/Fr5_intertek_5th_250526/left/zed_38007749_left_1748249175.210.jpg,38007749,left,1748249175.21,/home/najo/NAS/DIP/datasets/Fr5_intertek_dataset/Fr5_intertek_5th_250526/joint/joint_38007749_1748249175.210.json,1748249175.21,0.0,-41.31316232209158,-70.6890808709777,93.1497041305693,-112.4597530553836,-90.00021755105197,48.68727278001238,/home/najo/NAS/DIP/datasets/Fr5_intertek_dataset/preprocessed_roi/Fr5_intertek_5th_250526_zed_38007749_left_1748249175.210.jpg,382,267,1230,1010
/home/najo/NAS/DIP/datasets/Fr5_intertek_dataset/Fr5_intertek_5th_250526/right/zed_34850673_left_1748249175.215.jpg,34850673,left,1748249175.215,/home/najo/NAS/DIP/datasets/Fr5_intertek_dataset/Fr5_intertek_5th_250526/joint/joint_34850673_1748249175.215.json,1748249175.215,0.0,-41.31337987314356,-70.67668046101485,93.1705890315594,-112.4908628558168,-90.00021755105197,48.68727278001238,/home/najo/NAS/DIP/datasets/Fr5_intertek_dataset/preprocessed_roi/Fr5_intertek_5th_250526_zed_34850673_left_1748249175.215.jpg,877,257,1616,1029
/home/najo/NAS/DIP/datasets/Fr5_intertek_dataset/Fr5_intertek_5th_250526/right/zed_34850673_right_1748249175.215.jpg,34850673,right,1748249175.215,/home/najo/NAS/DIP/datasets/Fr5_intertek_dataset/Fr5_intertek_5th_250526/joint/joint_34850673_1748249175.215.json,1748249175.215,0.0,-41.31337987314356,-70.67668046101485,93.1705890315594,-112.4908628558168,-90.00021755105197,48.68727278001238,/home/najo/NAS/DIP/datasets/Fr5_intertek_dataset/preprocessed_roi/Fr5_intertek_5th_250526_zed_34850673_right_1748249175.215.jpg,772,257,1470,1029
/home/najo/NAS/DIP/datasets/Fr5_intertek_dataset/Fr5_intertek_5th_250526/top/zed_30779426_right_1748249175.222.jpg,30779426,right,1748249175.222,/home/najo/NAS/DIP/datasets/Fr5_intertek_dataset/Fr5_intertek_5th_250526/joint/joint_30779426_1748249175.222.json,1748249175.222,0.0,-41.31337987314356,-70.6486163753094,93.2199731203589,-112.5667881729579,-90.0,48.68705522896039,/home/najo/NAS/DIP/datasets/Fr5_intertek_dataset/preprocessed_roi/Fr5_intertek_5th_250526_zed_30779426_right_1748249175.222.jpg,847,179,1331,723
/home/najo/NAS/DIP/datasets/Fr5_intertek_dataset/Fr5_intertek_5th_250526/top/zed_30779426_left_1748249175.222.jpg,30779426,left,1748249175.222,/home/najo/NAS/DIP/datasets/Fr5_intertek_dataset/Fr5_intertek_5th_250526/joint/joint_30779426_1748249175.222.json,1748249175.222,0.0,-41.31337987314356,-70.6486163753094,93.2199731203589,-112.5667881729579,-90.0,48.68705522896039,/home/najo/NAS/DIP/datasets/Fr5_intertek_dataset/preprocessed_roi/Fr5_intertek_5th_250526_zed_30779426_left_1748249175.222.jpg,941,179,1443,721
/home/najo/NAS/DIP/datasets/Fr5_intertek_dataset/Fr5_intertek_5th_250526/left/zed_38007749_right_1748249175.347.jpg,38007749,right,1748249175.347,/home/najo/NAS/DIP/datasets/Fr5_intertek_dataset/Fr5_intertek_5th_250526/joint/joint_38007749_1748249175.347.json,1748249175.347,0.0,-41.3129447710396,-70.10887221534654,94.06624671256186,-113.949977761448,-90.0,48.68727278001238,/home/najo/NAS/DIP/datasets/Fr5_intertek_dataset/preprocessed_roi/Fr5_intertek_5th_250526_zed_38007749_right_1748249175.347.jpg,243,270,1020,1010
/home/najo/NAS/DIP/datasets/Fr5_intertek_dataset/Fr5_intertek_5th_250526/left/zed_38007749_left_1748249175.347.jpg,38007749,left,1748249175.347,/home/najo/NAS/DIP/datasets/Fr5_intertek_dataset/Fr5_intertek_5th_250526/joint/joint_38007749_1748249175.347.json,1748249175.347,0.0,-41.3129447710396,-70.10887221534654,94.06624671256186,-113.949977761448,-90.0,48.68727278001238,/home/najo/NAS/DIP/datasets/Fr5_intertek_dataset/preprocessed_roi/Fr5_intertek_5th_250526_zed_38007749_left_1748249175.347.jpg,382,270,1230,1010
/home/najo/NAS/DIP/datasets/Fr5_intertek_dataset/Fr5_intertek_5th_250526/right/zed_34850673_right_1748249175.352.jpg,34850673,right,1748249175.352,/home/najo/NAS/DIP/datasets/Fr5_intertek_dataset/Fr5_intertek_5th_250526/joint/joint_34850673_1748249175.352.json,1748249175.352,0.0,-41.3127272199876,-70.0862469059406,94.09757406404702,-114.0056708307549,-90.0,48.68727278001238,/home/najo/NAS/DIP/datasets/Fr5_intertek_dataset/preprocessed_roi/Fr5_intertek_5th_250526_zed_34850673_right_1748249175.352.jpg,772,259,1470,1029
/home/najo/NAS/DIP/datasets/Fr5_intertek_dataset/Fr5_intertek_5th_250526/right/zed_34850673_left_1748249175.352.jpg,34850673,left,1748249175.352,/home/najo/NAS/DIP/datasets/Fr5_intertek_dataset/Fr5_intertek_5th_250526/joint/joint_34850673_1748249175.352.json,1748249175.352,0.0,-41.3127272199876,-70.0862469059406,94.09757406404702,-114.0056708307549,-90.0,48.68727278001238,/home/najo/NAS/DIP/datasets/Fr5_intertek_dataset/preprocessed_roi/Fr5_intertek_5th_250526_zed_34850673_left_1748249175.352.jpg,877,259,1616,1029
/home/najo/NAS/DIP/datasets/Fr5_intertek_dataset/Fr5_intertek_5th_250526/top/zed_30779426_left_1748249175.359.jpg,30779426,left,1748249175.359,/home/najo/NAS/DIP/datasets/Fr5_intertek_dataset/Fr5_intertek_5th_250526/joint/joint_30779426_1748249175.359.json,1748249175.359,0.0,-41.3129447710396,-70.05927057549505,94.1354279470916,-114.0722414526609,-89.99978244894803,48.68727278001238,/home/najo/NAS/DIP/datasets/Fr5_intertek_dataset/preprocessed_roi/Fr5_intertek_5th_250526_zed_30779426_left_1748249175.359.jpg,941,183,1440,721
/home/najo/NAS/DIP/datasets/Fr5_intertek_dataset/Fr5_intertek_5th_250526/top/zed_30779426_right_1748249175.359.jpg,30779426,right,1748249175.359,/home/najo/NAS/DIP/datasets/Fr5_intertek_dataset/Fr5_intertek_5th_250526/joint/joint_30779426_1748249175.359.json,1748249175.359,0.0,-41.3129447710396,-70.05927057549505,94.1354279470916,-114.0722414526609,-89.99978244894803,48.68727278001238,/home/najo/NAS/DIP/datasets/Fr5_intertek_dataset/preprocessed_roi/Fr5_intertek_5th_250526_zed_30779426_right_1748249175.359.jpg,847,183,1327,723
/home/najo/NAS/DIP/datasets/Fr5_intertek_dataset/Fr5_intertek_5th_250526/left/zed_38007749_right_1748249175.484.jpg,38007749,right,1748249175.484,/home/najo/NAS/DIP/datasets/Fr5_intertek_dataset/Fr5_intertek_5th_250526/joint/joint_38007749_1748249175.484.json,1748249175.484,0.0,-41.3127272199876,-69.49255008508663,94.93666847153466,-115.4384620590965,-90.0,48.68727278001238,/home/najo/NAS/DIP/datasets/Fr5_intertek_dataset/preprocessed_roi/Fr5_intertek_5th_250526_zed_38007749_right_1748249175.484.jpg,243,270,1020,1010
/home/najo/NAS/DIP/datasets/Fr5_intertek_dataset/Fr5_intertek_5th_250526/left/zed_38007749_left_1748249175.484.jpg,38007749,left,1748249175.484,/home/najo/NAS/DIP/datasets/Fr5_intertek_dataset/Fr5_intertek_5th_250526/joint/joint_38007749_1748249175.484.json,1748249175.484,0.0,-41.3127272199876,-69.49255008508663,94.93666847153466,-115.4384620590965,-90.0,48.68727278001238,/home/najo/NAS/DIP/datasets/Fr5_intertek_dataset/preprocessed_roi/Fr5_intertek_5th_250526_zed_38007749_left_1748249175.484.jpg,382,270,1230,1010
/home/najo/NAS/DIP/datasets/Fr5_intertek_dataset/Fr5_intertek_5th_250526/right/zed_34850673_right_1748249175.490.jpg,34850673,right,1748249175.49,/home/najo/NAS/DIP/datasets/Fr5_intertek_dataset/Fr5_intertek_5th_250526/joint/joint_34850673_1748249175.490.json,1748249175.49,0.0,-41.3129447710396,-69.4699247756807,94.9690835782797,-115.4950253326114,-89.99956489789604,48.68727278001238,/home/najo/NAS/DIP/datasets/Fr5_intertek_dataset/preprocessed_roi/Fr5_intertek_5th_250526_zed_34850673_right_1748249175.490.jpg,772,261,1470,1029
/home/najo/NAS/DIP/datasets/Fr5_intertek_dataset/Fr5_intertek_5th_250526/right/zed_34850673_left_1748249175.490.jpg,34850673,left,1748249175.49,/home/najo/NAS/DIP/datasets/Fr5_intertek_dataset/Fr5_intertek_5th_250526/joint/joint_34850673_1748249175.490.json,1748249175.49,0.0,-41.3129447710396,-69.4699247756807,94.9690835782797,-115.4950253326114,-89.99956489789604,48.68727278001238,/home/najo/NAS/DIP/datasets/Fr5_intertek_dataset/preprocessed_roi/Fr5_intertek_5th_250526_zed_34850673_left_1748249175.490.jpg,873,263,1616,1029
/home/najo/NAS/DIP/datasets/Fr5_intertek_dataset/Fr5_intertek_5th_250526/top/zed_30779426_right_1748249175.497.jpg,30779426,right,1748249175.497,/home/najo/NAS/DIP/datasets/Fr5_intertek_dataset/Fr5_intertek_5th_250526/joint/joint_30779426_1748249175.497.json,1748249175.497,0.0,-41.3129447710396,-69.43707456683168,95.0141166460396,-115.5731261602723,-89.99978244894803,48.68727278001238,/home/najo/NAS/DIP/datasets/Fr5_intertek_dataset/preprocessed_roi/Fr5_intertek_5th_250526_zed_30779426_right_1748249175.497.jpg,847,185,1327,723
/home/najo/NAS/DIP/datasets/Fr5_intertek_dataset/Fr5_intertek_5th_250526/top/zed_30779426_left_1748249175.497.jpg,30779426,left,1748249175.497,/home/najo/NAS/DIP/datasets/Fr5_intertek_dataset/Fr5_intertek_5th_250526/joint/joint_30779426_1748249175.497.json,1748249175.497,0.0,-41.3129447710396,-69.43707456683168,95.0141166460396,-115.5731261602723,-89.99978244894803,48.68727278001238,/home/najo/NAS/DIP/datasets/Fr5_intertek_dataset/preprocessed_roi/Fr5_intertek_5th_250526_zed_30779426_left_1748249175.497.jpg,941,185,1432,721
/home/najo/NAS/DIP/datasets/Fr5_intertek_dataset/Fr5_intertek_5th_250526/left/zed_38007749_left_1748249175.621.jpg,38007749,left,1748249175.621,/home/najo/NAS/DIP/datasets/Fr5_intertek_dataset/Fr5_intertek_5th_250526/joint/joint_38007749_1748249175.621.json,1748249175.621,0.0,-41.31316232209158,-68.84033203125,95.77619798112624,-116.9302096225247,-90.0,48.68705522896039,/home/najo/NAS/DIP/datasets/Fr5_intertek_dataset/preprocessed_roi/Fr5_intertek_5th_250526_zed_38007749_left_1748249175.621.jpg,382,272,1230,1010
/home/najo/NAS/DIP/datasets/Fr5_intertek_dataset/Fr5_intertek_5th_250526/left/zed_38007749_right_1748249175.621.jpg,38007749,right,1748249175.621,/home/najo/NAS/DIP/datasets/Fr5_intertek_dataset/Fr5_intertek_5th_250526/joint/joint_38007749_1748249175.621.json,1748249175.621,0.0,-41.31316232209158,-68.84033203125,95.77619798112624,-116.9302096225247,-90.0,48.68705522896039,/home/najo/NAS/DIP/datasets/Fr5_intertek_dataset/preprocessed_roi/Fr5_intertek_5th_250526_zed_38007749_right_1748249175.621.jpg,243,272,1016,1010
/home/najo/NAS/DIP/datasets/Fr5_intertek_dataset/Fr5_intertek_5th_250526/right/zed_34850673_right_1748249175.627.jpg,34850673,right,1748249175.627,/home/najo/NAS/DIP/datasets/Fr5_intertek_dataset/Fr5_intertek_5th_250526/joint/joint_34850673_1748249175.627.json,1748249175.627,0.0,-41.3129447710396,-68.81574876237623,95.80687267945544,-116.9872079981435,-90.0,48.68727278001238,/home/najo/NAS/DIP/datasets/Fr5_intertek_dataset/preprocessed_roi/Fr5_intertek_5th_250526_zed_34850673_right_1748249175.627.jpg,772,265,1470,1029
/home/najo/NAS/DIP/datasets/Fr5_intertek_dataset/Fr5_intertek_5th_250526/top/zed_30779426_right_1748249175.634.jpg,30779426,right,1748249175.634,/home/najo/NAS/DIP/datasets/Fr5_intertek_dataset/Fr5_intertek_5th_250526/joint/joint_30779426_1748249175.634.json,1748249175.634,0.0,-41.3127272199876,-68.78181079826733,95.8479898282797,-117.0635684173886,-90.00043510210396,48.68705522896039,/home/najo/NAS/DIP/datasets/Fr5_intertek_dataset/preprocessed_roi/Fr5_intertek_5th_250526_zed_30779426_right_1748249175.634.jpg,847,189,1320,723
/home/najo/NAS/DIP/datasets/Fr5_intertek_dataset/Fr5_intertek_5th_250526/right/zed_34850673_left_1748249175.627.jpg,34850673,left,1748249175.627,/home/najo/NAS/DIP/datasets/Fr5_intertek_dataset/Fr5_intertek_5th_250526/joint/joint_34850673_1748249175.627.json,1748249175.627,0.0,-41.3129447710396,-68.81574876237623,95.80687267945544,-116.9872079981435,-90.0,48.68727278001238,/home/najo/NAS/DIP/datasets/Fr5_intertek_dataset/preprocessed_roi/Fr5_intertek_5th_250526_zed_34850673_left_1748249175.627.jpg,877,265,1616,1029
/home/najo/NAS/DIP/datasets/Fr5_intertek_dataset/Fr5_intertek_5th_250526/top/zed_30779426_left_1748249175.634.jpg,30779426,left,1748249175.634,/home/najo/NAS/DIP/datasets/Fr5_intertek_dataset/Fr5_intertek_5th_250526/joint/joint_30779426_1748249175.634.json,1748249175.634,0.0,-41.3127272199876,-68.78181079826733,95.8479898282797,-117.0635684173886,-90.00043510210396,48.68705522896039,/home/najo/NAS/DIP/datasets/Fr5_intertek_dataset/preprocessed_roi/Fr5_intertek_5th_250526_zed_30779426_left_1748249175.634.jpg,941,189,1428,721
/home/najo/NAS/DIP/datasets/Fr5_intertek_dataset/Fr5_intertek_5th_250526/left/zed_38007749_left_1748249175.758.jpg,38007749,left,1748249175.758,/home/najo/NAS/DIP/datasets/Fr5_intertek_dataset/Fr5_intertek_5th_250526/joint/joint_38007749_1748249175.758.json,1748249175.758,0.0,-41.31337987314356,-68.14982499226485,96.56895401454209,-118.4158657564975,-90.0,48.68705522896039,/home/najo/NAS/DIP/datasets/Fr5_intertek_dataset/preprocessed_roi/Fr5_intertek_5th_250526_zed_38007749_left_1748249175.758.jpg,382,272,1230,1010
/home/najo/NAS/DIP/datasets/Fr5_intertek_dataset/Fr5_intertek_5th_250526/left/zed_38007749_right_1748249175.758.jpg,38007749,right,1748249175.758,/home/najo/NAS/DIP/datasets/Fr5_intertek_dataset/Fr5_intertek_5th_250526/joint/joint_38007749_1748249175.758.json,1748249175.758,0.0,-41.31337987314356,-68.14982499226485,96.56895401454209,-118.4158657564975,-90.0,48.68705522896039,/home/najo/NAS/DIP/datasets/Fr5_intertek_dataset/preprocessed_roi/Fr5_intertek_5th_250526_zed_38007749_right_1748249175.758.jpg,243,272,1016,1010
/home/najo/NAS/DIP/datasets/Fr5_intertek_dataset/Fr5_intertek_5th_250526/right/zed_34850673_right_1748249175.765.jpg,34850673,right,1748249175.765,/home/najo/NAS/DIP/datasets/Fr5_intertek_dataset/Fr5_intertek_5th_250526/joint/joint_34850673_1748249175.765.json,1748249175.765,0.0,-41.31316232209158,-68.11392906868812,96.60985361231435,-118.4946192373143,-90.00021755105197,48.68727278001238,/home/najo/NAS/DIP/datasets/Fr5_intertek_dataset/preprocessed_roi/Fr5_intertek_5th_250526_zed_34850673_right_1748249175.765.jpg,776,270,1470,1029
/home/najo/NAS/DIP/datasets/Fr5_intertek_dataset/Fr5_intertek_5th_250526/right/zed_34850673_left_1748249175.765.jpg,34850673,left,1748249175.765,/home/najo/NAS/DIP/datasets/Fr5_intertek_dataset/Fr5_intertek_5th_250526/joint/joint_34850673_1748249175.765.json,1748249175.765,0.0,-41.31316232209158,-68.11392906868812,96.60985361231435,-118.4946192373143,-90.00021755105197,48.68727278001238,/home/najo/NAS/DIP/datasets/Fr5_intertek_dataset/preprocessed_roi/Fr5_intertek_5th_250526_zed_34850673_left_1748249175.765.jpg,877,270,1616,1029
/home/najo/NAS/DIP/datasets/Fr5_intertek_dataset/Fr5_intertek_5th_250526/top/zed_30779426_left_1748249175.771.jpg,30779426,left,1748249175.771,/home/najo/NAS/DIP/datasets/Fr5_intertek_dataset/Fr5_intertek_5th_250526/joint/joint_30779426_1748249175.771.json,1748249175.771,0.0,-41.31337987314356,-68.08194906404702,96.64400912747524,-118.563800471844,-89.99978244894803,48.68705522896039,/home/najo/NAS/DIP/datasets/Fr5_intertek_dataset/preprocessed_roi/Fr5_intertek_5th_250526_zed_30779426_left_1748249175.771.jpg,941,194,1425,721
/home/najo/NAS/DIP/datasets/Fr5_intertek_dataset/Fr5_intertek_5th_250526/top/zed_30779426_right_1748249175.771.jpg,30779426,right,1748249175.771,/home/najo/NAS/DIP/datasets/Fr5_intertek_dataset/Fr5_intertek_5th_250526/joint/joint_30779426_1748249175.771.json,1748249175.771,0.0,-41.31337987314356,-68.08194906404702,96.64400912747524,-118.563800471844,-89.99978244894803,48.68705522896039,/home/najo/NAS/DIP/datasets/Fr5_intertek_dataset/preprocessed_roi/Fr5_intertek_5th_250526_zed_30779426_right_1748249175.771.jpg,847,191,1320,723
/home/najo/NAS/DIP/datasets/Fr5_intertek_dataset/Fr5_intertek_5th_250526/left/zed_38007749_right_1748249175.896.jpg,38007749,right,1748249175.896,/home/najo/NAS/DIP/datasets/Fr5_intertek_dataset/Fr5_intertek_5th_250526/joint/joint_38007749_1748249175.896.json,1748249175.896,0.0,-41.31316232209158,-67.412109375,97.34060759591584,-119.926105159344,-90.00021755105197,48.68727278001238,/home/najo/NAS/DIP/datasets/Fr5_intertek_dataset/preprocessed_roi/Fr5_intertek_5th_250526_zed_38007749_right_1748249175.896.jpg,243,274,1016,1010
/home/najo/NAS/DIP/datasets/Fr5_intertek_dataset/Fr5_intertek_5th_250526/left/zed_38007749_left_1748249175.896.jpg,38007749,left,1748249175.896,/home/najo/NAS/DIP/datasets/Fr5_intertek_dataset/Fr5_intertek_5th_250526/joint/joint_38007749_1748249175.896.json,1748249175.896,0.0,-41.31316232209158,-67.412109375,97.34060759591584,-119.926105159344,-90.00021755105197,48.68727278001238,/home/najo/NAS/DIP/datasets/Fr5_intertek_dataset/preprocessed_roi/Fr5_intertek_5th_250526_zed_38007749_left_1748249175.896.jpg,382,274,1226,1010
/home/najo/NAS/DIP/datasets/Fr5_intertek_dataset/Fr5_intertek_5th_250526/right/zed_34850673_right_1748249175.902.jpg,34850673,right,1748249175.902,/home/najo/NAS/DIP/datasets/Fr5_intertek_dataset/Fr5_intertek_5th_250526/joint/joint_34850673_1748249175.902.json,1748249175.902,0.0,-41.31316232209158,-67.39013671875,97.36171004795791,-119.9676574102723,-89.99978244894803,48.68705522896039,/home/najo/NAS/DIP/datasets/Fr5_intertek_dataset/preprocessed_roi/Fr5_intertek_5th_250526_zed_34850673_right_1748249175.902.jpg,776,272,1470,1029
/home/najo/NAS/DIP/datasets/Fr5_intertek_dataset/Fr5_intertek_5th_250526/right/zed_34850673_left_1748249175.902.jpg,34850673,left,1748249175.902,/home/najo/NAS/DIP/datasets/Fr5_intertek_dataset/Fr5_intertek_5th_250526/joint/joint_34850673_1748249175.902.json,1748249175.902,0.0,-41.31316232209158,-67.39013671875,97.36171004795791,-119.9676574102723,-89.99978244894803,48.68705522896039,/home/najo/NAS/DIP/datasets/Fr5_intertek_dataset/preprocessed_roi/Fr5_intertek_5th_250526_zed_34850673_left_1748249175.902.jpg,881,272,1616,1029
/home/najo/NAS/DIP/datasets/Fr5_intertek_dataset/Fr5_intertek_5th_250526/top/zed_30779426_right_1748249175.909.jpg,30779426,right,1748249175.909,/home/najo/NAS/DIP/datasets/Fr5_intertek_dataset/Fr5_intertek_5th_250526/joint/joint_30779426_1748249175.909.json,1748249175.909,0.0,-41.3127272199876,-67.34706161045793,97.40456760519804,-120.0511970142326,-90.00021755105197,48.68727278001238,/home/najo/NAS/DIP/datasets/Fr5_intertek_dataset/preprocessed_roi/Fr5_intertek_5th_250526_zed_30779426_right_1748249175.909.jpg,847,196,1316,723
/home/najo/NAS/DIP/datasets/Fr5_intertek_dataset/Fr5_intertek_5th_250526/top/zed_30779426_left_1748249175.909.jpg,30779426,left,1748249175.909,/home/najo/NAS/DIP/datasets/Fr5_intertek_dataset/Fr5_intertek_5th_250526/joint/joint_30779426_1748249175.909.json,1748249175.909,0.0,-41.3127272199876,-67.34706161045793,97.40456760519804,-120.0511970142326,-90.00021755105197,48.68727278001238,/home/najo/NAS/DIP/datasets/Fr5_intertek_dataset/preprocessed_roi/Fr5_intertek_5th_250526_zed_30779426_left_1748249175.909.jpg,941,196,1421,721
/home/najo/NAS/DIP/datasets/Fr5_intertek_dataset/Fr5_intertek_5th_250526/left/zed_38007749_left_1748249176.034.jpg,38007749,left,1748249176.034,/home/najo/NAS/DIP/datasets/Fr5_intertek_dataset/Fr5_intertek_5th_250526/joint/joint_38007749_1748249176.034.json,1748249176.034,0.0,-41.31490273050742,-66.70876682394803,98.0000048344678,-121.3005927057549,-89.99978244894803,48.68705522896039,/home/najo/NAS/DIP/datasets/Fr5_intertek_dataset/preprocessed_roi/Fr5_intertek_5th_250526_zed_38007749_left_1748249176.034.jpg,382,276,1226,1025
/home/najo/NAS/DIP/datasets/Fr5_intertek_dataset/Fr5_intertek_5th_250526/left/zed_38007749_right_1748249176.034.jpg,38007749,right,1748249176.034,/home/najo/NAS/DIP/datasets/Fr5_intertek_dataset/Fr5_intertek_5th_250526/joint/joint_38007749_1748249176.034.json,1748249176.034,0.0,-41.31490273050742,-66.70876682394803,98.0000048344678,-121.3005927057549,-89.99978244894803,48.68705522896039,/home/najo/NAS/DIP/datasets/Fr5_intertek_dataset/preprocessed_roi/Fr5_intertek_5th_250526_zed_38007749_right_1748249176.034.jpg,243,276,1016,1027
/home/najo/NAS/DIP/datasets/Fr5_intertek_dataset/Fr5_intertek_5th_250526/right/zed_34850673_right_1748249176.039.jpg,34850673,right,1748249176.039,/home/najo/NAS/DIP/datasets/Fr5_intertek_dataset/Fr5_intertek_5th_250526/joint/joint_34850673_1748249176.039.json,1748249176.039,0.0,-41.31490273050742,-66.69723661819307,98.01022973391088,-121.3245233214727,-90.0,48.68727278001238,/home/najo/NAS/DIP/datasets/Fr5_intertek_dataset/preprocessed_roi/Fr5_intertek_5th_250526_zed_34850673_right_1748249176.039.jpg,776,276,1470,1029
/home/najo/NAS/DIP/datasets/Fr5_intertek_dataset/Fr5_intertek_5th_250526/right/zed_34850673_left_1748249176.039.jpg,34850673,left,1748249176.039,/home/najo/NAS/DIP/datasets/Fr5_intertek_dataset/Fr5_intertek_5th_250526/joint/joint_34850673_1748249176.039.json,1748249176.039,0.0,-41.31490273050742,-66.69723661819307,98.01022973391088,-121.3245233214727,-90.0,48.68727278001238,/home/najo/NAS/DIP/datasets/Fr5_intertek_dataset/preprocessed_roi/Fr5_intertek_5th_250526_zed_34850673_left_1748249176.039.jpg,881,276,1616,1029
/home/najo/NAS/DIP/datasets/Fr5_intertek_dataset/Fr5_intertek_5th_250526/top/zed_30779426_right_1748249176.047.jpg,30779426,right,1748249176.047,/home/najo/NAS/DIP/datasets/Fr5_intertek_dataset/Fr5_intertek_5th_250526/joint/joint_30779426_1748249176.047.json,1748249176.047,0.0,-41.31468517945544,-66.66786722617574,98.03590075804456,-121.3821743502475,-90.00021755105197,48.68727278001238,/home/najo/NAS/DIP/datasets/Fr5_intertek_dataset/preprocessed_roi/Fr5_intertek_5th_250526_zed_30779426_right_1748249176.047.jpg,847,200,1312,723
/home/najo/NAS/DIP/datasets/Fr5_intertek_dataset/Fr5_intertek_5th_250526/top/zed_30779426_left_1748249176.047.jpg,30779426,left,1748249176.047,/home/najo/NAS/DIP/datasets/Fr5_intertek_dataset/Fr5_intertek_5th_250526/joint/joint_30779426_1748249176.047.json,1748249176.047,0.0,-41.31468517945544,-66.66786722617574,98.03590075804456,-121.3821743502475,-90.00021755105197,48.68727278001238,/home/najo/NAS/DIP/datasets/Fr5_intertek_dataset/preprocessed_roi/Fr5_intertek_5th_250526_zed_30779426_left_1748249176.047.jpg,941,200,1417,721
/home/najo/NAS/DIP/datasets/Fr5_intertek_dataset/Fr5_intertek_5th_250526/left/zed_38007749_right_1748249176.172.jpg,38007749,right,1748249176.172,/home/najo/NAS/DIP/datasets/Fr5_intertek_dataset/Fr5_intertek_5th_250526/joint/joint_38007749_1748249176.172.json,1748249176.172,0.0,-41.31425007735149,-66.42203453743812,98.2562799737005,-121.8294593131188,-90.0,48.68727278001238,/home/najo/NAS/DIP/datasets/Fr5_intertek_dataset/preprocessed_roi/Fr5_intertek_5th_250526_zed_38007749_right_1748249176.172.jpg,243,278,1016,1039
/home/najo/NAS/DIP/datasets/Fr5_intertek_dataset/Fr5_intertek_5th_250526/right/zed_34850673_right_1748249176.176.jpg,34850673,right,1748249176.176,/home/najo/NAS/DIP/datasets/Fr5_intertek_dataset/Fr5_intertek_5th_250526/joint/joint_34850673_1748249176.176.json,1748249176.176,0.0,-41.31446762840346,-66.42159943533416,98.2560624226485,-121.8296768641708,-90.0,48.68705522896039,/home/najo/NAS/DIP/datasets/Fr5_intertek_dataset/preprocessed_roi/Fr5_intertek_5th_250526_zed_34850673_right_1748249176.176.jpg,776,278,1470,1029
/home/najo/NAS/DIP/datasets/Fr5_intertek_dataset/Fr5_intertek_5th_250526/left/zed_38007749_left_1748249176.172.jpg,38007749,left,1748249176.172,/home/najo/NAS/DIP/datasets/Fr5_intertek_dataset/Fr5_intertek_5th_250526/joint/joint_38007749_1748249176.172.json,1748249176.172,0.0,-41.31425007735149,-66.42203453743812,98.2562799737005,-121.8294593131188,-90.0,48.68727278001238,/home/najo/NAS/DIP/datasets/Fr5_intertek_dataset/preprocessed_roi/Fr5_intertek_5th_250526_zed_38007749_left_1748249176.172.jpg,382,278,1226,1035
/home/najo/NAS/DIP/datasets/Fr5_intertek_dataset/Fr5_intertek_5th_250526/right/zed_34850673_left_1748249176.176.jpg,34850673,left,1748249176.176,/home/najo/NAS/DIP/datasets/Fr5_intertek_dataset/Fr5_intertek_5th_250526/joint/joint_34850673_1748249176.176.json,1748249176.176,0.0,-41.31446762840346,-66.42159943533416,98.2560624226485,-121.8296768641708,-90.0,48.68705522896039,/home/najo/NAS/DIP/datasets/Fr5_intertek_dataset/preprocessed_roi/Fr5_intertek_5th_250526_zed_34850673_left_1748249176.176.jpg,881,278,1616,1029
/home/najo/NAS/DIP/datasets/Fr5_intertek_dataset/Fr5_intertek_5th_250526/top/zed_30779426_left_1748249176.184.jpg,30779426,left,1748249176.184,/home/najo/NAS/DIP/datasets/Fr5_intertek_dataset/Fr5_intertek_5th_250526/joint/joint_30779426_1748249176.184.json,1748249176.184,0.0,-41.31446762840346,-66.42138188428218,98.2560624226485,-121.8322874767945,-90.0,48.68727278001238,/home/najo/NAS/DIP/datasets/Fr5_intertek_dataset/preprocessed_roi/Fr5_intertek_5th_250526_zed_30779426_left_1748249176.184.jpg,941,202,1413,721
/home/najo/NAS/DIP/datasets/Fr5_intertek_dataset/Fr5_intertek_5th_250526/top/zed_30779426_right_1748249176.184.jpg,30779426,right,1748249176.184,/home/najo/NAS/DIP/datasets/Fr5_intertek_dataset/Fr5_intertek_5th_250526/joint/joint_30779426_1748249176.184.json,1748249176.184,0.0,-41.31446762840346,-66.42138188428218,98.2560624226485,-121.8322874767945,-90.0,48.68727278001238,/home/najo/NAS/DIP/datasets/Fr5_intertek_dataset/preprocessed_roi/Fr5_intertek_5th_250526_zed_30779426_right_1748249176.184.jpg,847,202,1312,723
/home/najo/NAS/DIP/datasets/Fr5_intertek_dataset/Fr5_intertek_5th_250526/left/zed_38007749_left_1748249176.309.jpg,38007749,left,1748249176.309,/home/najo/NAS/DIP/datasets/Fr5_intertek_dataset/Fr5_intertek_5th_250526/joint/joint_38007749_1748249176.309.json,1748249176.309,0.0,-41.31533783261138,-66.60760558477723,98.07767056002476,-121.4465694616336,-90.0,48.68727278001238,/home/najo/NAS/DIP/datasets/Fr5_intertek_dataset/preprocessed_roi/Fr5_intertek_5th_250526_zed_38007749_left_1748249176.309.jpg,382,278,1226,1037
/home/najo/NAS/DIP/datasets/Fr5_intertek_dataset/Fr5_intertek_5th_250526/left/zed_38007749_right_1748249176.309.jpg,38007749,right,1748249176.309,/home/najo/NAS/DIP/datasets/Fr5_intertek_dataset/Fr5_intertek_5th_250526/joint/joint_38007749_1748249176.309.json,1748249176.309,0.0,-41.31533783261138,-66.60760558477723,98.07767056002476,-121.4465694616336,-90.0,48.68727278001238,/home/najo/NAS/DIP/datasets/Fr5_intertek_dataset/preprocessed_roi/Fr5_intertek_5th_250526_zed_38007749_right_1748249176.309.jpg,243,278,1016,1042
/home/najo/NAS/DIP/datasets/Fr5_intertek_dataset/Fr5_intertek_5th_250526/right/zed_34850673_left_1748249176.315.jpg,34850673,left,1748249176.315,/home/najo/NAS/DIP/datasets/Fr5_intertek_dataset/Fr5_intertek_5th_250526/joint/joint_34850673_1748249176.315.json,1748249176.315,0.0,-41.3151202815594,-66.62696762840346,98.06200688428218,-121.4132841506807,-90.0,48.68727278001238,/home/najo/NAS/DIP/datasets/Fr5_intertek_dataset/preprocessed_roi/Fr5_intertek_5th_250526_zed_34850673_left_1748249176.315.jpg,881,280,1616,1029
/home/najo/NAS/DIP/datasets/Fr5_intertek_dataset/Fr5_intertek_5th_250526/right/zed_34850673_right_1748249176.315.jpg,34850673,right,1748249176.315,/home/najo/NAS/DIP/datasets/Fr5_intertek_dataset/Fr5_intertek_5th_250526/joint/joint_34850673_1748249176.315.json,1748249176.315,0.0,-41.3151202815594,-66.62696762840346,98.06200688428218,-121.4132841506807,-90.0,48.68727278001238,/home/najo/NAS/DIP/datasets/Fr5_intertek_dataset/preprocessed_roi/Fr5_intertek_5th_250526_zed_34850673_right_1748249176.315.jpg,776,278,1470,1029
/home/najo/NAS/DIP/datasets/Fr5_intertek_dataset/Fr5_intertek_5th_250526/top/zed_30779426_left_1748249176.319.jpg,30779426,left,1748249176.319,/home/najo/NAS/DIP/datasets/Fr5_intertek_dataset/Fr5_intertek_5th_250526/joint/joint_30779426_1748249176.319.json,1748249176.319,0.0,-41.31446762840346,-66.65481416305693,98.0395991259282,-121.363682510829,-90.0,48.68705522896039,/home/najo/NAS/DIP/datasets/Fr5_intertek_dataset/preprocessed_roi/Fr5_intertek_5th_250526_zed_30779426_left_1748249176.319.jpg,941,202,1413,721
/home/najo/NAS/DIP/datasets/Fr5_intertek_dataset/Fr5_intertek_5th_250526/top/zed_30779426_right_1748249176.319.jpg,30779426,right,1748249176.319,/home/najo/NAS/DIP/datasets/Fr5_intertek_dataset/Fr5_intertek_5th_250526/joint/joint_30779426_1748249176.319.json,1748249176.319,0.0,-41.31446762840346,-66.65481416305693,98.0395991259282,-121.363682510829,-90.0,48.68705522896039,/home/najo/NAS/DIP/datasets/Fr5_intertek_dataset/preprocessed_roi/Fr5_intertek_5th_250526_zed_30779426_right_1748249176.319.jpg,847,202,1312,723
/home/najo/NAS/DIP/datasets/Fr5_intertek_dataset/Fr5_intertek_5th_250526/left/zed_38007749_left_1748249176.444.jpg,38007749,left,1748249176.444,/home/najo/NAS/DIP/datasets/Fr5_intertek_dataset/Fr5_intertek_5th_250526/joint/joint_38007749_1748249176.444.json,1748249176.444,0.0,-41.3140325262995,-67.3494546720297,97.3893390315594,-120.0296594600866,-90.0,48.68727278001238,/home/najo/NAS/DIP/datasets/Fr5_intertek_dataset/preprocessed_roi/Fr5_intertek_5th_250526_zed_38007749_left_1748249176.444.jpg,382,278,1226,1027
/home/najo/NAS/DIP/datasets/Fr5_intertek_dataset/Fr5_intertek_5th_250526/left/zed_38007749_right_1748249176.444.jpg,38007749,right,1748249176.444,/home/najo/NAS/DIP/datasets/Fr5_intertek_dataset/Fr5_intertek_5th_250526/joint/joint_38007749_1748249176.444.json,1748249176.444,0.0,-41.3140325262995,-67.3494546720297,97.3893390315594,-120.0296594600866,-90.0,48.68727278001238,/home/najo/NAS/DIP/datasets/Fr5_intertek_dataset/preprocessed_roi/Fr5_intertek_5th_250526_zed_38007749_right_1748249176.444.jpg,243,278,1016,1029
