Najongs/2025_ICRA_Multi_View_Robot_Pose_Estimation/dataset/Fr5/Fr5_2th_250526/matched_index.csv
img.path,img.serial,img.view,img.ts,joint.path,joint.ts,abs_dt,joint.0,joint.1,joint.2,joint.3,joint.4,joint.5
/home/najo/NAS/DIP/datasets/Fr5_intertek_dataset/Fr5_intertek_2nd_250526/right/zed_34850673_left_1748248972.396.jpg,34850673,left,1748248972.396,/home/najo/NAS/DIP/datasets/Fr5_intertek_dataset/Fr5_intertek_2nd_250526/joint/joint_38007749_1748248972.419.json,1748248972.419,0.023000001907348633,31.35215230507425,-92.64281017945545,120.1799872370049,-117.5249941986386,-90.0,121.3449731203589
/home/najo/NAS/DIP/datasets/Fr5_intertek_dataset/Fr5_intertek_2nd_250526/right/zed_34850673_right_1748248972.396.jpg,34850673,right,1748248972.396,/home/najo/NAS/DIP/datasets/Fr5_intertek_dataset/Fr5_intertek_2nd_250526/joint/joint_38007749_1748248972.419.json,1748248972.419,0.023000001907348633,31.35215230507425,-92.64281017945545,120.1799872370049,-117.5249941986386,-90.0,121.3449731203589
/home/najo/NAS/DIP/datasets/Fr5_intertek_dataset/Fr5_intertek_2nd_250526/top/zed_30779426_left_1748248972.408.jpg,30779426,left,1748248972.408,/home/najo/NAS/DIP/datasets/Fr5_intertek_dataset/Fr5_intertek_2nd_250526/joint/joint_38007749_1748248972.419.json,1748248972.419,0.010999917984008789,31.35215230507425,-92.64281017945545,120.1799872370049,-117.5249941986386,-90.0,121.3449731203589
/home/najo/NAS/DIP/datasets/Fr5_intertek_dataset/Fr5_intertek_2nd_250526/top/zed_30779426_right_1748248972.408.jpg,30779426,right,1748248972.408,/home/najo/NAS/DIP/datasets/Fr5_intertek_dataset/Fr5_intertek_2nd_250526/joint/joint_38007749_1748248972.419.json,1748248972.419,0.010999917984008789,31.35215230507425,-92.64281017945545,120.1799872370049,-117.5249941986386,-90.0,121.3449731203589
/home/najo/NAS/DIP/datasets/Fr5_intertek_dataset/Fr5_intertek_2nd_250526/left/zed_38007749_left_1748248972.419.jpg,38007749,left,1748248972.419,/home/najo/NAS/DIP/datasets/Fr5_intertek_dataset/Fr5_intertek_2nd_250526/joint/joint_38007749_1748248972.419.json,1748248972.419,0.0,31.35215230507425,-92.64281017945545,120.1799872370049,-117.5249941986386,-90.0,121.3449731203589
/home/najo/NAS/DIP/datasets/Fr5_intertek_dataset/Fr5_intertek_2nd_250526/left/zed_38007749_right_1748248972.419.jpg,38007749,right,1748248972.419,/home/najo/NAS/DIP/datasets/Fr5_intertek_dataset/Fr5_intertek_2nd_250526/joint/joint_38007749_1748248972.419.json,1748248972.419,0.0,31.35215230507425,-92.64281017945545,120.1799872370049,-117.5249941986386,-90.0,121.3449731203589
/home/najo/NAS/DIP/datasets/Fr5_intertek_dataset/Fr5_intertek_2nd_250526/right/zed_34850673_left_1748248972.549.jpg,34850673,left,1748248972.549,/home/najo/NAS/DIP/datasets/Fr5_intertek_dataset/Fr5_intertek_2nd_250526/joint/joint_34850673_1748248972.549.json,1748248972.549,0.0,31.06759552908416,-91.5533145111386,120.6438060798267,-119.0952776918317,-89.99934734684406,121.0721641011757
/home/najo/NAS/DIP/datasets/Fr5_intertek_dataset/Fr5_intertek_2nd_250526/right/zed_34850673_right_1748248972.549.jpg,34850673,right,1748248972.549,/home/najo/NAS/DIP/datasets/Fr5_intertek_dataset/Fr5_intertek_2nd_250526/joint/joint_34850673_1748248972.549.json,1748248972.549,0.0,31.06759552908416,-91.5533145111386,120.6438060798267,-119.0952776918317,-89.99934734684406,121.0721641011757
/home/najo/NAS/DIP/datasets/Fr5_intertek_dataset/Fr5_intertek_2nd_250526/top/zed_30779426_left_1748248972.554.jpg,30779426,left,1748248972.554,/home/najo/NAS/DIP/datasets/Fr5_intertek_dataset/Fr5_intertek_2nd_250526/joint/joint_30779426_1748248972.554.json,1748248972.554,0.0,31.06063389542079,-91.52612062964108,120.6546836324257,-119.1305209622524,-90.0,121.0649849164604
/home/najo/NAS/DIP/datasets/Fr5_intertek_dataset/Fr5_intertek_2nd_250526/top/zed_30779426_right_1748248972.554.jpg,30779426,right,1748248972.554,/home/najo/NAS/DIP/datasets/Fr5_intertek_dataset/Fr5_intertek_2nd_250526/joint/joint_30779426_1748248972.554.json,1748248972.554,0.0,31.06063389542079,-91.52612062964108,120.6546836324257,-119.1305209622524,-90.0,121.0649849164604
/home/najo/NAS/DIP/datasets/Fr5_intertek_dataset/Fr5_intertek_2nd_250526/left/zed_38007749_left_1748248972.564.jpg,38007749,left,1748248972.564,/home/najo/NAS/DIP/datasets/Fr5_intertek_dataset/Fr5_intertek_2nd_250526/joint/joint_38007749_1748248972.564.json,1748248972.564,0.0,31.05149675123762,-91.48978960396039,120.6694771039604,-119.17859974474,-90.0,121.0558477722772
/home/najo/NAS/DIP/datasets/Fr5_intertek_dataset/Fr5_intertek_2nd_250526/left/zed_38007749_right_1748248972.564.jpg,38007749,right,1748248972.564,/home/najo/NAS/DIP/datasets/Fr5_intertek_dataset/Fr5_intertek_2nd_250526/joint/joint_38007749_1748248972.564.json,1748248972.564,0.0,31.05149675123762,-91.48978960396039,120.6694771039604,-119.17859974474,-90.0,121.0558477722772
/home/najo/NAS/DIP/datasets/Fr5_intertek_dataset/Fr5_intertek_2nd_250526/right/zed_34850673_right_1748248972.691.jpg,34850673,right,1748248972.691,/home/najo/NAS/DIP/datasets/Fr5_intertek_dataset/Fr5_intertek_2nd_250526/joint/joint_34850673_1748248972.691.json,1748248972.691,0.0,30.76911548576732,-90.35308535736387,121.0950069616336,-120.7460550742574,-90.00021755105197,120.772161200495
/home/najo/NAS/DIP/datasets/Fr5_intertek_dataset/Fr5_intertek_2nd_250526/right/zed_34850673_left_1748248972.691.jpg,34850673,left,1748248972.691,/home/najo/NAS/DIP/datasets/Fr5_intertek_dataset/Fr5_intertek_2nd_250526/joint/joint_34850673_1748248972.691.json,1748248972.691,0.0,30.76911548576732,-90.35308535736387,121.0950069616336,-120.7460550742574,-90.00021755105197,120.772161200495
/home/najo/NAS/DIP/datasets/Fr5_intertek_dataset/Fr5_intertek_2nd_250526/top/zed_30779426_right_1748248972.695.jpg,30779426,right,1748248972.695,/home/najo/NAS/DIP/datasets/Fr5_intertek_dataset/Fr5_intertek_2nd_250526/joint/joint_30779426_1748248972.695.json,1748248972.695,0.0,30.74931834003713,-90.25496983292079,121.1287273746906,-120.882024481745,-90.0,120.7471428295173
/home/najo/NAS/DIP/datasets/Fr5_intertek_dataset/Fr5_intertek_2nd_250526/top/zed_30779426_left_1748248972.695.jpg,30779426,left,1748248972.695,/home/najo/NAS/DIP/datasets/Fr5_intertek_dataset/Fr5_intertek_2nd_250526/joint/joint_30779426_1748248972.695.json,1748248972.695,0.0,30.74931834003713,-90.25496983292079,121.1287273746906,-120.882024481745,-90.0,120.7471428295173
/home/najo/NAS/DIP/datasets/Fr5_intertek_dataset/Fr5_intertek_2nd_250526/left/zed_38007749_right_1748248972.700.jpg,38007749,right,1748248972.7,/home/najo/NAS/DIP/datasets/Fr5_intertek_dataset/Fr5_intertek_2nd_250526/joint/joint_38007749_1748248972.700.json,1748248972.7,0.0,30.74213915532178,-90.21929146039604,121.1406926825495,-120.9287979579208,-89.99956489789604,120.738223236386
/home/najo/NAS/DIP/datasets/Fr5_intertek_dataset/Fr5_intertek_2nd_250526/left/zed_38007749_left_1748248972.700.jpg,38007749,left,1748248972.7,/home/najo/NAS/DIP/datasets/Fr5_intertek_dataset/Fr5_intertek_2nd_250526/joint/joint_38007749_1748248972.700.json,1748248972.7,0.0,30.74213915532178,-90.21929146039604,121.1406926825495,-120.9287979579208,-89.99956489789604,120.738223236386
/home/najo/NAS/DIP/datasets/Fr5_intertek_dataset/Fr5_intertek_2nd_250526/right/zed_34850673_right_1748248972.823.jpg,34850673,right,1748248972.823,/home/najo/NAS/DIP/datasets/Fr5_intertek_dataset/Fr5_intertek_2nd_250526/joint/joint_34850673_1748248972.823.json,1748248972.823,0.0,30.47672687190594,-89.06648843595298,121.5161857982673,-122.4499149133663,-90.0,120.4769444229579
/home/najo/NAS/DIP/datasets/Fr5_intertek_dataset/Fr5_intertek_2nd_250526/right/zed_34850673_left_1748248972.823.jpg,34850673,left,1748248972.823,/home/najo/NAS/DIP/datasets/Fr5_intertek_dataset/Fr5_intertek_2nd_250526/joint/joint_34850673_1748248972.823.json,1748248972.823,0.0,30.47672687190594,-89.06648843595298,121.5161857982673,-122.4499149133663,-90.0,120.4769444229579
/home/najo/NAS/DIP/datasets/Fr5_intertek_dataset/Fr5_intertek_2nd_250526/top/zed_30779426_left_1748248972.834.jpg,30779426,left,1748248972.834,/home/najo/NAS/DIP/datasets/Fr5_intertek_dataset/Fr5_intertek_2nd_250526/joint/joint_30779426_1748248972.834.json,1748248972.834,0.0,30.45257870513613,-88.97207127939356,121.5444674350247,-122.5715259514232,-90.0,120.4554068688118
/home/najo/NAS/DIP/datasets/Fr5_intertek_dataset/Fr5_intertek_2nd_250526/top/zed_30779426_right_1748248972.834.jpg,30779426,right,1748248972.834,/home/najo/NAS/DIP/datasets/Fr5_intertek_dataset/Fr5_intertek_2nd_250526/joint/joint_30779426_1748248972.834.json,1748248972.834,0.0,30.45257870513613,-88.97207127939356,121.5444674350247,-122.5715259514232,-90.0,120.4554068688118
/home/najo/NAS/DIP/datasets/Fr5_intertek_dataset/Fr5_intertek_2nd_250526/left/zed_38007749_left_1748248972.838.jpg,38007749,left,1748248972.838,/home/najo/NAS/DIP/datasets/Fr5_intertek_dataset/Fr5_intertek_2nd_250526/joint/joint_38007749_1748248972.838.json,1748248972.838,0.0,30.4386554378094,-88.9155080058787,121.562524172339,-122.649844330136,-90.0,120.442353805693
/home/najo/NAS/DIP/datasets/Fr5_intertek_dataset/Fr5_intertek_2nd_250526/left/zed_38007749_right_1748248972.838.jpg,38007749,right,1748248972.838,/home/najo/NAS/DIP/datasets/Fr5_intertek_dataset/Fr5_intertek_2nd_250526/joint/joint_38007749_1748248972.838.json,1748248972.838,0.0,30.4386554378094,-88.9155080058787,121.562524172339,-122.649844330136,-90.0,120.442353805693
/home/najo/NAS/DIP/datasets/Fr5_intertek_dataset/Fr5_intertek_2nd_250526/right/zed_34850673_right_1748248972.961.jpg,34850673,right,1748248972.961,/home/najo/NAS/DIP/datasets/Fr5_intertek_dataset/Fr5_intertek_2nd_250526/joint/joint_34850673_1748248972.961.json,1748248972.961,0.0,30.17781172648515,-87.7446482441213,121.8984229965965,-124.1518167930074,-89.99956489789604,120.1819451964727
/home/najo/NAS/DIP/datasets/Fr5_intertek_dataset/Fr5_intertek_2nd_250526/right/zed_34850673_left_1748248972.961.jpg,34850673,left,1748248972.961,/home/najo/NAS/DIP/datasets/Fr5_intertek_dataset/Fr5_intertek_2nd_250526/joint/joint_34850673_1748248972.961.json,1748248972.961,0.0,30.17781172648515,-87.7446482441213,121.8984229965965,-124.1518167930074,-89.99956489789604,120.1819451964727
/home/najo/NAS/DIP/datasets/Fr5_intertek_dataset/Fr5_intertek_2nd_250526/top/zed_30779426_left_1748248972.970.jpg,30779426,left,1748248972.97,/home/najo/NAS/DIP/datasets/Fr5_intertek_dataset/Fr5_intertek_2nd_250526/joint/joint_30779426_1748248972.970.json,1748248972.97,0.0,30.15605662128713,-87.64718537283416,121.924529122834,-124.276908647896,-90.00021755105197,120.1599725402227
/home/najo/NAS/DIP/datasets/Fr5_intertek_dataset/Fr5_intertek_2nd_250526/top/zed_30779426_right_1748248972.970.jpg,30779426,right,1748248972.97,/home/najo/NAS/DIP/datasets/Fr5_intertek_dataset/Fr5_intertek_2nd_250526/joint/joint_30779426_1748248972.970.json,1748248972.97,0.0,30.15605662128713,-87.64718537283416,121.924529122834,-124.276908647896,-90.00021755105197,120.1599725402227
/home/najo/NAS/DIP/datasets/Fr5_intertek_dataset/Fr5_intertek_2nd_250526/left/zed_38007749_right_1748248972.976.jpg,38007749,right,1748248972.976,/home/najo/NAS/DIP/datasets/Fr5_intertek_dataset/Fr5_intertek_2nd_250526/joint/joint_38007749_1748248972.976.json,1748248972.976,0.0,30.1443088644802,-87.5982363861386,121.9375821859529,-124.3384755956064,-89.99934734684406,120.1490949876237
/home/najo/NAS/DIP/datasets/Fr5_intertek_dataset/Fr5_intertek_2nd_250526/left/zed_38007749_left_1748248972.976.jpg,38007749,left,1748248972.976,/home/najo/NAS/DIP/datasets/Fr5_intertek_dataset/Fr5_intertek_2nd_250526/joint/joint_38007749_1748248972.976.json,1748248972.976,0.0,30.1443088644802,-87.5982363861386,121.9375821859529,-124.3384755956064,-89.99934734684406,120.1490949876237
/home/najo/NAS/DIP/datasets/Fr5_intertek_dataset/Fr5_intertek_2nd_250526/right/zed_34850673_left_1748248973.099.jpg,34850673,left,1748248973.099,/home/najo/NAS/DIP/datasets/Fr5_intertek_dataset/Fr5_intertek_2nd_250526/joint/joint_34850673_1748248973.099.json,1748248973.099,0.0,29.8904267868193,-86.34818804146039,122.2369324334777,-125.8961411277846,-90.0,119.8784614789604
/home/najo/NAS/DIP/datasets/Fr5_intertek_dataset/Fr5_intertek_2nd_250526/right/zed_34850673_right_1748248973.099.jpg,34850673,right,1748248973.099,/home/najo/NAS/DIP/datasets/Fr5_intertek_dataset/Fr5_intertek_2nd_250526/joint/joint_34850673_1748248973.099.json,1748248973.099,0.0,29.8904267868193,-86.34818804146039,122.2369324334777,-125.8961411277846,-90.0,119.8784614789604
/home/najo/NAS/DIP/datasets/Fr5_intertek_dataset/Fr5_intertek_2nd_250526/top/zed_30779426_left_1748248973.110.jpg,30779426,left,1748248973.11,/home/najo/NAS/DIP/datasets/Fr5_intertek_dataset/Fr5_intertek_2nd_250526/joint/joint_30779426_1748248973.110.json,1748248973.11,0.0,29.8760684173886,-86.27748394956683,122.2519434560643,-125.977940323329,-89.99934734684406,119.8645382116336
/home/najo/NAS/DIP/datasets/Fr5_intertek_dataset/Fr5_intertek_2nd_250526/top/zed_30779426_right_1748248973.110.jpg,30779426,right,1748248973.11,/home/najo/NAS/DIP/datasets/Fr5_intertek_dataset/Fr5_intertek_2nd_250526/joint/joint_30779426_1748248973.110.json,1748248973.11,0.0,29.8760684173886,-86.27748394956683,122.2519434560643,-125.977940323329,-89.99934734684406,119.8645382116336
/home/najo/NAS/DIP/datasets/Fr5_intertek_dataset/Fr5_intertek_2nd_250526/left/zed_38007749_right_1748248973.114.jpg,38007749,right,1748248973.114,/home/najo/NAS/DIP/datasets/Fr5_intertek_dataset/Fr5_intertek_2nd_250526/joint/joint_38007749_1748248973.114.json,1748248973.114,0.0,29.8630153542698,-86.21635210396039,122.265431621287,-126.0506023746906,-90.0,119.8530080058787
/home/najo/NAS/DIP/datasets/Fr5_intertek_dataset/Fr5_intertek_2nd_250526/left/zed_38007749_left_1748248973.114.jpg,38007749,left,1748248973.114,/home/najo/NAS/DIP/datasets/Fr5_intertek_dataset/Fr5_intertek_2nd_250526/joint/joint_38007749_1748248973.114.json,1748248973.114,0.0,29.8630153542698,-86.21635210396039,122.265431621287,-126.0506023746906,-90.0,119.8530080058787
/home/najo/NAS/DIP/datasets/Fr5_intertek_dataset/Fr5_intertek_2nd_250526/right/zed_34850673_left_1748248973.240.jpg,34850673,left,1748248973.24,/home/najo/NAS/DIP/datasets/Fr5_intertek_dataset/Fr5_intertek_2nd_250526/joint/joint_34850673_1748248973.240.json,1748248973.24,0.0,29.63371654548267,-85.1240282719678,122.485593285891,-127.362870320235,-90.0,119.6365447091584
/home/najo/NAS/DIP/datasets/Fr5_intertek_dataset/Fr5_intertek_2nd_250526/right/zed_34850673_right_1748248973.240.jpg,34850673,right,1748248973.24,/home/najo/NAS/DIP/datasets/Fr5_intertek_dataset/Fr5_intertek_2nd_250526/joint/joint_34850673_1748248973.240.json,1748248973.24,0.0,29.63371654548267,-85.1240282719678,122.485593285891,-127.362870320235,-90.0,119.6365447091584
/home/najo/NAS/DIP/datasets/Fr5_intertek_dataset/Fr5_intertek_2nd_250526/top/zed_30779426_right_1748248973.247.jpg,30779426,right,1748248973.247,/home/najo/NAS/DIP/datasets/Fr5_intertek_dataset/Fr5_intertek_2nd_250526/joint/joint_30779426_1748248973.247.json,1748248973.247,0.0,29.62871287128713,-85.09487643100248,122.4914671642945,-127.3981135906559,-89.99978244894803,119.6304532797029
/home/najo/NAS/DIP/datasets/Fr5_intertek_dataset/Fr5_intertek_2nd_250526/top/zed_30779426_left_1748248973.247.jpg,30779426,left,1748248973.247,/home/najo/NAS/DIP/datasets/Fr5_intertek_dataset/Fr5_intertek_2nd_250526/joint/joint_30779426_1748248973.247.json,1748248973.247,0.0,29.62871287128713,-85.09487643100248,122.4914671642945,-127.3981135906559,-89.99978244894803,119.6304532797029
/home/najo/NAS/DIP/datasets/Fr5_intertek_dataset/Fr5_intertek_2nd_250526/left/zed_38007749_left_1748248973.253.jpg,38007749,left,1748248973.253,/home/najo/NAS/DIP/datasets/Fr5_intertek_dataset/Fr5_intertek_2nd_250526/joint/joint_38007749_1748248973.253.json,1748248973.253,0.0,29.6234916460396,-85.06637724319307,122.496688389542,-127.430093595297,-89.99956489789604,119.6247969523515
/home/najo/NAS/DIP/datasets/Fr5_intertek_dataset/Fr5_intertek_2nd_250526/left/zed_38007749_right_1748248973.253.jpg,38007749,right,1748248973.253,/home/najo/NAS/DIP/datasets/Fr5_intertek_dataset/Fr5_intertek_2nd_250526/joint/joint_38007749_1748248973.253.json,1748248973.253,0.0,29.6234916460396,-85.06637724319307,122.496688389542,-127.430093595297,-89.99956489789604,119.6247969523515
/home/najo/NAS/DIP/datasets/Fr5_intertek_dataset/Fr5_intertek_2nd_250526/right/zed_34850673_left_1748248973.380.jpg,34850673,left,1748248973.38,/home/najo/NAS/DIP/datasets/Fr5_intertek_dataset/Fr5_intertek_2nd_250526/joint/joint_34850673_1748248973.380.json,1748248973.38,0.0,29.56323000464109,-84.7626759746287,122.550205948329,-127.8058042620668,-90.00021755105197,119.563447555693
/home/najo/NAS/DIP/datasets/Fr5_intertek_dataset/Fr5_intertek_2nd_250526/right/zed_34850673_right_1748248973.380.jpg,34850673,right,1748248973.38,/home/najo/NAS/DIP/datasets/Fr5_intertek_dataset/Fr5_intertek_2nd_250526/joint/joint_34850673_1748248973.380.json,1748248973.38,0.0,29.56323000464109,-84.7626759746287,122.550205948329,-127.8058042620668,-90.00021755105197,119.563447555693
/home/najo/NAS/DIP/datasets/Fr5_intertek_dataset/Fr5_intertek_2nd_250526/top/zed_30779426_left_1748248973.385.jpg,30779426,left,1748248973.385,/home/najo/NAS/DIP/datasets/Fr5_intertek_dataset/Fr5_intertek_2nd_250526/joint/joint_30779426_1748248973.385.json,1748248973.385,0.0,29.56344755569307,-84.76441638304455,122.5497708462252,-127.802540996287,-90.00021755105197,119.563665106745
/home/najo/NAS/DIP/datasets/Fr5_intertek_dataset/Fr5_intertek_2nd_250526/top/zed_30779426_right_1748248973.385.jpg,30779426,right,1748248973.385,/home/najo/NAS/DIP/datasets/Fr5_intertek_dataset/Fr5_intertek_2nd_250526/joint/joint_30779426_1748248973.385.json,1748248973.385,0.0,29.56344755569307,-84.76441638304455,122.5497708462252,-127.802540996287,-90.00021755105197,119.563665106745
/home/najo/NAS/DIP/datasets/Fr5_intertek_dataset/Fr5_intertek_2nd_250526/left/zed_38007749_left_1748248973.390.jpg,38007749,left,1748248973.39,/home/najo/NAS/DIP/datasets/Fr5_intertek_dataset/Fr5_intertek_2nd_250526/joint/joint_38007749_1748248973.390.json,1748248973.39,0.0,29.56366510674505,-84.76615679146039,122.5493357441213,-127.7979724241955,-90.00021755105197,119.563665106745
/home/najo/NAS/DIP/datasets/Fr5_intertek_dataset/Fr5_intertek_2nd_250526/left/zed_38007749_right_1748248973.390.jpg,38007749,right,1748248973.39,/home/najo/NAS/DIP/datasets/Fr5_intertek_dataset/Fr5_intertek_2nd_250526/joint/joint_38007749_1748248973.390.json,1748248973.39,0.0,29.56366510674505,-84.76615679146039,122.5493357441213,-127.7979724241955,-90.00021755105197,119.563665106745
/home/najo/NAS/DIP/datasets/Fr5_intertek_dataset/Fr5_intertek_2nd_250526/right/zed_34850673_right_1748248973.517.jpg,34850673,right,1748248973.517,/home/najo/NAS/DIP/datasets/Fr5_intertek_dataset/Fr5_intertek_2nd_250526/joint/joint_34850673_1748248973.517.json,1748248973.517,0.0,29.66025777382425,-85.27718421256186,122.462532874381,-127.166856822401,-90.0,119.662433284344
/home/najo/NAS/DIP/datasets/Fr5_intertek_dataset/Fr5_intertek_2nd_250526/right/zed_34850673_left_1748248973.517.jpg,34850673,left,1748248973.517,/home/najo/NAS/DIP/datasets/Fr5_intertek_dataset/Fr5_intertek_2nd_250526/joint/joint_34850673_1748248973.517.json,1748248973.517,0.0,29.66025777382425,-85.27718421256186,122.462532874381,-127.166856822401,-90.0,119.662433284344
/home/najo/NAS/DIP/datasets/Fr5_intertek_dataset/Fr5_intertek_2nd_250526/top/zed_30779426_right_1748248973.523.jpg,30779426,right,1748248973.523,/home/najo/NAS/DIP/datasets/Fr5_intertek_dataset/Fr5_intertek_2nd_250526/joint/joint_30779426_1748248973.523.json,1748248973.523,0.0,29.6707002243193,-85.33135442450495,122.45252552599,-127.1085531404703,-90.0,119.672440632735
/home/najo/NAS/DIP/datasets/Fr5_intertek_dataset/Fr5_intertek_2nd_250526/top/zed_30779426_left_1748248973.523.jpg,30779426,left,1748248973.523,/home/najo/NAS/DIP/datasets/Fr5_intertek_dataset/Fr5_intertek_2nd_250526/joint/joint_30779426_1748248973.523.json,1748248973.523,0.0,29.6707002243193,-85.33135442450495,122.45252552599,-127.1085531404703,-90.0,119.672440632735
/home/najo/NAS/DIP/datasets/Fr5_intertek_dataset/Fr5_intertek_2nd_250526/left/zed_38007749_right_1748248973.527.jpg,38007749,right,1748248973.527,/home/najo/NAS/DIP/datasets/Fr5_intertek_dataset/Fr5_intertek_2nd_250526/joint/joint_38007749_1748248973.527.json,1748248973.527,0.0,29.68027247060643,-85.37965075804455,122.4436059328589,-127.055688234839,-90.00021755105197,119.6817953279703
/home/najo/NAS/DIP/datasets/Fr5_intertek_dataset/Fr5_intertek_2nd_250526/left/zed_38007749_left_1748248973.527.jpg,38007749,left,1748248973.527,/home/najo/NAS/DIP/datasets/Fr5_intertek_dataset/Fr5_intertek_2nd_250526/joint/joint_38007749_1748248973.527.json,1748248973.527,0.0,29.68027247060643,-85.37965075804455,122.4436059328589,-127.055688234839,-90.00021755105197,119.6817953279703
/home/najo/NAS/DIP/datasets/Fr5_intertek_dataset/Fr5_intertek_2nd_250526/right/zed_34850673_left_1748248973.654.jpg,34850673,left,1748248973.654,/home/najo/NAS/DIP/datasets/Fr5_intertek_dataset/Fr5_intertek_2nd_250526/joint/joint_34850673_1748248973.654.json,1748248973.654,0.0,29.96896271658416,-86.71867748298267,122.1520875232054,-125.429929223391,-89.99978244894803,119.9563447555693
/home/najo/NAS/DIP/datasets/Fr5_intertek_dataset/Fr5_intertek_2nd_250526/right/zed_34850673_right_1748248973.654.jpg,34850673,right,1748248973.654,/home/najo/NAS/DIP/datasets/Fr5_intertek_dataset/Fr5_intertek_2nd_250526/joint/joint_34850673_1748248973.654.json,1748248973.654,0.0,29.96896271658416,-86.71867748298267,122.1520875232054,-125.429929223391,-89.99978244894803,119.9563447555693
/home/najo/NAS/DIP/datasets/Fr5_intertek_dataset/Fr5_intertek_2nd_250526/top/zed_30779426_left_1748248973.660.jpg,30779426,left,1748248973.66,/home/najo/NAS/DIP/datasets/Fr5_intertek_dataset/Fr5_intertek_2nd_250526/joint/joint_30779426_1748248973.660.json,1748248973.66,0.0,29.98680190284653,-86.80221708694307,122.1320728264232,-125.3235467589727,-89.99956489789604,119.9746190439356
/home/najo/NAS/DIP/datasets/Fr5_intertek_dataset/Fr5_intertek_2nd_250526/top/zed_30779426_right_1748248973.660.jpg,30779426,right,1748248973.66,/home/najo/NAS/DIP/datasets/Fr5_intertek_dataset/Fr5_intertek_2nd_250526/joint/joint_30779426_1748248973.660.json,1748248973.66,0.0,29.98680190284653,-86.80221708694307,122.1320728264232,-125.3235467589727,-89.99956489789604,119.9746190439356
/home/najo/NAS/DIP/datasets/Fr5_intertek_dataset/Fr5_intertek_2nd_250526/left/zed_38007749_right_1748248973.665.jpg,38007749,right,1748248973.665,/home/najo/NAS/DIP/datasets/Fr5_intertek_dataset/Fr5_intertek_2nd_250526/joint/joint_38007749_1748248973.665.json,1748248973.665,0.0,30.00094272122524,-86.8733562809406,122.1151038443688,-125.2360912360767,-90.0,119.990282719678
/home/najo/NAS/DIP/datasets/Fr5_intertek_dataset/Fr5_intertek_2nd_250526/left/zed_38007749_left_1748248973.665.jpg,38007749,left,1748248973.665,/home/najo/NAS/DIP/datasets/Fr5_intertek_dataset/Fr5_intertek_2nd_250526/joint/joint_38007749_1748248973.665.json,1748248973.665,0.0,30.00094272122524,-86.8733562809406,122.1151038443688,-125.2360912360767,-90.0,119.990282719678
/home/najo/NAS/DIP/datasets/Fr5_intertek_dataset/Fr5_intertek_2nd_250526/right/zed_34850673_left_1748248973.789.jpg,34850673,left,1748248973.789,/home/najo/NAS/DIP/datasets/Fr5_intertek_dataset/Fr5_intertek_2nd_250526/joint/joint_34850673_1748248973.789.json,1748248973.789,0.0,30.32074276763613,-88.41383528001238,121.704149907178,-123.298581567141,-90.00021755105197,120.3335782797029
/home/najo/NAS/DIP/datasets/Fr5_intertek_dataset/Fr5_intertek_2nd_250526/right/zed_34850673_right_1748248973.789.jpg,34850673,right,1748248973.789,/home/najo/NAS/DIP/datasets/Fr5_intertek_dataset/Fr5_intertek_2nd_250526/joint/joint_34850673_1748248973.789.json,1748248973.789,0.0,30.32074276763613,-88.41383528001238,121.704149907178,-123.298581567141,-90.00021755105197,120.3335782797029
/home/najo/NAS/DIP/datasets/Fr5_intertek_dataset/Fr5_intertek_2nd_250526/top/zed_30779426_left_1748248973.798.jpg,30779426,left,1748248973.798,/home/najo/NAS/DIP/datasets/Fr5_intertek_dataset/Fr5_intertek_2nd_250526/joint/joint_30779426_1748248973.798.json,1748248973.798,0.0,30.33379583075495,-88.47366181930693,121.6863107209158,-123.2174350247524,-90.00021755105197,120.3470664449257
/home/najo/NAS/DIP/datasets/Fr5_intertek_dataset/Fr5_intertek_2nd_250526/top/zed_30779426_right_1748248973.798.jpg,30779426,right,1748248973.798,/home/najo/NAS/DIP/datasets/Fr5_intertek_dataset/Fr5_intertek_2nd_250526/joint/joint_30779426_1748248973.798.json,1748248973.798,0.0,30.33379583075495,-88.47366181930693,121.6863107209158,-123.2174350247524,-90.00021755105197,120.3470664449257
/home/najo/NAS/DIP/datasets/Fr5_intertek_dataset/Fr5_intertek_2nd_250526/left/zed_38007749_right_1748248973.804.jpg,38007749,right,1748248973.804,/home/najo/NAS/DIP/datasets/Fr5_intertek_dataset/Fr5_intertek_2nd_250526/joint/joint_38007749_1748248973.804.json,1748248973.804,0.0,30.35359297648515,-88.55785407642327,121.6632503094059,-123.1056137840346,-90.00043510210396,120.365775835396
/home/najo/NAS/DIP/datasets/Fr5_intertek_dataset/Fr5_intertek_2nd_250526/left/zed_38007749_left_1748248973.804.jpg,38007749,left,1748248973.804,/home/najo/NAS/DIP/datasets/Fr5_intertek_dataset/Fr5_intertek_2nd_250526/joint/joint_38007749_1748248973.804.json,1748248973.804,0.0,30.35359297648515,-88.55785407642327,121.6632503094059,-123.1056137840346,-90.00043510210396,120.365775835396
/home/najo/NAS/DIP/datasets/Fr5_intertek_dataset/Fr5_intertek_2nd_250526/right/zed_34850673_right_1748248973.930.jpg,34850673,right,1748248973.93,/home/najo/NAS/DIP/datasets/Fr5_intertek_dataset/Fr5_intertek_2nd_250526/joint/joint_34850673_1748248973.930.json,1748248973.93,0.0,30.70537302753713,-90.04742612933168,121.2035649365718,-121.1480894183168,-90.0,120.6994991491336
/home/najo/NAS/DIP/datasets/Fr5_intertek_dataset/Fr5_intertek_2nd_250526/right/zed_34850673_left_1748248973.930.jpg,34850673,left,1748248973.93,/home/najo/NAS/DIP/datasets/Fr5_intertek_dataset/Fr5_intertek_2nd_250526/joint/joint_34850673_1748248973.930.json,1748248973.93,0.0,30.70537302753713,-90.04742612933168,121.2035649365718,-121.1480894183168,-90.0,120.6994991491336
/home/najo/NAS/DIP/datasets/Fr5_intertek_dataset/Fr5_intertek_2nd_250526/top/zed_30779426_right_1748248973.936.jpg,30779426,right,1748248973.936,/home/najo/NAS/DIP/datasets/Fr5_intertek_dataset/Fr5_intertek_2nd_250526/joint/joint_30779426_1748248973.936.json,1748248973.936,0.0,30.7188611927599,-90.10377185179455,121.1837677908416,-121.068900835396,-89.99978244894803,120.7129873143564
/home/najo/NAS/DIP/datasets/Fr5_intertek_dataset/Fr5_intertek_2nd_250526/top/zed_30779426_left_1748248973.936.jpg,30779426,left,1748248973.936,/home/najo/NAS/DIP/datasets/Fr5_intertek_dataset/Fr5_intertek_2nd_250526/joint/joint_30779426_1748248973.936.json,1748248973.936,0.0,30.7188611927599,-90.10377185179455,121.1837677908416,-121.068900835396,-89.99978244894803,120.7129873143564
/home/najo/NAS/DIP/datasets/Fr5_intertek_dataset/Fr5_intertek_2nd_250526/left/zed_38007749_left_1748248973.941.jpg,38007749,left,1748248973.941,/home/najo/NAS/DIP/datasets/Fr5_intertek_dataset/Fr5_intertek_2nd_250526/joint/joint_38007749_1748248973.941.json,1748248973.941,0.0,30.73169670482673,-90.1616404316213,121.1639706451114,-120.9931930693069,-90.0,120.726475479579
/home/najo/NAS/DIP/datasets/Fr5_intertek_dataset/Fr5_intertek_2nd_250526/left/zed_38007749_right_1748248973.941.jpg,38007749,right,1748248973.941,/home/najo/NAS/DIP/datasets/Fr5_intertek_dataset/Fr5_intertek_2nd_250526/joint/joint_38007749_1748248973.941.json,1748248973.941,0.0,30.73169670482673,-90.1616404316213,121.1639706451114,-120.9931930693069,-90.0,120.726475479579
/home/najo/NAS/DIP/datasets/Fr5_intertek_dataset/Fr5_intertek_2nd_250526/right/zed_34850673_left_1748248974.067.jpg,34850673,left,1748248974.067,/home/najo/NAS/DIP/datasets/Fr5_intertek_dataset/Fr5_intertek_2nd_250526/joint/joint_34850673_1748248974.067.json,1748248974.067,0.0,31.07194655012376,-91.57724512685644,120.6342338335396,-119.0552482982673,-89.99978244894803,121.0749922648515
/home/najo/NAS/DIP/datasets/Fr5_intertek_dataset/Fr5_intertek_2nd_250526/right/zed_34850673_right_1748248974.067.jpg,34850673,right,1748248974.067,/home/najo/NAS/DIP/datasets/Fr5_intertek_dataset/Fr5_intertek_2nd_250526/joint/joint_34850673_1748248974.067.json,1748248974.067,0.0,31.07194655012376,-91.57724512685644,120.6342338335396,-119.0552482982673,-89.99978244894803,121.0749922648515
/home/najo/NAS/DIP/datasets/Fr5_intertek_dataset/Fr5_intertek_2nd_250526/top/zed_30779426_left_1748248974.074.jpg,30779426,left,1748248974.074,/home/najo/NAS/DIP/datasets/Fr5_intertek_dataset/Fr5_intertek_2nd_250526/joint/joint_30779426_1748248974.074.json,1748248974.074,0.0,31.080213490099,-91.6105304378094,120.6213983214727,-119.0097801284034,-90.0,121.0834767558787
/home/najo/NAS/DIP/datasets/Fr5_intertek_dataset/Fr5_intertek_2nd_250526/top/zed_30779426_right_1748248974.074.jpg,30779426,right,1748248974.074,/home/najo/NAS/DIP/datasets/Fr5_intertek_dataset/Fr5_intertek_2nd_250526/joint/joint_30779426_1748248974.074.json,1748248974.074,0.0,31.080213490099,-91.6105304378094,120.6213983214727,-119.0097801284034,-90.0,121.0834767558787
/home/najo/NAS/DIP/datasets/Fr5_intertek_dataset/Fr5_intertek_2nd_250526/left/zed_38007749_right_1748248974.079.jpg,38007749,right,1748248974.079,/home/najo/NAS/DIP/datasets/Fr5_intertek_dataset/Fr5_intertek_2nd_250526/joint/joint_38007749_1748248974.079.json,1748248974.079,0.0,31.10740737159653,-91.7225692295792,120.5759301516089,-118.8472694925742,-90.00021755105197,121.1102355352723
/home/najo/NAS/DIP/datasets/Fr5_intertek_dataset/Fr5_intertek_2nd_250526/left/zed_38007749_left_1748248974.079.jpg,38007749,left,1748248974.079,/home/najo/NAS/DIP/datasets/Fr5_intertek_dataset/Fr5_intertek_2nd_250526/joint/joint_38007749_1748248974.079.json,1748248974.079,0.0,31.10740737159653,-91.7225692295792,120.5759301516089,-118.8472694925742,-90.00021755105197,121.1102355352723
/home/najo/NAS/DIP/datasets/Fr5_intertek_dataset/Fr5_intertek_2nd_250526/right/zed_34850673_right_1748248974.203.jpg,34850673,right,1748248974.203,/home/najo/NAS/DIP/datasets/Fr5_intertek_dataset/Fr5_intertek_2nd_250526/joint/joint_30779426_1748248974.208.json,1748248974.208,0.004999876022338867,31.46484375,-93.07334371132426,119.9780998607673,-116.9132406404703,-90.0,121.4574470142326
/home/najo/NAS/DIP/datasets/Fr5_intertek_dataset/Fr5_intertek_2nd_250526/right/zed_34850673_left_1748248974.203.jpg,34850673,left,1748248974.203,/home/najo/NAS/DIP/datasets/Fr5_intertek_dataset/Fr5_intertek_2nd_250526/joint/joint_30779426_1748248974.208.json,1748248974.208,0.004999876022338867,31.46484375,-93.07334371132426,119.9780998607673,-116.9132406404703,-90.0,121.4574470142326
/home/najo/NAS/DIP/datasets/Fr5_intertek_dataset/Fr5_intertek_2nd_250526/top/zed_30779426_right_1748248974.208.jpg,30779426,right,1748248974.208,/home/najo/NAS/DIP/datasets/Fr5_intertek_dataset/Fr5_intertek_2nd_250526/joint/joint_30779426_1748248974.208.json,1748248974.208,0.0,31.46484375,-93.07334371132426,119.9780998607673,-116.9132406404703,-90.0,121.4574470142326
/home/najo/NAS/DIP/datasets/Fr5_intertek_dataset/Fr5_intertek_2nd_250526/top/zed_30779426_left_1748248974.208.jpg,30779426,left,1748248974.208,/home/najo/NAS/DIP/datasets/Fr5_intertek_dataset/Fr5_intertek_2nd_250526/joint/joint_30779426_1748248974.208.json,1748248974.208,0.0,31.46484375,-93.07334371132426,119.9780998607673,-116.9132406404703,-90.0,121.4574470142326
/home/najo/NAS/DIP/datasets/Fr5_intertek_dataset/Fr5_intertek_2nd_250526/left/zed_38007749_left_1748248974.217.jpg,38007749,left,1748248974.217,/home/najo/NAS/DIP/datasets/Fr5_intertek_dataset/Fr5_intertek_2nd_250526/joint/joint_38007749_1748248974.217.json,1748248974.217,0.0,31.49834661200495,-93.2101833230198,119.9130520962252,-116.706567141089,-89.99978244894803,121.4939955909653
/home/najo/NAS/DIP/datasets/Fr5_intertek_dataset/Fr5_intertek_2nd_250526/left/zed_38007749_right_1748248974.217.jpg,38007749,right,1748248974.217,/home/najo/NAS/DIP/datasets/Fr5_intertek_dataset/Fr5_intertek_2nd_250526/joint/joint_38007749_1748248974.217.json,1748248974.217,0.0,31.49834661200495,-93.2101833230198,119.9130520962252,-116.706567141089,-89.99978244894803,121.4939955909653
/home/najo/NAS/DIP/datasets/Fr5_intertek_dataset/Fr5_intertek_2nd_250526/right/zed_34850673_right_1748248974.341.jpg,34850673,right,1748248974.341,/home/najo/NAS/DIP/datasets/Fr5_intertek_dataset/Fr5_intertek_2nd_250526/joint/joint_34850673_1748248974.341.json,1748248974.341,0.0,31.84729849938119,-94.47371983292079,119.277367922339,-114.7969040068069,-90.00021755105197,121.8540425819925
/home/najo/NAS/DIP/datasets/Fr5_intertek_dataset/Fr5_intertek_2nd_250526/right/zed_34850673_left_1748248974.341.jpg,34850673,left,1748248974.341,/home/najo/NAS/DIP/datasets/Fr5_intertek_dataset/Fr5_intertek_2nd_250526/joint/joint_34850673_1748248974.341.json,1748248974.341,0.0,31.84729849938119,-94.47371983292079,119.277367922339,-114.7969040068069,-90.00021755105197,121.8540425819925
/home/najo/NAS/DIP/datasets/Fr5_intertek_dataset/Fr5_intertek_2nd_250526/top/zed_30779426_right_1748248974.346.jpg,30779426,right,1748248974.346,/home/najo/NAS/DIP/datasets/Fr5_intertek_dataset/Fr5_intertek_2nd_250526/joint/joint_30779426_1748248974.346.json,1748248974.346,0.0,31.86339727722772,-94.52462677908416,119.2503915918935,-114.7205435875618,-89.99978244894803,121.8688360535272
/home/najo/NAS/DIP/datasets/Fr5_intertek_dataset/Fr5_intertek_2nd_250526/top/zed_30779426_left_1748248974.346.jpg,30779426,left,1748248974.346,/home/najo/NAS/DIP/datasets/Fr5_intertek_dataset/Fr5_intertek_2nd_250526/joint/joint_30779426_1748248974.346.json,1748248974.346,0.0,31.86339727722772,-94.52462677908416,119.2503915918935,-114.7205435875618,-89.99978244894803,121.8688360535272
/home/najo/NAS/DIP/datasets/Fr5_intertek_dataset/Fr5_intertek_2nd_250526/left/zed_38007749_left_1748248974.353.jpg,38007749,left,1748248974.353,/home/najo/NAS/DIP/datasets/Fr5_intertek_dataset/Fr5_intertek_2nd_250526/joint/joint_38007749_1748248974.353.json,1748248974.353,0.0,31.8921140160891,-94.6164333230198,119.2018777073019,-114.5832688737624,-89.99956489789604,121.8953772818688
/home/najo/NAS/DIP/datasets/Fr5_intertek_dataset/Fr5_intertek_2nd_250526/left/zed_38007749_right_1748248974.353.jpg,38007749,right,1748248974.353,/home/najo/NAS/DIP/datasets/Fr5_intertek_dataset/Fr5_intertek_2nd_250526/joint/joint_38007749_1748248974.353.json,1748248974.353,0.0,31.8921140160891,-94.6164333230198,119.2018777073019,-114.5832688737624,-89.99956489789604,121.8953772818688
/home/najo/NAS/DIP/datasets/Fr5_intertek_dataset/Fr5_intertek_2nd_250526/right/zed_34850673_left_1748248974.478.jpg,34850673,left,1748248974.478,/home/najo/NAS/DIP/datasets/Fr5_intertek_dataset/Fr5_intertek_2nd_250526/joint/joint_34850673_1748248974.478.json,1748248974.478,0.0,32.2591226407797,-95.8534286045792,118.4715588258044,-112.619000425433,-90.0,122.2630385597153
/home/najo/NAS/DIP/datasets/Fr5_intertek_dataset/Fr5_intertek_2nd_250526/right/zed_34850673_right_1748248974.478.jpg,34850673,right,1748248974.478,/home/najo/NAS/DIP/datasets/Fr5_intertek_dataset/Fr5_intertek_2nd_250526/joint/joint_34850673_1748248974.478.json,1748248974.478,0.0,32.2591226407797,-95.8534286045792,118.4715588258044,-112.619000425433,-90.0,122.2630385597153
/home/najo/NAS/DIP/datasets/Fr5_intertek_dataset/Fr5_intertek_2nd_250526/top/zed_30779426_left_1748248974.482.jpg,30779426,left,1748248974.482,/home/najo/NAS/DIP/datasets/Fr5_intertek_dataset/Fr5_intertek_2nd_250526/joint/joint_30779426_1748248974.482.json,1748248974.482,0.0,32.25216100711633,-95.82514696782178,118.4889629099628,-112.663598391089,-89.99956489789604,122.253466313428
/home/najo/NAS/DIP/datasets/Fr5_intertek_dataset/Fr5_intertek_2nd_250526/top/zed_30779426_right_1748248974.482.jpg,30779426,right,1748248974.482,/home/najo/NAS/DIP/datasets/Fr5_intertek_dataset/Fr5_intertek_2nd_250526/joint/joint_30779426_1748248974.482.json,1748248974.482,0.0,32.25216100711633,-95.82514696782178,118.4889629099628,-112.663598391089,-89.99956489789604,122.253466313428
/home/najo/NAS/DIP/datasets/Fr5_intertek_dataset/Fr5_intertek_2nd_250526/left/zed_38007749_right_1748248974.492.jpg,38007749,right,1748248974.492,/home/najo/NAS/DIP/datasets/Fr5_intertek_dataset/Fr5_intertek_2nd_250526/joint/joint_38007749_1748248974.492.json,1748248974.492,0.0,32.2821830522896,-95.93957882116337,118.4173886138614,-112.4788975479579,-90.00043510210396,122.2906675433168
/home/najo/NAS/DIP/datasets/Fr5_intertek_dataset/Fr5_intertek_2nd_250526/left/zed_38007749_left_1748248974.492.jpg,38007749,left,1748248974.492,/home/najo/NAS/DIP/datasets/Fr5_intertek_dataset/Fr5_intertek_2nd_250526/joint/joint_38007749_1748248974.492.json,1748248974.492,0.0,32.2821830522896,-95.93957882116337,118.4173886138614,-112.4788975479579,-90.00043510210396,122.2906675433168
/home/najo/NAS/DIP/datasets/Fr5_intertek_dataset/Fr5_intertek_2nd_250526/top/zed_30779426_right_1748248974.617.jpg,30779426,right,1748248974.617,/home/najo/NAS/DIP/datasets/Fr5_intertek_dataset/Fr5_intertek_2nd_250526/joint/joint_30779426_1748248974.617.json,1748248974.617,0.0,32.65832882116336,-97.07236714882426,117.6674901376856,-110.6005617651609,-89.99956489789604,122.6563708616955
/home/najo/NAS/DIP/datasets/Fr5_intertek_dataset/Fr5_intertek_2nd_250526/top/zed_30779426_left_1748248974.617.jpg,30779426,left,1748248974.617,/home/najo/NAS/DIP/datasets/Fr5_intertek_dataset/Fr5_intertek_2nd_250526/joint/joint_30779426_1748248974.617.json,1748248974.617,0.0,32.65832882116336,-97.07236714882426,117.6674901376856,-110.6005617651609,-89.99956489789604,122.6563708616955
/home/najo/NAS/DIP/datasets/Fr5_intertek_dataset/Fr5_intertek_2nd_250526/right/zed_34850673_right_1748248974.622.jpg,34850673,right,1748248974.622,/home/najo/NAS/DIP/datasets/Fr5_intertek_dataset/Fr5_intertek_2nd_250526/joint/joint_34850673_1748248974.622.json,1748248974.622,0.0,32.69596515315594,-97.1796198174505,117.5893893100247,-110.4056360225866,-90.0,122.6907439279084
/home/najo/NAS/DIP/datasets/Fr5_intertek_dataset/Fr5_intertek_2nd_250526/right/zed_34850673_left_1748248974.622.jpg,34850673,left,1748248974.622,/home/najo/NAS/DIP/datasets/Fr5_intertek_dataset/Fr5_intertek_2nd_250526/joint/joint_34850673_1748248974.622.json,1748248974.622,0.0,32.69596515315594,-97.1796198174505,117.5893893100247,-110.4056360225866,-90.0,122.6907439279084
/home/najo/NAS/DIP/datasets/Fr5_intertek_dataset/Fr5_intertek_2nd_250526/left/zed_38007749_right_1748248974.627.jpg,38007749,right,1748248974.627,/home/najo/NAS/DIP/datasets/Fr5_intertek_dataset/Fr5_intertek_2nd_250526/joint/joint_38007749_1748248974.627.json,1748248974.627,0.0,32.69922841893564,-97.18875696163364,117.5830803295173,-110.389102142636,-90.0,122.693572091584
/home/najo/NAS/DIP/datasets/Fr5_intertek_dataset/Fr5_intertek_2nd_250526/left/zed_38007749_left_1748248974.627.jpg,38007749,left,1748248974.627,/home/najo/NAS/DIP/datasets/Fr5_intertek_dataset/Fr5_intertek_2nd_250526/joint/joint_38007749_1748248974.627.json,1748248974.627,0.0,32.69922841893564,-97.18875696163364,117.5830803295173,-110.389102142636,-90.0,122.693572091584
/home/najo/NAS/DIP/datasets/Fr5_intertek_dataset/Fr5_intertek_2nd_250526/top/zed_30779426_right_1748248974.751.jpg,30779426,right,1748248974.751,/home/najo/NAS/DIP/datasets/Fr5_intertek_dataset/Fr5_intertek_2nd_250526/joint/joint_30779426_1748248974.751.json,1748248974.751,0.0,33.07124071782178,-98.28282120204207,116.7479018409653,-108.467038598391,-90.0,123.0710231667698
/home/najo/NAS/DIP/datasets/Fr5_intertek_dataset/Fr5_intertek_2nd_250526/top/zed_30779426_left_1748248974.751.jpg,30779426,left,1748248974.751,/home/najo/NAS/DIP/datasets/Fr5_intertek_dataset/Fr5_intertek_2nd_250526/joint/joint_30779426_1748248974.751.json,1748248974.751,0.0,33.07124071782178,-98.28282120204207,116.7479018409653,-108.467038598391,-90.0,123.0710231667698
/home/najo/NAS/DIP/datasets/Fr5_intertek_dataset/Fr5_intertek_2nd_250526/right/zed_34850673_right_1748248974.761.jpg,34850673,right,1748248974.761,/home/najo/NAS/DIP/datasets/Fr5_intertek_dataset/Fr5_intertek_2nd_250526/joint/joint_34850673_1748248974.761.json,1748248974.761,0.0,33.1114876624381,-98.38332978805693,116.663274481745,-108.2853834699876,-89.99978244894803,123.1082243966584
/home/najo/NAS/DIP/datasets/Fr5_intertek_dataset/Fr5_intertek_2nd_250526/right/zed_34850673_left_1748248974.761.jpg,34850673,left,1748248974.761,/home/najo/NAS/DIP/datasets/Fr5_intertek_dataset/Fr5_intertek_2nd_250526/joint/joint_34850673_1748248974.761.json,1748248974.761,0.0,33.1114876624381,-98.38332978805693,116.663274481745,-108.2853834699876,-89.99978244894803,123.1082243966584
/home/najo/NAS/DIP/datasets/Fr5_intertek_dataset/Fr5_intertek_2nd_250526/left/zed_38007749_left_1748248974.765.jpg,38007749,left,1748248974.765,/home/najo/NAS/DIP/datasets/Fr5_intertek_dataset/Fr5_intertek_2nd_250526/joint/joint_34850673_1748248974.761.json,1748248974.761,0.004000186920166016,33.1114876624381,-98.38332978805693,116.663274481745,-108.2853834699876,-89.99978244894803,123.1082243966584
/home/najo/NAS/DIP/datasets/Fr5_intertek_dataset/Fr5_intertek_2nd_250526/left/zed_38007749_right_1748248974.765.jpg,38007749,right,1748248974.765,/home/najo/NAS/DIP/datasets/Fr5_intertek_dataset/Fr5_intertek_2nd_250526/joint/joint_34850673_1748248974.761.json,1748248974.761,0.004000186920166016,33.1114876624381,-98.38332978805693,116.663274481745,-108.2853834699876,-89.99978244894803,123.1082243966584
/home/najo/NAS/DIP/datasets/Fr5_intertek_dataset/Fr5_intertek_2nd_250526/top/zed_30779426_right_1748248974.889.jpg,30779426,right,1748248974.889,/home/najo/NAS/DIP/datasets/Fr5_intertek_dataset/Fr5_intertek_2nd_250526/joint/joint_30779426_1748248974.889.json,1748248974.889,0.0,33.50721302599009,-99.41822014232673,115.7684870049505,-106.345915841584,-90.0,123.506777923886
/home/najo/NAS/DIP/datasets/Fr5_intertek_dataset/Fr5_intertek_2nd_250526/top/zed_30779426_left_1748248974.889.jpg,30779426,left,1748248974.889,/home/najo/NAS/DIP/datasets/Fr5_intertek_dataset/Fr5_intertek_2nd_250526/joint/joint_30779426_1748248974.889.json,1748248974.889,0.0,33.50721302599009,-99.41822014232673,115.7684870049505,-106.345915841584,-90.0,123.506777923886
/home/najo/NAS/DIP/datasets/Fr5_intertek_dataset/Fr5_intertek_2nd_250526/left/zed_38007749_left_1748248974.899.jpg,38007749,left,1748248974.899,/home/najo/NAS/DIP/datasets/Fr5_intertek_dataset/Fr5_intertek_2nd_250526/joint/joint_38007749_1748248974.899.json,1748248974.899,0.0,33.53201384591584,-99.4900119894802,115.7030041383044,-106.2075533725247,-90.00043510210396,123.5346244585396
/home/najo/NAS/DIP/datasets/Fr5_intertek_dataset/Fr5_intertek_2nd_250526/left/zed_38007749_right_1748248974.899.jpg,38007749,right,1748248974.899,/home/najo/NAS/DIP/datasets/Fr5_intertek_dataset/Fr5_intertek_2nd_250526/joint/joint_38007749_1748248974.899.json,1748248974.899,0.0,33.53201384591584,-99.4900119894802,115.7030041383044,-106.2075533725247,-90.00043510210396,123.5346244585396
/home/najo/NAS/DIP/datasets/Fr5_intertek_dataset/Fr5_intertek_2nd_250526/right/zed_34850673_left_1748248974.904.jpg,34850673,left,1748248974.904,/home/najo/NAS/DIP/datasets/Fr5_intertek_dataset/Fr5_intertek_2nd_250526/joint/joint_34850673_1748248974.904.json,1748248974.904,0.0,33.54680731745049,-99.53025893409654,115.6662380105198,-106.1298876469678,-90.00043510210396,123.550940787438
/home/najo/NAS/DIP/datasets/Fr5_intertek_dataset/Fr5_intertek_2nd_250526/right/zed_34850673_right_1748248974.904.jpg,34850673,right,1748248974.904,/home/najo/NAS/DIP/datasets/Fr5_intertek_dataset/Fr5_intertek_2nd_250526/joint/joint_34850673_1748248974.904.json,1748248974.904,0.0,33.54680731745049,-99.53025893409654,115.6662380105198,-106.1298876469678,-90.00043510210396,123.550940787438
/home/najo/NAS/DIP/datasets/Fr5_intertek_dataset/Fr5_intertek_2nd_250526/top/zed_30779426_right_1748248975.028.jpg,30779426,right,1748248975.028,/home/najo/NAS/DIP/datasets/Fr5_intertek_dataset/Fr5_intertek_2nd_250526/joint/joint_30779426_1748248975.028.json,1748248975.028,0.0,33.93535349628713,-100.4659460086633,114.740558284344,-104.2730894183168,-90.00065265315594,123.9427502320544
/home/najo/NAS/DIP/datasets/Fr5_intertek_dataset/Fr5_intertek_2nd_250526/top/zed_30779426_left_1748248975.028.jpg,30779426,left,1748248975.028,/home/najo/NAS/DIP/datasets/Fr5_intertek_dataset/Fr5_intertek_2nd_250526/joint/joint_30779426_1748248975.028.json,1748248975.028,0.0,33.93535349628713,-100.4659460086633,114.740558284344,-104.2730894183168,-90.00065265315594,123.9427502320544
/home/najo/NAS/DIP/datasets/Fr5_intertek_dataset/Fr5_intertek_2nd_250526/left/zed_38007749_left_1748248975.036.jpg,38007749,left,1748248975.036,/home/najo/NAS/DIP/datasets/Fr5_intertek_dataset/Fr5_intertek_2nd_250526/joint/joint_38007749_1748248975.036.json,1748248975.036,0.0,33.96755105198019,-100.5396958152846,114.6604994972153,-104.1212387840346,-90.00021755105197,123.9738600324876
/home/najo/NAS/DIP/datasets/Fr5_intertek_dataset/Fr5_intertek_2nd_250526/left/zed_38007749_right_1748248975.036.jpg,38007749,right,1748248975.036,/home/najo/NAS/DIP/datasets/Fr5_intertek_dataset/Fr5_intertek_2nd_250526/joint/joint_38007749_1748248975.036.json,1748248975.036,0.0,33.96755105198019,-100.5396958152846,114.6604994972153,-104.1212387840346,-90.00021755105197,123.9738600324876
/home/najo/NAS/DIP/datasets/Fr5_intertek_dataset/Fr5_intertek_2nd_250526/right/zed_34850673_right_1748248975.041.jpg,34850673,right,1748248975.041,/home/najo/NAS/DIP/datasets/Fr5_intertek_dataset/Fr5_intertek_2nd_250526/joint/joint_34850673_1748248975.041.json,1748248975.041,0.0,33.97712329826733,-100.5616684715346,114.6365688814975,-104.0759881652227,-90.00043510210396,123.9832147277227
/home/najo/NAS/DIP/datasets/Fr5_intertek_dataset/Fr5_intertek_2nd_250526/right/zed_34850673_left_1748248975.041.jpg,34850673,left,1748248975.041,/home/najo/NAS/DIP/datasets/Fr5_intertek_dataset/Fr5_intertek_2nd_250526/joint/joint_34850673_1748248975.041.json,1748248975.041,0.0,33.97712329826733,-100.5616684715346,114.6365688814975,-104.0759881652227,-90.00043510210396,123.9832147277227
/home/najo/NAS/DIP/datasets/Fr5_intertek_dataset/Fr5_intertek_2nd_250526/top/zed_30779426_left_1748248975.165.jpg,30779426,left,1748248975.165,/home/najo/NAS/DIP/datasets/Fr5_intertek_dataset/Fr5_intertek_2nd_250526/joint/joint_30779426_1748248975.165.json,1748248975.165,0.0,34.38242090810643,-101.4442730894183,113.641055267636,-102.1882976871906,-90.0,124.3817682549505
/home/najo/NAS/DIP/datasets/Fr5_intertek_dataset/Fr5_intertek_2nd_250526/top/zed_30779426_right_1748248975.165.jpg,30779426,right,1748248975.165,/home/najo/NAS/DIP/datasets/Fr5_intertek_dataset/Fr5_intertek_2nd_250526/joint/joint_30779426_1748248975.165.json,1748248975.165,0.0,34.38242090810643,-101.4442730894183,113.641055267636,-102.1882976871906,-90.0,124.3817682549505
/home/najo/NAS/DIP/datasets/Fr5_intertek_dataset/Fr5_intertek_2nd_250526/left/zed_38007749_left_1748248975.174.jpg,38007749,left,1748248975.174,/home/najo/NAS/DIP/datasets/Fr5_intertek_dataset/Fr5_intertek_2nd_250526/joint/joint_38007749_1748248975.174.json,1748248975.174,0.0,34.42027479115098,-101.5275951423267,113.542069538985,-102.01686745823,-90.0,124.4211449953589
/home/najo/NAS/DIP/datasets/Fr5_intertek_dataset/Fr5_intertek_2nd_250526/left/zed_38007749_right_1748248975.174.jpg,38007749,right,1748248975.174,/home/najo/NAS/DIP/datasets/Fr5_intertek_dataset/Fr5_intertek_2nd_250526/joint/joint_38007749_1748248975.174.json,1748248975.174,0.0,34.42027479115098,-101.5275951423267,113.542069538985,-102.01686745823,-90.0,124.4211449953589
/home/najo/NAS/DIP/datasets/Fr5_intertek_dataset/Fr5_intertek_2nd_250526/right/zed_34850673_left_1748248975.178.jpg,34850673,left,1748248975.178,/home/najo/NAS/DIP/datasets/Fr5_intertek_dataset/Fr5_intertek_2nd_250526/joint/joint_34850673_1748248975.178.json,1748248975.178,0.0,34.4298470374381,-101.5484800433168,113.5170511680074,-101.972704594678,-90.00021755105197,124.43115234375
/home/najo/NAS/DIP/datasets/Fr5_intertek_dataset/Fr5_intertek_2nd_250526/right/zed_34850673_right_1748248975.178.jpg,34850673,right,1748248975.178,/home/najo/NAS/DIP/datasets/Fr5_intertek_dataset/Fr5_intertek_2nd_250526/joint/joint_34850673_1748248975.178.json,1748248975.178,0.0,34.4298470374381,-101.5484800433168,113.5170511680074,-101.972704594678,-90.00021755105197,124.43115234375
/home/najo/NAS/DIP/datasets/Fr5_intertek_dataset/Fr5_intertek_2nd_250526/top/zed_30779426_right_1748248975.302.jpg,30779426,right,1748248975.302,/home/najo/NAS/DIP/datasets/Fr5_intertek_dataset/Fr5_intertek_2nd_250526/joint/joint_30779426_1748248975.302.json,1748248975.302,0.0,34.83623240253713,-102.3314462793935,112.5147934715346,-100.182259436881,-90.0,124.8277479115099
/home/najo/NAS/DIP/datasets/Fr5_intertek_dataset/Fr5_intertek_2nd_250526/top/zed_30779426_left_1748248975.302.jpg,30779426,left,1748248975.302,/home/najo/NAS/DIP/datasets/Fr5_intertek_dataset/Fr5_intertek_2nd_250526/joint/joint_30779426_1748248975.302.json,1748248975.302,0.0,34.83623240253713,-102.3314462793935,112.5147934715346,-100.182259436881,-90.0,124.8277479115099
/home/najo/NAS/DIP/datasets/Fr5_intertek_dataset/Fr5_intertek_2nd_250526/left/zed_38007749_left_1748248975.312.jpg,38007749,left,1748248975.312,/home/najo/NAS/DIP/datasets/Fr5_intertek_dataset/Fr5_intertek_2nd_250526/joint/joint_38007749_1748248975.312.json,1748248975.312,0.0,34.88409363397277,-102.4206422107054,112.3929648824257,-99.9897267558787,-89.99978244894803,124.8727809792698
/home/najo/NAS/DIP/datasets/Fr5_intertek_dataset/Fr5_intertek_2nd_250526/left/zed_38007749_right_1748248975.312.jpg,38007749,right,1748248975.312,/home/najo/NAS/DIP/datasets/Fr5_intertek_dataset/Fr5_intertek_2nd_250526/joint/joint_38007749_1748248975.312.json,1748248975.312,0.0,34.88409363397277,-102.4206422107054,112.3929648824257,-99.9897267558787,-89.99978244894803,124.8727809792698
/home/najo/NAS/DIP/datasets/Fr5_intertek_dataset/Fr5_intertek_2nd_250526/right/zed_34850673_left_1748248975.317.jpg,34850673,left,1748248975.317,/home/najo/NAS/DIP/datasets/Fr5_intertek_dataset/Fr5_intertek_2nd_250526/joint/joint_34850673_1748248975.317.json,1748248975.317,0.0,34.89779935024752,-102.446313234839,112.3592444693688,-99.93229327815594,-89.99978244894803,124.8856164913366
/home/najo/NAS/DIP/datasets/Fr5_intertek_dataset/Fr5_intertek_2nd_250526/right/zed_34850673_right_1748248975.317.jpg,34850673,right,1748248975.317,/home/najo/NAS/DIP/datasets/Fr5_intertek_dataset/Fr5_intertek_2nd_250526/joint/joint_34850673_1748248975.317.json,1748248975.317,0.0,34.89779935024752,-102.446313234839,112.3592444693688,-99.93229327815594,-89.99978244894803,124.8856164913366
/home/najo/NAS/DIP/datasets/Fr5_intertek_dataset/Fr5_intertek_2nd_250526/top/zed_30779426_left_1748248975.436.jpg,30779426,left,1748248975.436,/home/najo/NAS/DIP/datasets/Fr5_intertek_dataset/Fr5_intertek_2nd_250526/joint/joint_30779426_1748248975.436.json,1748248975.436,0.0,35.28852103960396,-103.159880685334,111.3054271735767,-98.15816444925743,-89.99956489789604,125.296787979579
/home/najo/NAS/DIP/datasets/Fr5_intertek_dataset/Fr5_intertek_2nd_250526/top/zed_30779426_right_1748248975.436.jpg,30779426,right,1748248975.436,/home/najo/NAS/DIP/datasets/Fr5_intertek_dataset/Fr5_intertek_2nd_250526/joint/joint_30779426_1748248975.436.json,1748248975.436,0.0,35.28852103960396,-103.159880685334,111.3054271735767,-98.15816444925743,-89.99956489789604,125.296787979579
/home/najo/NAS/DIP/datasets/Fr5_intertek_dataset/Fr5_intertek_2nd_250526/left/zed_38007749_left_1748248975.448.jpg,38007749,left,1748248975.448,/home/najo/NAS/DIP/datasets/Fr5_intertek_dataset/Fr5_intertek_2nd_250526/joint/joint_38007749_1748248975.448.json,1748248975.448,0.0,35.32485206528465,-103.2229704904084,111.2066589959777,-97.98869217976485,-89.99956489789604,125.3357296178836
/home/najo/NAS/DIP/datasets/Fr5_intertek_dataset/Fr5_intertek_2nd_250526/left/zed_38007749_right_1748248975.448.jpg,38007749,right,1748248975.448,/home/najo/NAS/DIP/datasets/Fr5_intertek_dataset/Fr5_intertek_2nd_250526/joint/joint_38007749_1748248975.448.json,1748248975.448,0.0,35.32485206528465,-103.2229704904084,111.2066589959777,-97.98869217976485,-89.99956489789604,125.3357296178836
/home/najo/NAS/DIP/datasets/Fr5_intertek_dataset/Fr5_intertek_2nd_250526/right/zed_34850673_left_1748248975.454.jpg,34850673,left,1748248975.454,/home/najo/NAS/DIP/datasets/Fr5_intertek_dataset/Fr5_intertek_2nd_250526/joint/joint_34850673_1748248975.454.json,1748248975.454,0.0,35.35204594678217,-103.2684386602723,111.1350846998762,-97.86512318224008,-90.00021755105197,125.363141050433
/home/najo/NAS/DIP/datasets/Fr5_intertek_dataset/Fr5_intertek_2nd_250526/right/zed_34850673_right_1748248975.454.jpg,34850673,right,1748248975.454,/home/najo/NAS/DIP/datasets/Fr5_intertek_dataset/Fr5_intertek_2nd_250526/joint/joint_34850673_1748248975.454.json,1748248975.454,0.0,35.35204594678217,-103.2684386602723,111.1350846998762,-97.86512318224008,-90.00021755105197,125.363141050433
/home/najo/NAS/DIP/datasets/Fr5_intertek_dataset/Fr5_intertek_2nd_250526/top/zed_30779426_left_1748248975.572.jpg,30779426,left,1748248975.572,/home/najo/NAS/DIP/datasets/Fr5_intertek_dataset/Fr5_intertek_2nd_250526/joint/joint_30779426_1748248975.572.json,1748248975.572,0.0,35.77735825340346,-103.9313167156559,110.014696782178,-96.0886012917698,-90.0,125.7730072323638
/home/najo/NAS/DIP/datasets/Fr5_intertek_dataset/Fr5_intertek_2nd_250526/top/zed_30779426_right_1748248975.572.jpg,30779426,right,1748248975.572,/home/najo/NAS/DIP/datasets/Fr5_intertek_dataset/Fr5_intertek_2nd_250526/joint/joint_30779426_1748248975.572.json,1748248975.572,0.0,35.77735825340346,-103.9313167156559,110.014696782178,-96.0886012917698,-90.0,125.7730072323638
/home/najo/NAS/DIP/datasets/Fr5_intertek_dataset/Fr5_intertek_2nd_250526/left/zed_38007749_right_1748248975.584.jpg,38007749,right,1748248975.584,/home/najo/NAS/DIP/datasets/Fr5_intertek_dataset/Fr5_intertek_2nd_250526/joint/joint_38007749_1748248975.584.json,1748248975.584,0.0,35.80063621596534,-103.9683003944925,109.9485612623762,-95.97590984684406,-90.0,125.7980256033416
/home/najo/NAS/DIP/datasets/Fr5_intertek_dataset/Fr5_intertek_2nd_250526/left/zed_38007749_left_1748248975.584.jpg,38007749,left,1748248975.584,/home/najo/NAS/DIP/datasets/Fr5_intertek_dataset/Fr5_intertek_2nd_250526/joint/joint_38007749_1748248975.584.json,1748248975.584,0.0,35.80063621596534,-103.9683003944925,109.9485612623762,-95.97590984684406,-90.0,125.7980256033416
/home/najo/NAS/DIP/datasets/Fr5_intertek_dataset/Fr5_intertek_2nd_250526/right/zed_34850673_right_1748248975.590.jpg,34850673,right,1748248975.59,/home/najo/NAS/DIP/datasets/Fr5_intertek_dataset/Fr5_intertek_2nd_250526/joint/joint_34850673_1748248975.590.json,1748248975.59,0.0,35.81020846225247,-103.983746519183,109.9207147277227,-95.93087677908416,-90.0,125.8084680538366
/home/najo/NAS/DIP/datasets/Fr5_intertek_dataset/Fr5_intertek_2nd_250526/right/zed_34850673_left_1748248975.590.jpg,34850673,left,1748248975.59,/home/najo/NAS/DIP/datasets/Fr5_intertek_dataset/Fr5_intertek_2nd_250526/joint/joint_34850673_1748248975.590.json,1748248975.59,0.0,35.81020846225247,-103.983746519183,109.9207147277227,-95.93087677908416,-90.0,125.8084680538366
/home/najo/NAS/DIP/datasets/Fr5_intertek_dataset/Fr5_intertek_2nd_250526/top/zed_30779426_left_1748248975.712.jpg,30779426,left,1748248975.712,/home/najo/NAS/DIP/datasets/Fr5_intertek_dataset/Fr5_intertek_2nd_250526/joint/joint_30779426_1748248975.712.json,1748248975.712,0.0,36.26706567141089,-104.6155147741336,108.686547609839,-94.06842222308168,-90.0,126.2633673035272
/home/najo/NAS/DIP/datasets/Fr5_intertek_dataset/Fr5_intertek_2nd_250526/top/zed_30779426_right_1748248975.712.jpg,30779426,right,1748248975.712,/home/najo/NAS/DIP/datasets/Fr5_intertek_dataset/Fr5_intertek_2nd_250526/joint/joint_30779426_1748248975.712.json,1748248975.712,0.0,36.26706567141089,-104.6155147741336,108.686547609839,-94.06842222308168,-90.0,126.2633673035272
/home/najo/NAS/DIP/datasets/Fr5_intertek_dataset/Fr5_intertek_2nd_250526/left/zed_38007749_left_1748248975.720.jpg,38007749,left,1748248975.72,/home/najo/NAS/DIP/datasets/Fr5_intertek_dataset/Fr5_intertek_2nd_250526/joint/joint_38007749_1748248975.720.json,1748248975.72,0.0,36.27467995823019,-104.6248694693688,108.6669680151609,-94.03927038211634,-90.0,126.2701113861386
/home/najo/NAS/DIP/datasets/Fr5_intertek_dataset/Fr5_intertek_2nd_250526/left/zed_38007749_right_1748248975.720.jpg,38007749,right,1748248975.72,/home/najo/NAS/DIP/datasets/Fr5_intertek_dataset/Fr5_intertek_2nd_250526/joint/joint_38007749_1748248975.720.json,1748248975.72,0.0,36.27467995823019,-104.6248694693688,108.6669680151609,-94.03927038211634,-90.0,126.2701113861386
/home/najo/NAS/DIP/datasets/Fr5_intertek_dataset/Fr5_intertek_2nd_250526/right/zed_34850673_left_1748248975.724.jpg,34850673,left,1748248975.724,/home/najo/NAS/DIP/datasets/Fr5_intertek_dataset/Fr5_intertek_2nd_250526/joint/joint_34850673_1748248975.724.json,1748248975.724,0.0,36.30796526918317,-104.666639271349,108.5799475943688,-93.9043887298886,-89.99956489789604,126.3005685334158
/home/najo/NAS/DIP/datasets/Fr5_intertek_dataset/Fr5_intertek_2nd_250526/right/zed_34850673_right_1748248975.724.jpg,34850673,right,1748248975.724,/home/najo/NAS/DIP/datasets/Fr5_intertek_dataset/Fr5_intertek_2nd_250526/joint/joint_34850673_1748248975.724.json,1748248975.724,0.0,36.30796526918317,-104.666639271349,108.5799475943688,-93.9043887298886,-89.99956489789604,126.3005685334158
/home/najo/NAS/DIP/datasets/Fr5_intertek_dataset/Fr5_intertek_2nd_250526/top/zed_30779426_right_1748248975.850.jpg,30779426,right,1748248975.85,/home/najo/NAS/DIP/datasets/Fr5_intertek_dataset/Fr5_intertek_2nd_250526/joint/joint_30779426_1748248975.850.json,1748248975.85,0.0,36.73828125,-105.2061658802599,107.3597037438118,-92.1685488861386,-90.0,126.7348004331683
/home/najo/NAS/DIP/datasets/Fr5_intertek_dataset/Fr5_intertek_2nd_250526/top/zed_30779426_left_1748248975.850.jpg,30779426,left,1748248975.85,/home/najo/NAS/DIP/datasets/Fr5_intertek_dataset/Fr5_intertek_2nd_250526/joint/joint_30779426_1748248975.850.json,1748248975.85,0.0,36.73828125,-105.2061658802599,107.3597037438118,-92.1685488861386,-90.0,126.7348004331683
/home/najo/NAS/DIP/datasets/Fr5_intertek_dataset/Fr5_intertek_2nd_250526/left/zed_38007749_right_1748248975.854.jpg,38007749,right,1748248975.854,/home/najo/NAS/DIP/datasets/Fr5_intertek_dataset/Fr5_intertek_2nd_250526/joint/joint_38007749_1748248975.854.json,1748248975.854,0.0,36.75089921101485,-105.2209593517945,107.324460473391,-92.12286316522275,-89.99978244894803,126.747200843131
/home/najo/NAS/DIP/datasets/Fr5_intertek_dataset/Fr5_intertek_2nd_250526/left/zed_38007749_left_1748248975.854.jpg,38007749,left,1748248975.854,/home/najo/NAS/DIP/datasets/Fr5_intertek_dataset/Fr5_intertek_2nd_250526/joint/joint_38007749_1748248975.854.json,1748248975.854,0.0,36.75089921101485,-105.2209593517945,107.324460473391,-92.12286316522275,-89.99978244894803,126.747200843131
/home/najo/NAS/DIP/datasets/Fr5_intertek_dataset/Fr5_intertek_2nd_250526/right/zed_34850673_right_1748248975.861.jpg,34850673,right,1748248975.861,/home/najo/NAS/DIP/datasets/Fr5_intertek_dataset/Fr5_intertek_2nd_250526/joint/joint_34850673_1748248975.861.json,1748248975.861,0.0,36.77200166305693,-105.2459777227723,107.2648514851485,-92.0412815207302,-89.99978244894803,126.768955948329
/home/najo/NAS/DIP/datasets/Fr5_intertek_dataset/Fr5_intertek_2nd_250526/right/zed_34850673_left_1748248975.861.jpg,34850673,left,1748248975.861,/home/najo/NAS/DIP/datasets/Fr5_intertek_dataset/Fr5_intertek_2nd_250526/joint/joint_34850673_1748248975.861.json,1748248975.861,0.0,36.77200166305693,-105.2459777227723,107.2648514851485,-92.0412815207302,-89.99978244894803,126.768955948329
/home/najo/NAS/DIP/datasets/Fr5_intertek_dataset/Fr5_intertek_2nd_250526/top/zed_30779426_right_1748248975.985.jpg,30779426,right,1748248975.985,/home/najo/NAS/DIP/datasets/Fr5_intertek_dataset/Fr5_intertek_2nd_250526/joint/joint_30779426_1748248975.985.json,1748248975.985,0.0,37.04067721225247,-105.532927560334,106.521697091584,-90.98572381652228,-89.99978244894803,127.033715578589
/home/najo/NAS/DIP/datasets/Fr5_intertek_dataset/Fr5_intertek_2nd_250526/top/zed_30779426_left_1748248975.985.jpg,30779426,left,1748248975.985,/home/najo/NAS/DIP/datasets/Fr5_intertek_dataset/Fr5_intertek_2nd_250526/joint/joint_30779426_1748248975.985.json,1748248975.985,0.0,37.04067721225247,-105.532927560334,106.521697091584,-90.98572381652228,-89.99978244894803,127.033715578589
/home/najo/NAS/DIP/datasets/Fr5_intertek_dataset/Fr5_intertek_2nd_250526/left/zed_38007749_right_1748248975.990.jpg,38007749,right,1748248975.99,/home/najo/NAS/DIP/datasets/Fr5_intertek_dataset/Fr5_intertek_2nd_250526/joint/joint_38007749_1748248975.990.json,1748248975.99,0.0,37.04415802908416,-105.5374961324257,106.5073387221534,-90.966796875,-89.99978244894803,127.0385017017326
/home/najo/NAS/DIP/datasets/Fr5_intertek_dataset/Fr5_intertek_2nd_250526/left/zed_38007749_left_1748248975.990.jpg,38007749,left,1748248975.99,/home/najo/NAS/DIP/datasets/Fr5_intertek_dataset/Fr5_intertek_2nd_250526/joint/joint_38007749_1748248975.990.json,1748248975.99,0.0,37.04415802908416,-105.5374961324257,106.5073387221534,-90.966796875,-89.99978244894803,127.0385017017326
/home/najo/NAS/DIP/datasets/Fr5_intertek_dataset/Fr5_intertek_2nd_250526/right/zed_34850673_right_1748248975.996.jpg,34850673,right,1748248975.996,/home/najo/NAS/DIP/datasets/Fr5_intertek_dataset/Fr5_intertek_2nd_250526/joint/joint_34850673_1748248975.996.json,1748248975.996,0.0,37.04742129486386,-105.5431524597772,106.4912399443069,-90.94569442295793,-89.99978244894803,127.044375580136
/home/najo/NAS/DIP/datasets/Fr5_intertek_dataset/Fr5_intertek_2nd_250526/right/zed_34850673_left_1748248975.996.jpg,34850673,left,1748248975.996,/home/najo/NAS/DIP/datasets/Fr5_intertek_dataset/Fr5_intertek_2nd_250526/joint/joint_34850673_1748248975.996.json,1748248975.996,0.0,37.04742129486386,-105.5431524597772,106.4912399443069,-90.94569442295793,-89.99978244894803,127.044375580136
/home/najo/NAS/DIP/datasets/Fr5_intertek_dataset/Fr5_intertek_2nd_250526/top/zed_30779426_left_1748248976.120.jpg,30779426,left,1748248976.12,/home/najo/NAS/DIP/datasets/Fr5_intertek_dataset/Fr5_intertek_2nd_250526/joint/joint_30779426_1748248976.120.json,1748248976.12,0.0,36.99999516553217,-105.588620629641,106.3541827815594,-90.7549021503713,-89.99956489789604,126.9925984297648
/home/najo/NAS/DIP/datasets/Fr5_intertek_dataset/Fr5_intertek_2nd_250526/top/zed_30779426_right_1748248976.120.jpg,30779426,right,1748248976.12,/home/najo/NAS/DIP/datasets/Fr5_intertek_dataset/Fr5_intertek_2nd_250526/joint/joint_30779426_1748248976.120.json,1748248976.12,0.0,36.99999516553217,-105.588620629641,106.3541827815594,-90.7549021503713,-89.99956489789604,126.9925984297648
/home/najo/NAS/DIP/datasets/Fr5_intertek_dataset/Fr5_intertek_2nd_250526/left/zed_38007749_right_1748248976.126.jpg,38007749,right,1748248976.126,/home/najo/NAS/DIP/datasets/Fr5_intertek_dataset/Fr5_intertek_2nd_250526/joint/joint_38007749_1748248976.126.json,1748248976.126,0.0,36.97954536664603,-105.589490833849,106.3517897199876,-90.7535968440594,-89.99978244894803,126.9738890392945
/home/najo/NAS/DIP/datasets/Fr5_intertek_dataset/Fr5_intertek_2nd_250526/left/zed_38007749_left_1748248976.126.jpg,38007749,left,1748248976.126,/home/najo/NAS/DIP/datasets/Fr5_intertek_dataset/Fr5_intertek_2nd_250526/joint/joint_38007749_1748248976.126.json,1748248976.126,0.0,36.97954536664603,-105.589490833849,106.3517897199876,-90.7535968440594,-89.99978244894803,126.9738890392945
/home/najo/NAS/DIP/datasets/Fr5_intertek_dataset/Fr5_intertek_2nd_250526/right/zed_34850673_left_1748248976.131.jpg,34850673,left,1748248976.131,/home/najo/NAS/DIP/datasets/Fr5_intertek_dataset/Fr5_intertek_2nd_250526/joint/joint_34850673_1748248976.131.json,1748248976.131,0.0,36.96148862933168,-105.5901434870049,106.3502668626237,-90.75294419090346,-89.99978244894803,126.957572710396
/home/najo/NAS/DIP/datasets/Fr5_intertek_dataset/Fr5_intertek_2nd_250526/right/zed_34850673_right_1748248976.131.jpg,34850673,right,1748248976.131,/home/najo/NAS/DIP/datasets/Fr5_intertek_dataset/Fr5_intertek_2nd_250526/joint/joint_34850673_1748248976.131.json,1748248976.131,0.0,36.96148862933168,-105.5901434870049,106.3502668626237,-90.75294419090346,-89.99978244894803,126.957572710396
/home/najo/NAS/DIP/datasets/Fr5_intertek_dataset/Fr5_intertek_2nd_250526/top/zed_30779426_left_1748248976.256.jpg,30779426,left,1748248976.256,/home/najo/NAS/DIP/datasets/Fr5_intertek_dataset/Fr5_intertek_2nd_250526/joint/joint_30779426_1748248976.256.json,1748248976.256,0.0,35.8417533647896,-105.5903610380569,106.3319925742574,-90.74598255724008,-89.99934734684406,125.8426235689975
/home/najo/NAS/DIP/datasets/Fr5_intertek_dataset/Fr5_intertek_2nd_250526/top/zed_30779426_right_1748248976.256.jpg,30779426,right,1748248976.256,/home/najo/NAS/DIP/datasets/Fr5_intertek_dataset/Fr5_intertek_2nd_250526/joint/joint_30779426_1748248976.256.json,1748248976.256,0.0,35.8417533647896,-105.5903610380569,106.3319925742574,-90.74598255724008,-89.99934734684406,125.8426235689975
/home/najo/NAS/DIP/datasets/Fr5_intertek_dataset/Fr5_intertek_2nd_250526/left/zed_38007749_right_1748248976.262.jpg,38007749,right,1748248976.262,/home/najo/NAS/DIP/datasets/Fr5_intertek_dataset/Fr5_intertek_2nd_250526/joint/joint_38007749_1748248976.262.json,1748248976.262,0.0,35.78758315284653,-105.5903610380569,106.3317750232054,-90.74598255724008,-89.99934734684406,125.7895411123143
/home/najo/NAS/DIP/datasets/Fr5_intertek_dataset/Fr5_intertek_2nd_250526/left/zed_38007749_left_1748248976.262.jpg,38007749,left,1748248976.262,/home/najo/NAS/DIP/datasets/Fr5_intertek_dataset/Fr5_intertek_2nd_250526/joint/joint_38007749_1748248976.262.json,1748248976.262,0.0,35.78758315284653,-105.5903610380569,106.3317750232054,-90.74598255724008,-89.99934734684406,125.7895411123143
/home/najo/NAS/DIP/datasets/Fr5_intertek_dataset/Fr5_intertek_2nd_250526/right/zed_34850673_left_1748248976.267.jpg,34850673,left,1748248976.267,/home/najo/NAS/DIP/datasets/Fr5_intertek_dataset/Fr5_intertek_2nd_250526/joint/joint_34850673_1748248976.267.json,1748248976.267,0.0,35.74646600402227,-105.5901434870049,106.3315574721534,-90.74620010829207,-89.99956489789604,125.747553759282
/home/najo/NAS/DIP/datasets/Fr5_intertek_dataset/Fr5_intertek_2nd_250526/right/zed_34850673_right_1748248976.267.jpg,34850673,right,1748248976.267,/home/najo/NAS/DIP/datasets/Fr5_intertek_dataset/Fr5_intertek_2nd_250526/joint/joint_34850673_1748248976.267.json,1748248976.267,0.0,35.74646600402227,-105.5901434870049,106.3315574721534,-90.74620010829207,-89.99956489789604,125.747553759282
/home/najo/NAS/DIP/datasets/Fr5_intertek_dataset/Fr5_intertek_2nd_250526/top/zed_30779426_right_1748248976.393.jpg,30779426,right,1748248976.393,/home/najo/NAS/DIP/datasets/Fr5_intertek_dataset/Fr5_intertek_2nd_250526/joint/joint_30779426_1748248976.393.json,1748248976.393,0.0,33.6366559019183,-105.576872872834,106.32459583849,-90.75424949721534,-89.99869469368812,123.6251256961633
/home/najo/NAS/DIP/datasets/Fr5_intertek_dataset/Fr5_intertek_2nd_250526/top/zed_30779426_left_1748248976.393.jpg,30779426,left,1748248976.393,/home/najo/NAS/DIP/datasets/Fr5_intertek_dataset/Fr5_intertek_2nd_250526/joint/joint_30779426_1748248976.393.json,1748248976.393,0.0,33.6366559019183,-105.576872872834,106.32459583849,-90.75424949721534,-89.99869469368812,123.6251256961633
/home/najo/NAS/DIP/datasets/Fr5_intertek_dataset/Fr5_intertek_2nd_250526/left/zed_38007749_left_1748248976.398.jpg,38007749,left,1748248976.398,/home/najo/NAS/DIP/datasets/Fr5_intertek_dataset/Fr5_intertek_2nd_250526/joint/joint_38007749_1748248976.398.json,1748248976.398,0.0,33.51221670018564,-105.576872872834,106.324160736386,-90.75555480352723,-90.00021755105197,123.4985109839109
/home/najo/NAS/DIP/datasets/Fr5_intertek_dataset/Fr5_intertek_2nd_250526/left/zed_38007749_right_1748248976.398.jpg,38007749,right,1748248976.398,/home/najo/NAS/DIP/datasets/Fr5_intertek_dataset/Fr5_intertek_2nd_250526/joint/joint_38007749_1748248976.398.json,1748248976.398,0.0,33.51221670018564,-105.576872872834,106.324160736386,-90.75555480352723,-90.00021755105197,123.4985109839109
/home/najo/NAS/DIP/datasets/Fr5_intertek_dataset/Fr5_intertek_2nd_250526/right/zed_34850673_left_1748248976.403.jpg,34850673,left,1748248976.403,/home/najo/NAS/DIP/datasets/Fr5_intertek_dataset/Fr5_intertek_2nd_250526/joint/joint_34850673_1748248976.403.json,1748248976.403,0.0,33.45739383508663,-105.57643777073,106.32350808323,-90.75555480352723,-90.00043510210396,123.4428179146039
/home/najo/NAS/DIP/datasets/Fr5_intertek_dataset/Fr5_intertek_2nd_250526/right/zed_34850673_right_1748248976.403.jpg,34850673,right,1748248976.403,/home/najo/NAS/DIP/datasets/Fr5_intertek_dataset/Fr5_intertek_2nd_250526/joint/joint_34850673_1748248976.403.json,1748248976.403,0.0,33.45739383508663,-105.57643777073,106.32350808323,-90.75555480352723,-90.00043510210396,123.4428179146039
/home/najo/NAS/DIP/datasets/Fr5_intertek_dataset/Fr5_intertek_2nd_250526/top/zed_30779426_right_1748248976.527.jpg,30779426,right,1748248976.527,/home/najo/NAS/DIP/datasets/Fr5_intertek_dataset/Fr5_intertek_2nd_250526/joint/joint_30779426_1748248976.527.json,1748248976.527,0.0,31.21683555074257,-105.554247563428,106.314806041151,-90.76273398824257,-90.00043510210396,121.211614325495
/home/najo/NAS/DIP/datasets/Fr5_intertek_dataset/Fr5_intertek_2nd_250526/top/zed_30779426_left_1748248976.527.jpg,30779426,left,1748248976.527,/home/najo/NAS/DIP/datasets/Fr5_intertek_dataset/Fr5_intertek_2nd_250526/joint/joint_30779426_1748248976.527.json,1748248976.527,0.0,31.21683555074257,-105.554247563428,106.314806041151,-90.76273398824257,-90.00043510210396,121.211614325495
/home/najo/NAS/DIP/datasets/Fr5_intertek_dataset/Fr5_intertek_2nd_250526/left/zed_38007749_left_1748248976.534.jpg,38007749,left,1748248976.534,/home/najo/NAS/DIP/datasets/Fr5_intertek_dataset/Fr5_intertek_2nd_250526/joint/joint_38007749_1748248976.534.json,1748248976.534,0.0,31.07412206064356,-105.5533773592203,106.313935836943,-90.7633866413985,-89.99978244894803,121.06824818224
/home/najo/NAS/DIP/datasets/Fr5_intertek_dataset/Fr5_intertek_2nd_250526/left/zed_38007749_right_1748248976.534.jpg,38007749,right,1748248976.534,/home/najo/NAS/DIP/datasets/Fr5_intertek_dataset/Fr5_intertek_2nd_250526/joint/joint_38007749_1748248976.534.json,1748248976.534,0.0,31.07412206064356,-105.5533773592203,106.313935836943,-90.7633866413985,-89.99978244894803,121.06824818224
/home/najo/NAS/DIP/datasets/Fr5_intertek_dataset/Fr5_intertek_2nd_250526/right/zed_34850673_left_1748248976.539.jpg,34850673,left,1748248976.539,/home/najo/NAS/DIP/datasets/Fr5_intertek_dataset/Fr5_intertek_2nd_250526/joint/joint_34850673_1748248976.539.json,1748248976.539,0.0,31.01995184870049,-105.5529422571163,106.313500734839,-90.7633866413985,-89.99956489789604,121.0153832766089
/home/najo/NAS/DIP/datasets/Fr5_intertek_dataset/Fr5_intertek_2nd_250526/right/zed_34850673_right_1748248976.539.jpg,34850673,right,1748248976.539,/home/najo/NAS/DIP/datasets/Fr5_intertek_dataset/Fr5_intertek_2nd_250526/joint/joint_34850673_1748248976.539.json,1748248976.539,0.0,31.01995184870049,-105.5529422571163,106.313500734839,-90.7633866413985,-89.99956489789604,121.0153832766089
/home/najo/NAS/DIP/datasets/Fr5_intertek_dataset/Fr5_intertek_2nd_250526/top/zed_30779426_right_1748248976.662.jpg,30779426,right,1748248976.662,/home/najo/NAS/DIP/datasets/Fr5_intertek_dataset/Fr5_intertek_2nd_250526/joint/joint_30779426_1748248976.662.json,1748248976.662,0.0,28.77808825804455,-105.53358021349,106.302188080136,-90.76969562190594,-90.00021755105197,118.773084583849
/home/najo/NAS/DIP/datasets/Fr5_intertek_dataset/Fr5_intertek_2nd_250526/top/zed_30779426_left_1748248976.662.jpg,30779426,left,1748248976.662,/home/najo/NAS/DIP/datasets/Fr5_intertek_dataset/Fr5_intertek_2nd_250526/joint/joint_30779426_1748248976.662.json,1748248976.662,0.0,28.77808825804455,-105.53358021349,106.302188080136,-90.76969562190594,-90.00021755105197,118.773084583849
/home/najo/NAS/DIP/datasets/Fr5_intertek_dataset/Fr5_intertek_2nd_250526/left/zed_38007749_left_1748248976.670.jpg,38007749,left,1748248976.67,/home/najo/NAS/DIP/datasets/Fr5_intertek_dataset/Fr5_intertek_2nd_250526/joint/joint_38007749_1748248976.670.json,1748248976.67,0.0,28.65060334158416,-105.532274907178,106.301752978032,-90.76991317295793,-90.00021755105197,118.6471225247524
/home/najo/NAS/DIP/datasets/Fr5_intertek_dataset/Fr5_intertek_2nd_250526/left/zed_38007749_right_1748248976.670.jpg,38007749,right,1748248976.67,/home/najo/NAS/DIP/datasets/Fr5_intertek_dataset/Fr5_intertek_2nd_250526/joint/joint_38007749_1748248976.670.json,1748248976.67,0.0,28.65060334158416,-105.532274907178,106.301752978032,-90.76991317295793,-90.00021755105197,118.6471225247524
/home/najo/NAS/DIP/datasets/Fr5_intertek_dataset/Fr5_intertek_2nd_250526/right/zed_34850673_right_1748248976.674.jpg,34850673,right,1748248976.674,/home/najo/NAS/DIP/datasets/Fr5_intertek_dataset/Fr5_intertek_2nd_250526/joint/joint_34850673_1748248976.674.json,1748248976.674,0.0,28.52529393564356,-105.5311871519183,106.3011003248762,-90.77034827506186,-90.00043510210396,118.5213780167079
/home/najo/NAS/DIP/datasets/Fr5_intertek_dataset/Fr5_intertek_2nd_250526/right/zed_34850673_left_1748248976.674.jpg,34850673,left,1748248976.674,/home/najo/NAS/DIP/datasets/Fr5_intertek_dataset/Fr5_intertek_2nd_250526/joint/joint_34850673_1748248976.674.json,1748248976.674,0.0,28.52529393564356,-105.5311871519183,106.3011003248762,-90.77034827506186,-90.00043510210396,118.5213780167079
/home/najo/NAS/DIP/datasets/Fr5_intertek_dataset/Fr5_intertek_2nd_250526/top/zed_30779426_right_1748248976.799.jpg,30779426,right,1748248976.799,/home/najo/NAS/DIP/datasets/Fr5_intertek_dataset/Fr5_intertek_2nd_250526/joint/joint_30779426_1748248976.799.json,1748248976.799,0.0,26.290174427599,-105.5146532719678,106.2886999149133,-90.77535194925743,-90.00043510210396,116.2845181002475
/home/najo/NAS/DIP/datasets/Fr5_intertek_dataset/Fr5_intertek_2nd_250526/top/zed_30779426_left_1748248976.799.jpg,30779426,left,1748248976.799,/home/najo/NAS/DIP/datasets/Fr5_intertek_dataset/Fr5_intertek_2nd_250526/joint/joint_30779426_1748248976.799.json,1748248976.799,0.0,26.290174427599,-105.5146532719678,106.2886999149133,-90.77535194925743,-90.00043510210396,116.2845181002475
/home/najo/NAS/DIP/datasets/Fr5_intertek_dataset/Fr5_intertek_2nd_250526/left/zed_38007749_right_1748248976.805.jpg,38007749,right,1748248976.805,/home/najo/NAS/DIP/datasets/Fr5_intertek_dataset/Fr5_intertek_2nd_250526/joint/joint_38007749_1748248976.805.json,1748248976.805,0.0,26.19989074102723,-105.5137830677599,106.2880472617574,-90.77578705136139,-90.00043510210396,116.1957572710396
/home/najo/NAS/DIP/datasets/Fr5_intertek_dataset/Fr5_intertek_2nd_250526/left/zed_38007749_left_1748248976.805.jpg,38007749,left,1748248976.805,/home/najo/NAS/DIP/datasets/Fr5_intertek_dataset/Fr5_intertek_2nd_250526/joint/joint_38007749_1748248976.805.json,1748248976.805,0.0,26.19989074102723,-105.5137830677599,106.2880472617574,-90.77578705136139,-90.00043510210396,116.1957572710396
/home/najo/NAS/DIP/datasets/Fr5_intertek_dataset/Fr5_intertek_2nd_250526/right/zed_34850673_right_1748248976.812.jpg,34850673,right,1748248976.812,/home/najo/NAS/DIP/datasets/Fr5_intertek_dataset/Fr5_intertek_2nd_250526/joint/joint_34850673_1748248976.812.json,1748248976.812,0.0,26.05543684251237,-105.512042659344,106.2876121596534,-90.77578705136139,-90.0,116.0526086788366
/home/najo/NAS/DIP/datasets/Fr5_intertek_dataset/Fr5_intertek_2nd_250526/right/zed_34850673_left_1748248976.812.jpg,34850673,left,1748248976.812,/home/najo/NAS/DIP/datasets/Fr5_intertek_dataset/Fr5_intertek_2nd_250526/joint/joint_34850673_1748248976.812.json,1748248976.812,0.0,26.05543684251237,-105.512042659344,106.2876121596534,-90.77578705136139,-90.0,116.0526086788366
/home/najo/NAS/DIP/datasets/Fr5_intertek_dataset/Fr5_intertek_2nd_250526/top/zed_30779426_left_1748248976.937.jpg,30779426,left,1748248976.937,/home/najo/NAS/DIP/datasets/Fr5_intertek_dataset/Fr5_intertek_2nd_250526/joint/joint_30779426_1748248976.937.json,1748248976.937,0.0,23.8194471302599,-105.4946385751856,106.2745590965346,-90.78122582766089,-90.00021755105197,113.8235806002475
/home/najo/NAS/DIP/datasets/Fr5_intertek_dataset/Fr5_intertek_2nd_250526/top/zed_30779426_right_1748248976.937.jpg,30779426,right,1748248976.937,/home/najo/NAS/DIP/datasets/Fr5_intertek_dataset/Fr5_intertek_2nd_250526/joint/joint_30779426_1748248976.937.json,1748248976.937,0.0,23.8194471302599,-105.4946385751856,106.2745590965346,-90.78122582766089,-90.00021755105197,113.8235806002475
/home/najo/NAS/DIP/datasets/Fr5_intertek_dataset/Fr5_intertek_2nd_250526/left/zed_38007749_left_1748248976.942.jpg,38007749,left,1748248976.942,/home/najo/NAS/DIP/datasets/Fr5_intertek_dataset/Fr5_intertek_2nd_250526/joint/joint_38007749_1748248976.942.json,1748248976.942,0.0,23.6776038443688,-105.4935508199257,106.2743415454826,-90.78144337871286,-90.00021755105197,113.6808671101485
/home/najo/NAS/DIP/datasets/Fr5_intertek_dataset/Fr5_intertek_2nd_250526/left/zed_38007749_right_1748248976.942.jpg,38007749,right,1748248976.942,/home/najo/NAS/DIP/datasets/Fr5_intertek_dataset/Fr5_intertek_2nd_250526/joint/joint_38007749_1748248976.942.json,1748248976.942,0.0,23.6776038443688,-105.4935508199257,106.2743415454826,-90.78144337871286,-90.00021755105197,113.6808671101485
/home/najo/NAS/DIP/datasets/Fr5_intertek_dataset/Fr5_intertek_2nd_250526/right/zed_34850673_right_1748248976.948.jpg,34850673,right,1748248976.948,/home/najo/NAS/DIP/datasets/Fr5_intertek_dataset/Fr5_intertek_2nd_250526/joint/joint_34850673_1748248976.948.json,1748248976.948,0.0,23.6238687345297,-105.4933332688737,106.2739064433787,-90.78122582766089,-90.0,113.6264793471534
/home/najo/NAS/DIP/datasets/Fr5_intertek_dataset/Fr5_intertek_2nd_250526/right/zed_34850673_left_1748248976.948.jpg,34850673,left,1748248976.948,/home/najo/NAS/DIP/datasets/Fr5_intertek_dataset/Fr5_intertek_2nd_250526/joint/joint_34850673_1748248976.948.json,1748248976.948,0.0,23.6238687345297,-105.4933332688737,106.2739064433787,-90.78122582766089,-90.0,113.6264793471534
/home/najo/NAS/DIP/datasets/Fr5_intertek_dataset/Fr5_intertek_2nd_250526/top/zed_30779426_left_1748248977.074.jpg,30779426,left,1748248977.074,/home/najo/NAS/DIP/datasets/Fr5_intertek_dataset/Fr5_intertek_2nd_250526/joint/joint_30779426_1748248977.074.json,1748248977.074,0.0,21.31956799195544,-105.4757116336633,106.2615060334158,-90.78775235922029,-90.00087020420793,111.3169573793317
/home/najo/NAS/DIP/datasets/Fr5_intertek_dataset/Fr5_intertek_2nd_250526/top/zed_30779426_right_1748248977.074.jpg,30779426,right,1748248977.074,/home/najo/NAS/DIP/datasets/Fr5_intertek_dataset/Fr5_intertek_2nd_250526/joint/joint_30779426_1748248977.074.json,1748248977.074,0.0,21.31956799195544,-105.4757116336633,106.2615060334158,-90.78775235922029,-90.00087020420793,111.3169573793317
/home/najo/NAS/DIP/datasets/Fr5_intertek_dataset/Fr5_intertek_2nd_250526/left/zed_38007749_right_1748248977.082.jpg,38007749,right,1748248977.082,/home/najo/NAS/DIP/datasets/Fr5_intertek_dataset/Fr5_intertek_2nd_250526/joint/joint_38007749_1748248977.082.json,1748248977.082,0.0,21.2123153233292,-105.4750589805074,106.2608533802599,-90.78818746132426,-90.00021755105197,111.2101398128094
/home/najo/NAS/DIP/datasets/Fr5_intertek_dataset/Fr5_intertek_2nd_250526/left/zed_38007749_left_1748248977.082.jpg,38007749,left,1748248977.082,/home/najo/NAS/DIP/datasets/Fr5_intertek_dataset/Fr5_intertek_2nd_250526/joint/joint_38007749_1748248977.082.json,1748248977.082,0.0,21.2123153233292,-105.4750589805074,106.2608533802599,-90.78818746132426,-90.00021755105197,111.2101398128094
/home/najo/NAS/DIP/datasets/Fr5_intertek_dataset/Fr5_intertek_2nd_250526/right/zed_34850673_right_1748248977.087.jpg,34850673,right,1748248977.087,/home/najo/NAS/DIP/datasets/Fr5_intertek_dataset/Fr5_intertek_2nd_250526/joint/joint_34850673_1748248977.087.json,1748248977.087,0.0,21.16010307085396,-105.4744063273515,106.2604182781559,-90.78818746132426,-90.0,111.1540116413985
/home/najo/NAS/DIP/datasets/Fr5_intertek_dataset/Fr5_intertek_2nd_250526/right/zed_34850673_left_1748248977.087.jpg,34850673,left,1748248977.087,/home/najo/NAS/DIP/datasets/Fr5_intertek_dataset/Fr5_intertek_2nd_250526/joint/joint_34850673_1748248977.087.json,1748248977.087,0.0,21.16010307085396,-105.4744063273515,106.2604182781559,-90.78818746132426,-90.0,111.1540116413985
/home/najo/NAS/DIP/datasets/Fr5_intertek_dataset/Fr5_intertek_2nd_250526/top/zed_30779426_left_1748248977.213.jpg,30779426,left,1748248977.213,/home/najo/NAS/DIP/datasets/Fr5_intertek_dataset/Fr5_intertek_2nd_250526/joint/joint_30779426_1748248977.213.json,1748248977.213,0.0,18.87059579981435,-105.457219794245,106.248452970297,-90.7921033802599,-90.00021755105197,108.8701606977104
/home/najo/NAS/DIP/datasets/Fr5_intertek_dataset/Fr5_intertek_2nd_250526/top/zed_30779426_right_1748248977.213.jpg,30779426,right,1748248977.213,/home/najo/NAS/DIP/datasets/Fr5_intertek_dataset/Fr5_intertek_2nd_250526/joint/joint_30779426_1748248977.213.json,1748248977.213,0.0,18.87059579981435,-105.457219794245,106.248452970297,-90.7921033802599,-90.00021755105197,108.8701606977104
/home/najo/NAS/DIP/datasets/Fr5_intertek_dataset/Fr5_intertek_2nd_250526/left/zed_38007749_right_1748248977.218.jpg,38007749,right,1748248977.218,/home/najo/NAS/DIP/datasets/Fr5_intertek_dataset/Fr5_intertek_2nd_250526/joint/joint_38007749_1748248977.218.json,1748248977.218,0.0,18.72461904393564,-105.456132038985,106.247800317141,-90.79253848236387,-90.00065265315594,108.7289700649752
/home/najo/NAS/DIP/datasets/Fr5_intertek_dataset/Fr5_intertek_2nd_250526/left/zed_38007749_left_1748248977.218.jpg,38007749,left,1748248977.218,/home/najo/NAS/DIP/datasets/Fr5_intertek_dataset/Fr5_intertek_2nd_250526/joint/joint_38007749_1748248977.218.json,1748248977.218,0.0,18.72461904393564,-105.456132038985,106.247800317141,-90.79253848236387,-90.00065265315594,108.7289700649752
/home/najo/NAS/DIP/datasets/Fr5_intertek_dataset/Fr5_intertek_2nd_250526/right/zed_34850673_left_1748248977.223.jpg,34850673,left,1748248977.223,/home/najo/NAS/DIP/datasets/Fr5_intertek_dataset/Fr5_intertek_2nd_250526/joint/joint_34850673_1748248977.223.json,1748248977.223,0.0,18.68785291615099,-105.456132038985,106.247365215037,-90.79253848236387,-90.00065265315594,108.6928565903465
/home/najo/NAS/DIP/datasets/Fr5_intertek_dataset/Fr5_intertek_2nd_250526/right/zed_34850673_right_1748248977.223.jpg,34850673,right,1748248977.223,/home/najo/NAS/DIP/datasets/Fr5_intertek_dataset/Fr5_intertek_2nd_250526/joint/joint_34850673_1748248977.223.json,1748248977.223,0.0,18.68785291615099,-105.456132038985,106.247365215037,-90.79253848236387,-90.00065265315594,108.6928565903465
/home/najo/NAS/DIP/datasets/Fr5_intertek_dataset/Fr5_intertek_2nd_250526/top/zed_30779426_right_1748248977.349.jpg,30779426,right,1748248977.349,/home/najo/NAS/DIP/datasets/Fr5_intertek_dataset/Fr5_intertek_2nd_250526/joint/joint_30779426_1748248977.349.json,1748248977.349,0.0,16.37028155940594,-105.4378577506188,106.2349648050742,-90.79775970761139,-90.00021755105197,106.36962890625
/home/najo/NAS/DIP/datasets/Fr5_intertek_dataset/Fr5_intertek_2nd_250526/top/zed_30779426_left_1748248977.349.jpg,30779426,left,1748248977.349,/home/najo/NAS/DIP/datasets/Fr5_intertek_dataset/Fr5_intertek_2nd_250526/joint/joint_30779426_1748248977.349.json,1748248977.349,0.0,16.37028155940594,-105.4378577506188,106.2349648050742,-90.79775970761139,-90.00021755105197,106.36962890625
/home/najo/NAS/DIP/datasets/Fr5_intertek_dataset/Fr5_intertek_2nd_250526/left/zed_38007749_right_1748248977.355.jpg,38007749,right,1748248977.355,/home/najo/NAS/DIP/datasets/Fr5_intertek_dataset/Fr5_intertek_2nd_250526/joint/joint_38007749_1748248977.355.json,1748248977.355,0.0,16.26150603341584,-105.4369875464109,106.2345297029703,-90.79819480971534,-90.00065265315594,106.259765625
/home/najo/NAS/DIP/datasets/Fr5_intertek_dataset/Fr5_intertek_2nd_250526/left/zed_38007749_left_1748248977.355.jpg,38007749,left,1748248977.355,/home/najo/NAS/DIP/datasets/Fr5_intertek_dataset/Fr5_intertek_2nd_250526/joint/joint_38007749_1748248977.355.json,1748248977.355,0.0,16.26150603341584,-105.4369875464109,106.2345297029703,-90.79819480971534,-90.00065265315594,106.259765625
/home/najo/NAS/DIP/datasets/Fr5_intertek_dataset/Fr5_intertek_2nd_250526/right/zed_34850673_left_1748248977.360.jpg,34850673,left,1748248977.36,/home/najo/NAS/DIP/datasets/Fr5_intertek_dataset/Fr5_intertek_2nd_250526/joint/joint_34850673_1748248977.360.json,1748248977.36,0.0,16.20711827042079,-105.4365524443069,106.2340946008663,-90.7986299118193,-90.00065265315594,106.2053778620049
/home/najo/NAS/DIP/datasets/Fr5_intertek_dataset/Fr5_intertek_2nd_250526/right/zed_34850673_right_1748248977.360.jpg,34850673,right,1748248977.36,/home/najo/NAS/DIP/datasets/Fr5_intertek_dataset/Fr5_intertek_2nd_250526/joint/joint_34850673_1748248977.360.json,1748248977.36,0.0,16.20711827042079,-105.4365524443069,106.2340946008663,-90.7986299118193,-90.00065265315594,106.2053778620049
/home/najo/NAS/DIP/datasets/Fr5_intertek_dataset/Fr5_intertek_2nd_250526/top/zed_30779426_left_1748248977.487.jpg,30779426,left,1748248977.487,/home/najo/NAS/DIP/datasets/Fr5_intertek_dataset/Fr5_intertek_2nd_250526/joint/joint_30779426_1748248977.487.json,1748248977.487,0.0,13.8503877243193,-105.4182781559406,106.2208239866955,-90.8029809328589,-90.00021755105197,103.8449489480198
/home/najo/NAS/DIP/datasets/Fr5_intertek_dataset/Fr5_intertek_2nd_250526/top/zed_30779426_right_1748248977.487.jpg,30779426,right,1748248977.487,/home/najo/NAS/DIP/datasets/Fr5_intertek_dataset/Fr5_intertek_2nd_250526/joint/joint_30779426_1748248977.487.json,1748248977.487,0.0,13.8503877243193,-105.4182781559406,106.2208239866955,-90.8029809328589,-90.00021755105197,103.8449489480198
/home/najo/NAS/DIP/datasets/Fr5_intertek_dataset/Fr5_intertek_2nd_250526/left/zed_38007749_right_1748248977.494.jpg,38007749,right,1748248977.494,/home/najo/NAS/DIP/datasets/Fr5_intertek_dataset/Fr5_intertek_2nd_250526/joint/joint_38007749_1748248977.494.json,1748248977.494,0.0,13.81362159653465,-105.4178430538366,106.2206064356435,-90.80276338180693,-90.0,103.808617922339
/home/najo/NAS/DIP/datasets/Fr5_intertek_dataset/Fr5_intertek_2nd_250526/left/zed_38007749_left_1748248977.494.jpg,38007749,left,1748248977.494,/home/najo/NAS/DIP/datasets/Fr5_intertek_dataset/Fr5_intertek_2nd_250526/joint/joint_38007749_1748248977.494.json,1748248977.494,0.0,13.81362159653465,-105.4178430538366,106.2206064356435,-90.80276338180693,-90.0,103.808617922339
/home/najo/NAS/DIP/datasets/Fr5_intertek_dataset/Fr5_intertek_2nd_250526/right/zed_34850673_left_1748248977.498.jpg,34850673,left,1748248977.498,/home/najo/NAS/DIP/datasets/Fr5_intertek_dataset/Fr5_intertek_2nd_250526/joint/joint_34850673_1748248977.498.json,1748248977.498,0.0,13.68591912902227,-105.4167552985767,106.2197362314356,-90.80319848391089,-90.00021755105197,103.6828734142945
/home/najo/NAS/DIP/datasets/Fr5_intertek_dataset/Fr5_intertek_2nd_250526/right/zed_34850673_right_1748248977.498.jpg,34850673,right,1748248977.498,/home/najo/NAS/DIP/datasets/Fr5_intertek_dataset/Fr5_intertek_2nd_250526/joint/joint_34850673_1748248977.498.json,1748248977.498,0.0,13.68591912902227,-105.4167552985767,106.2197362314356,-90.80319848391089,-90.00021755105197,103.6828734142945
/home/najo/NAS/DIP/datasets/Fr5_intertek_dataset/Fr5_intertek_2nd_250526/top/zed_30779426_left_1748248977.627.jpg,30779426,left,1748248977.627,/home/najo/NAS/DIP/datasets/Fr5_intertek_dataset/Fr5_intertek_2nd_250526/joint/joint_30779426_1748248977.627.json,1748248977.627,0.0,11.4179494121287,-105.3986985612624,106.2071182704208,-90.8084197091584,-90.00065265315594,101.4203424737005
/home/najo/NAS/DIP/datasets/Fr5_intertek_dataset/Fr5_intertek_2nd_250526/top/zed_30779426_right_1748248977.627.jpg,30779426,right,1748248977.627,/home/najo/NAS/DIP/datasets/Fr5_intertek_dataset/Fr5_intertek_2nd_250526/joint/joint_30779426_1748248977.627.json,1748248977.627,0.0,11.4179494121287,-105.3986985612624,106.2071182704208,-90.8084197091584,-90.00065265315594,101.4203424737005
/home/najo/NAS/DIP/datasets/Fr5_intertek_dataset/Fr5_intertek_2nd_250526/left/zed_38007749_left_1748248977.632.jpg,38007749,left,1748248977.632,/home/najo/NAS/DIP/datasets/Fr5_intertek_dataset/Fr5_intertek_2nd_250526/joint/joint_38007749_1748248977.632.json,1748248977.632,0.0,11.31178449876237,-105.3980459081064,106.2062480662128,-90.8084197091584,-90.00065265315594,101.3126547029703
/home/najo/NAS/DIP/datasets/Fr5_intertek_dataset/Fr5_intertek_2nd_250526/left/zed_38007749_right_1748248977.632.jpg,38007749,right,1748248977.632,/home/najo/NAS/DIP/datasets/Fr5_intertek_dataset/Fr5_intertek_2nd_250526/joint/joint_38007749_1748248977.632.json,1748248977.632,0.0,11.31178449876237,-105.3980459081064,106.2062480662128,-90.8084197091584,-90.00065265315594,101.3126547029703
/home/najo/NAS/DIP/datasets/Fr5_intertek_dataset/Fr5_intertek_2nd_250526/right/zed_34850673_left_1748248977.637.jpg,34850673,left,1748248977.637,/home/najo/NAS/DIP/datasets/Fr5_intertek_dataset/Fr5_intertek_2nd_250526/joint/joint_34850673_1748248977.637.json,1748248977.637,0.0,11.2587020420792,-105.3976108060024,106.2060305151609,-90.8084197091584,-90.00021755105197,101.259789797339
/home/najo/NAS/DIP/datasets/Fr5_intertek_dataset/Fr5_intertek_2nd_250526/right/zed_34850673_right_1748248977.637.jpg,34850673,right,1748248977.637,/home/najo/NAS/DIP/datasets/Fr5_intertek_dataset/Fr5_intertek_2nd_250526/joint/joint_34850673_1748248977.637.json,1748248977.637,0.0,11.2587020420792,-105.3976108060024,106.2060305151609,-90.8084197091584,-90.00021755105197,101.259789797339
/home/najo/NAS/DIP/datasets/Fr5_intertek_dataset/Fr5_intertek_2nd_250526/top/zed_30779426_left_1748248977.763.jpg,30779426,left,1748248977.763,/home/najo/NAS/DIP/datasets/Fr5_intertek_dataset/Fr5_intertek_2nd_250526/joint/joint_30779426_1748248977.763.json,1748248977.763,0.0,8.915242110148515,-105.37977161974,106.193195003094,-90.81320583230197,-90.00043510210396,98.9152421101485
/home/najo/NAS/DIP/datasets/Fr5_intertek_dataset/Fr5_intertek_2nd_250526/top/zed_30779426_right_1748248977.763.jpg,30779426,right,1748248977.763,/home/najo/NAS/DIP/datasets/Fr5_intertek_dataset/Fr5_intertek_2nd_250526/joint/joint_30779426_1748248977.763.json,1748248977.763,0.0,8.915242110148515,-105.37977161974,106.193195003094,-90.81320583230197,-90.00043510210396,98.9152421101485
/home/najo/NAS/DIP/datasets/Fr5_intertek_dataset/Fr5_intertek_2nd_250526/left/zed_38007749_right_1748248977.769.jpg,38007749,right,1748248977.769,/home/najo/NAS/DIP/datasets/Fr5_intertek_dataset/Fr5_intertek_2nd_250526/joint/joint_38007749_1748248977.769.json,1748248977.769,0.0,8.897402923886139,-105.37977161974,106.193195003094,-90.81298828125,-90.00043510210396,98.89718537283416
/home/najo/NAS/DIP/datasets/Fr5_intertek_dataset/Fr5_intertek_2nd_250526/left/zed_38007749_left_1748248977.769.jpg,38007749,left,1748248977.769,/home/najo/NAS/DIP/datasets/Fr5_intertek_dataset/Fr5_intertek_2nd_250526/joint/joint_38007749_1748248977.769.json,1748248977.769,0.0,8.897402923886139,-105.37977161974,106.193195003094,-90.81298828125,-90.00043510210396,98.89718537283416
/home/najo/NAS/DIP/datasets/Fr5_intertek_dataset/Fr5_intertek_2nd_250526/right/zed_34850673_left_1748248977.774.jpg,34850673,left,1748248977.774,/home/najo/NAS/DIP/datasets/Fr5_intertek_dataset/Fr5_intertek_2nd_250526/joint/joint_34850673_1748248977.774.json,1748248977.774,0.0,8.738155553836634,-105.3780312113242,106.192324798886,-90.81342338335396,-90.00043510210396,98.73793800278466
/home/najo/NAS/DIP/datasets/Fr5_intertek_dataset/Fr5_intertek_2nd_250526/right/zed_34850673_right_1748248977.774.jpg,34850673,right,1748248977.774,/home/najo/NAS/DIP/datasets/Fr5_intertek_dataset/Fr5_intertek_2nd_250526/joint/joint_34850673_1748248977.774.json,1748248977.774,0.0,8.738155553836634,-105.3780312113242,106.192324798886,-90.81342338335396,-90.00043510210396,98.73793800278466
/home/najo/NAS/DIP/datasets/Fr5_intertek_dataset/Fr5_intertek_2nd_250526/top/zed_30779426_left_1748248977.901.jpg,30779426,left,1748248977.901,/home/najo/NAS/DIP/datasets/Fr5_intertek_dataset/Fr5_intertek_2nd_250526/joint/joint_30779426_1748248977.901.json,1748248977.901,0.0,6.466922571163366,-105.3619324334777,106.1803594910272,-90.81886215965346,-90.00065265315594,96.4664874690594
/home/najo/NAS/DIP/datasets/Fr5_intertek_dataset/Fr5_intertek_2nd_250526/top/zed_30779426_right_1748248977.901.jpg,30779426,right,1748248977.901,/home/najo/NAS/DIP/datasets/Fr5_intertek_dataset/Fr5_intertek_2nd_250526/joint/joint_30779426_1748248977.901.json,1748248977.901,0.0,6.466922571163366,-105.3619324334777,106.1803594910272,-90.81886215965346,-90.00065265315594,96.4664874690594
/home/najo/NAS/DIP/datasets/Fr5_intertek_dataset/Fr5_intertek_2nd_250526/left/zed_38007749_left_1748248977.905.jpg,38007749,left,1748248977.905,/home/najo/NAS/DIP/datasets/Fr5_intertek_dataset/Fr5_intertek_2nd_250526/joint/joint_38007749_1748248977.905.json,1748248977.905,0.0,6.376856435643564,-105.3608446782178,106.1799243889232,-90.81929726175743,-90.00065265315594,96.3740282719678
/home/najo/NAS/DIP/datasets/Fr5_intertek_dataset/Fr5_intertek_2nd_250526/left/zed_38007749_right_1748248977.905.jpg,38007749,right,1748248977.905,/home/najo/NAS/DIP/datasets/Fr5_intertek_dataset/Fr5_intertek_2nd_250526/joint/joint_38007749_1748248977.905.json,1748248977.905,0.0,6.376856435643564,-105.3608446782178,106.1799243889232,-90.81929726175743,-90.00065265315594,96.3740282719678
/home/najo/NAS/DIP/datasets/Fr5_intertek_dataset/Fr5_intertek_2nd_250526/right/zed_34850673_right_1748248977.911.jpg,34850673,right,1748248977.911,/home/najo/NAS/DIP/datasets/Fr5_intertek_dataset/Fr5_intertek_2nd_250526/joint/joint_34850673_1748248977.911.json,1748248977.911,0.0,6.304847037438119,-105.3599744740099,106.1797068378713,-90.81929726175743,-90.00043510210396,96.30180132271039
/home/najo/NAS/DIP/datasets/Fr5_intertek_dataset/Fr5_intertek_2nd_250526/right/zed_34850673_left_1748248977.911.jpg,34850673,left,1748248977.911,/home/najo/NAS/DIP/datasets/Fr5_intertek_dataset/Fr5_intertek_2nd_250526/joint/joint_34850673_1748248977.911.json,1748248977.911,0.0,6.304847037438119,-105.3599744740099,106.1797068378713,-90.81929726175743,-90.00043510210396,96.30180132271039
/home/najo/NAS/DIP/datasets/Fr5_intertek_dataset/Fr5_intertek_2nd_250526/top/zed_30779426_left_1748248978.038.jpg,30779426,left,1748248978.038,/home/najo/NAS/DIP/datasets/Fr5_intertek_dataset/Fr5_intertek_2nd_250526/joint/joint_30779426_1748248978.038.json,1748248978.038,0.0,4.02295405321782,-105.3427879409034,106.1675239789604,-90.82408338490097,-90.00043510210396,94.02230140006186
/home/najo/NAS/DIP/datasets/Fr5_intertek_dataset/Fr5_intertek_2nd_250526/top/zed_30779426_right_1748248978.038.jpg,30779426,right,1748248978.038,/home/najo/NAS/DIP/datasets/Fr5_intertek_dataset/Fr5_intertek_2nd_250526/joint/joint_30779426_1748248978.038.json,1748248978.038,0.0,4.02295405321782,-105.3427879409034,106.1675239789604,-90.82408338490097,-90.00043510210396,94.02230140006186
/home/najo/NAS/DIP/datasets/Fr5_intertek_dataset/Fr5_intertek_2nd_250526/left/zed_38007749_right_1748248978.043.jpg,38007749,right,1748248978.043,/home/najo/NAS/DIP/datasets/Fr5_intertek_dataset/Fr5_intertek_2nd_250526/joint/joint_38007749_1748248978.043.json,1748248978.043,0.0,3.969218943378713,-105.3425703898515,106.1673064279084,-90.82430093595298,-89.99978244894803,93.96900139232673
/home/najo/NAS/DIP/datasets/Fr5_intertek_dataset/Fr5_intertek_2nd_250526/left/zed_38007749_left_1748248978.043.jpg,38007749,left,1748248978.043,/home/najo/NAS/DIP/datasets/Fr5_intertek_dataset/Fr5_intertek_2nd_250526/joint/joint_38007749_1748248978.043.json,1748248978.043,0.0,3.969218943378713,-105.3425703898515,106.1673064279084,-90.82430093595298,-89.99978244894803,93.96900139232673
/home/najo/NAS/DIP/datasets/Fr5_intertek_dataset/Fr5_intertek_2nd_250526/right/zed_34850673_left_1748248978.048.jpg,34850673,left,1748248978.048,/home/najo/NAS/DIP/datasets/Fr5_intertek_dataset/Fr5_intertek_2nd_250526/joint/joint_34850673_1748248978.048.json,1748248978.048,0.0,3.860878519492574,-105.3419177366955,106.1666537747524,-90.82451848700495,-90.00043510210396,93.86000831528466
/home/najo/NAS/DIP/datasets/Fr5_intertek_dataset/Fr5_intertek_2nd_250526/right/zed_34850673_right_1748248978.048.jpg,34850673,right,1748248978.048,/home/najo/NAS/DIP/datasets/Fr5_intertek_dataset/Fr5_intertek_2nd_250526/joint/joint_34850673_1748248978.048.json,1748248978.048,0.0,3.860878519492574,-105.3419177366955,106.1666537747524,-90.82451848700495,-90.00043510210396,93.86000831528466
/home/najo/NAS/DIP/datasets/Fr5_intertek_dataset/Fr5_intertek_2nd_250526/top/zed_30779426_right_1748248978.175.jpg,30779426,right,1748248978.175,/home/najo/NAS/DIP/datasets/Fr5_intertek_dataset/Fr5_intertek_2nd_250526/joint/joint_30779426_1748248978.175.json,1748248978.175,0.0,1.53830348855198,-105.324078550433,106.1538182626856,-90.8293046101485,-89.99978244894803,91.53482267172029
/home/najo/NAS/DIP/datasets/Fr5_intertek_dataset/Fr5_intertek_2nd_250526/top/zed_30779426_left_1748248978.175.jpg,30779426,left,1748248978.175,/home/najo/NAS/DIP/datasets/Fr5_intertek_dataset/Fr5_intertek_2nd_250526/joint/joint_30779426_1748248978.175.json,1748248978.175,0.0,1.53830348855198,-105.324078550433,106.1538182626856,-90.8293046101485,-89.99978244894803,91.53482267172029
/home/najo/NAS/DIP/datasets/Fr5_intertek_dataset/Fr5_intertek_2nd_250526/left/zed_38007749_right_1748248978.179.jpg,38007749,right,1748248978.179,/home/najo/NAS/DIP/datasets/Fr5_intertek_dataset/Fr5_intertek_2nd_250526/joint/joint_38007749_1748248978.179.json,1748248978.179,0.0,1.48391572555693,-105.323643448329,106.1536007116336,-90.82973971225248,-90.00021755105197,91.4819577660891
/home/najo/NAS/DIP/datasets/Fr5_intertek_dataset/Fr5_intertek_2nd_250526/left/zed_38007749_left_1748248978.179.jpg,38007749,left,1748248978.179,/home/najo/NAS/DIP/datasets/Fr5_intertek_dataset/Fr5_intertek_2nd_250526/joint/joint_38007749_1748248978.179.json,1748248978.179,0.0,1.48391572555693,-105.323643448329,106.1536007116336,-90.82973971225248,-90.00021755105197,91.4819577660891
/home/najo/NAS/DIP/datasets/Fr5_intertek_dataset/Fr5_intertek_2nd_250526/right/zed_34850673_left_1748248978.185.jpg,34850673,left,1748248978.185,/home/najo/NAS/DIP/datasets/Fr5_intertek_dataset/Fr5_intertek_2nd_250526/joint/joint_34850673_1748248978.185.json,1748248978.185,0.0,1.32031733446782,-105.3223381420173,106.1527305074257,-90.82995726330445,-90.00043510210396,91.31857692605197
/home/najo/NAS/DIP/datasets/Fr5_intertek_dataset/Fr5_intertek_2nd_250526/right/zed_34850673_right_1748248978.185.jpg,34850673,right,1748248978.185,/home/najo/NAS/DIP/datasets/Fr5_intertek_dataset/Fr5_intertek_2nd_250526/joint/joint_34850673_1748248978.185.json,1748248978.185,0.0,1.32031733446782,-105.3223381420173,106.1527305074257,-90.82995726330445,-90.00043510210396,91.31857692605197
/home/najo/NAS/DIP/datasets/Fr5_intertek_dataset/Fr5_intertek_2nd_250526/top/zed_30779426_right_1748248978.313.jpg,30779426,right,1748248978.313,/home/najo/NAS/DIP/datasets/Fr5_intertek_dataset/Fr5_intertek_2nd_250526/joint/joint_30779426_1748248978.313.json,1748248978.313,0.0,-0.9465646271658416,-105.3047165068069,106.1396774443069,-90.8349609375,-90.00021755105197,89.04799659653466
/home/najo/NAS/DIP/datasets/Fr5_intertek_dataset/Fr5_intertek_2nd_250526/top/zed_30779426_left_1748248978.313.jpg,30779426,left,1748248978.313,/home/najo/NAS/DIP/datasets/Fr5_intertek_dataset/Fr5_intertek_2nd_250526/joint/joint_30779426_1748248978.313.json,1748248978.313,0.0,-0.9465646271658416,-105.3047165068069,106.1396774443069,-90.8349609375,-90.00021755105197,89.04799659653466
