Najongs/2025_ICRA_Multi_View_Robot_Pose_Estimation/dataset/Meca_insertion/vla_dataset3_hand2/robot_data_interpolated.csv
timestamp,j1,j2,j3,j4,j5,j6,x,y,z,rx,ry,rz,datetime
1747200969.301,23.49,37.51,-6.75,28.19,54.87,-49.47,185.09,109.91,149.4,-156.13,-2.22,123.07,2025-05-14 14:36:09.301
1747200969.311,23.48563106897246,37.50514563219162,-6.768932034452667,28.18466019541079,54.8933009654802,-49.4622330115066,185.09728155171257,109.8998058276024,149.46019416082387,-156.1275728160958,-2.22,123.06951456321916,2025-05-14 14:36:09.311
1747200969.321,23.48126213794492,37.50029126438324,-6.787864068905334,28.179320390821573,54.91660193096041,-49.4544660230132,185.10456310342514,109.88961165520482,149.52038832164774,-156.12514563219162,-2.22,123.06902912643832,2025-05-14 14:36:09.321
1747200969.331,23.47689320691738,37.49543689657487,-6.806796103358001,28.17398058623236,54.939902896440614,-49.446699034519796,185.1118446551377,109.87941748280723,149.58058248247158,-156.12271844828743,-2.22,123.06854368965749,2025-05-14 14:36:09.331
1747200969.341,23.472524275889846,37.490582528766495,-6.825728137810668,28.168640781643145,54.96320386192082,-49.438932046026395,185.11912620685027,109.86922331040964,149.64077664329545,-156.12029126438324,-2.22,123.06805825287664,2025-05-14 14:36:09.341
1747200969.351,23.468155344862307,37.48572816095812,-6.8446601722633345,28.163300977053932,54.98650482740103,-49.43116505753299,185.12640775856283,109.85902913801205,149.70097080411932,-156.11786408047905,-2.22,123.0675728160958,2025-05-14 14:36:09.351
1747200969.361,23.463786413834768,37.48087379314974,-6.863592206716001,28.157961172464717,55.00980579288123,-49.42339806903959,185.1336893102754,109.84883496561446,149.7611649649432,-156.11543689657486,-2.22,123.06708737931497,2025-05-14 14:36:09.361
1747200969.371,23.45941748280723,37.47601942534136,-6.882524241168668,28.152621367875504,55.033106758361434,-49.415631080546184,185.14097086198797,109.83864079321687,149.82135912576706,-156.11300971267067,-2.22,123.06660194253413,2025-05-14 14:36:09.371
1747200969.381,23.45504855177969,37.471165057532986,-6.901456275621335,28.147281563286292,55.056407723841644,-49.40786409205278,185.14825241370053,109.82844662081928,149.8815532865909,-156.11058252876649,-2.22,123.0661165057533,2025-05-14 14:36:09.381
1747200969.391,23.45067962075215,37.466310689724615,-6.920388310074002,28.141941758697076,55.07970868932185,-49.40009710355938,185.15553396541307,109.81825244842169,149.94174744741477,-156.1081553448623,-2.22,123.06563106897246,2025-05-14 14:36:09.391
1747200969.401,23.446310689724612,37.46145632191624,-6.939320344526669,28.136601954107864,55.10300965480205,-49.39233011506598,185.16281551712564,109.8080582760241,150.00194160823864,-156.10572816095814,-2.22,123.06514563219162,2025-05-14 14:36:09.401
1747200969.411,23.441941758697073,37.45660195410786,-6.958252378979336,28.131262149518648,55.12631062028226,-49.38456312657258,185.1700970688382,109.79786410362651,150.0621357690625,-156.10330097705395,-2.22,123.06466019541078,2025-05-14 14:36:09.411
1747200969.421,23.437572827669538,37.45174758629948,-6.977184413432003,28.125922344929435,55.149611585762464,-49.37679613807918,185.17737862055077,109.78766993122892,150.12232992988638,-156.10087379314976,-2.22,123.06417475862995,2025-05-14 14:36:09.421
1747200969.431,23.433203896642,37.446893218491105,-6.99611644788467,28.12058254034022,55.17291255124267,-49.36902914958578,185.18466017226334,109.77747575883133,150.18252409071022,-156.09844660924557,-2.22,123.06368932184911,2025-05-14 14:36:09.431
1747200969.441,23.42883496561446,37.44203885068273,-7.0150484823373365,28.115242735751007,55.19621351672288,-49.36126216109238,185.1919417239759,109.76728158643374,150.2427182515341,-156.09601942534138,-2.22,123.06320388506828,2025-05-14 14:36:09.441
1747200969.451,23.42446603458692,37.43718448287436,-7.033980516790003,28.10990293116179,55.21951448220308,-49.353495172598976,185.19922327568847,109.75708741403615,150.30291241235795,-156.0935922414372,-2.22,123.06271844828744,2025-05-14 14:36:09.451
1747200969.461,23.42009710355938,37.43233011506598,-7.05291255124267,28.10456312657258,55.242815447683284,-49.345728184105575,185.20650482740103,109.74689324163856,150.36310657318182,-156.091165057533,-2.22,123.06223301150659,2025-05-14 14:36:09.461
1747200969.471,23.415728172531843,37.4274757472576,-7.071844585695338,28.099223321983366,55.266116413163495,-49.33796119561217,185.2137863791136,109.73669906924097,150.4233007340057,-156.08873787362882,-2.22,123.06174757472576,2025-05-14 14:36:09.471
1747200969.481,23.411359241504304,37.422621379449225,-7.090776620148005,28.09388351739415,55.2894173786437,-49.33019420711877,185.22106793082617,109.72650489684338,150.48349489482953,-156.08631068972463,-2.22,123.06126213794492,2025-05-14 14:36:09.481
1747200969.491,23.40699031047677,37.41776701164085,-7.109708654600672,28.08854371280494,55.31271834412391,-49.322427218625364,185.22834948253873,109.71631072444579,150.5436890556534,-156.08388350582044,-2.22,123.06077670116409,2025-05-14 14:36:09.491
1747200969.501,23.40262137944923,37.41291264383247,-7.128640689053339,28.083203908215722,55.33601930960411,-49.31466023013196,185.2356310342513,109.7061165520482,150.60388321647727,-156.08145632191625,-2.22,123.06029126438325,2025-05-14 14:36:09.501
1747200969.507,23.4,37.41,-7.14,28.08,55.35,-49.31,185.24,109.7,150.64,-156.08,-2.22,123.06,2025-05-14 14:36:09.507
1747200969.517,23.398224855326603,37.40763314043547,-7.14710057869358,28.078224855326603,55.35887572336698,-49.30704142554434,185.24295857445566,109.69585799576208,150.66307688075412,-156.07940828510888,-2.220591714891132,123.06,2025-05-14 14:36:09.517
1747200969.527,23.396449710653208,37.40526628087094,-7.15420115738716,28.076449710653208,55.367751446733955,-49.30408285108869,185.24591714891133,109.69171599152416,150.68615376150825,-156.07881657021775,-2.2211834297822635,123.06,2025-05-14 14:36:09.527
1747200969.537,23.394674565979813,37.402899421306415,-7.16130173608074,28.074674565979812,55.376627170100925,-49.301124276633026,185.24887572336698,109.68757398728624,150.70923064226238,-156.07822485532662,-2.221775144673395,123.06,2025-05-14 14:36:09.537
1747200969.547,23.392899421306417,37.40053256174189,-7.168402314774321,28.072899421306417,55.3855028934679,-49.298165702177364,185.25183429782263,109.68343198304831,150.73230752301654,-156.0776331404355,-2.2223668595645267,123.06,2025-05-14 14:36:09.547
1747200969.557,23.391124276633025,37.398165702177366,-7.1755028934679,28.071124276633025,55.39437861683488,-49.29520712772171,185.2547928722783,109.67928997881039,150.75538440377068,-156.07704142554434,-2.2229585744556584,123.06,2025-05-14 14:36:09.557
1747200969.567,23.38934913195963,37.395798842612834,-7.182603472161481,28.06934913195963,55.403254340201855,-49.29224855326605,185.25775144673395,109.67514797457247,150.7784612845248,-156.0764497106532,-2.22355028934679,123.06,2025-05-14 14:36:09.567
1747200969.577,23.387573987286235,37.39343198304831,-7.189704050855061,28.067573987286234,55.412130063568824,-49.289289978810395,185.26071002118962,109.67100597033455,150.80153816527894,-156.07585799576208,-2.224142004237922,123.06,2025-05-14 14:36:09.577
1747200969.587,23.38579884261284,37.391065123483784,-7.196804629548641,28.06579884261284,55.4210057869358,-49.28633140435473,185.26366859564527,109.66686396609663,150.82461504603307,-156.07526628087095,-2.2247337191290537,123.06,2025-05-14 14:36:09.587
1747200969.597,23.384023697939444,37.38869826391926,-7.2039052082422215,28.064023697939444,55.42988151030278,-49.28337282989907,185.26662717010092,109.66272196185871,150.8476919267872,-156.07467456597982,-2.2253254340201853,123.06,2025-05-14 14:36:09.597
1747200969.607,23.382248510943263,37.38633134792435,-7.211005956226951,28.062248510943263,55.43875744528369,-49.28041418490544,185.26958581509456,109.65857985886761,150.8707693577376,-156.0740828369811,-2.2259171630189125,123.06,2025-05-14 14:36:09.607
1747200969.617,23.380473366269868,37.38396448835982,-7.218106534920532,28.060473366269868,55.44763316865067,-49.27745561044978,185.27254438955023,109.65443785462969,150.89384623849173,-156.07349112208996,-2.2265088779100446,123.06,2025-05-14 14:36:09.617
1747200969.627,23.378698221596473,37.38159762879529,-7.225207113614112,28.058698221596472,55.45650889201764,-49.274497035994116,185.27550296400588,109.65029585039177,150.91692311924587,-156.07289940719883,-2.2271005928011762,123.06,2025-05-14 14:36:09.627
1747200969.637,23.376923076923077,37.379230769230766,-7.232307692307692,28.056923076923077,55.465384615384615,-49.27153846153846,185.27846153846153,109.64615384615384,150.94,-156.0723076923077,-2.227692307692308,123.06,2025-05-14 14:36:09.637
1747200969.647,23.375147932249682,37.37686390966624,-7.239408271001272,28.05514793224968,55.47426033875159,-49.2685798870828,185.2814201129172,109.64201184191592,150.96307688075413,-156.07171597741655,-2.2282840225834395,123.06,2025-05-14 14:36:09.647
1747200969.657,23.373372787576287,37.374497050101716,-7.246508849694853,28.053372787576286,55.48313606211857,-49.26562131262715,185.28437868737285,109.637869837678,150.98615376150826,-156.07112426252542,-2.228875737474571,123.06,2025-05-14 14:36:09.657
1747200969.667,23.37159764290289,37.372130190537185,-7.253609428388432,28.05159764290289,55.49201178548554,-49.262662738171485,185.2873372618285,109.63372783344008,151.0092306422624,-156.0705325476343,-2.2294674523657028,123.06,2025-05-14 14:36:09.667
1747200969.676,23.37,37.37,-7.26,28.05,55.5,-49.26,185.29,109.63,151.03,-156.07,-2.23,123.06,2025-05-14 14:36:09.676
1747200969.686,23.363,37.36,-7.295999999999999,28.04,55.543,-49.244,185.303,109.61,151.145,-156.066,-2.23,123.059,2025-05-14 14:36:09.686
1747200969.696,23.356,37.35,-7.332,28.03,55.586,-49.228,185.316,109.59,151.26,-156.06199999999998,-2.23,123.058,2025-05-14 14:36:09.696
1747200969.706,23.349,37.339999999999996,-7.368,28.02,55.629,-49.211999999999996,185.32899999999998,109.57,151.375,-156.058,-2.23,123.057,2025-05-14 14:36:09.706
1747200969.716,23.342000000000002,37.33,-7.404,28.01,55.672,-49.196,185.34199999999998,109.55,151.49,-156.054,-2.23,123.056,2025-05-14 14:36:09.716
1747200969.726,23.335,37.32,-7.4399999999999995,28.0,55.714999999999996,-49.18,185.355,109.53,151.60500000000002,-156.05,-2.23,123.055,2025-05-14 14:36:09.726
1747200969.736,23.328,37.31,-7.476,27.99,55.758,-49.164,185.368,109.51,151.72,-156.046,-2.23,123.054,2025-05-14 14:36:09.736
1747200969.746,23.321,37.300000000000004,-7.5120000000000005,27.98,55.801,-49.148,185.381,109.49000000000001,151.835,-156.042,-2.23,123.053,2025-05-14 14:36:09.746
1747200969.756,23.314,37.29,-7.548,27.97,55.844,-49.132,185.39399999999998,109.47,151.95000000000002,-156.038,-2.23,123.05199999999999,2025-05-14 14:36:09.756
1747200969.766,23.307000000000002,37.28,-7.584,27.96,55.887,-49.116,185.40699999999998,109.45,152.065,-156.034,-2.23,123.051,2025-05-14 14:36:09.766
1747200969.776,23.3,37.27,-7.62,27.95,55.93,-49.1,185.42,109.43,152.18,-156.03,-2.23,123.05,2025-05-14 14:36:09.776
1747200969.786,23.296,37.265,-7.638,27.945999999999998,55.952,-49.093,185.426,109.42,152.237,-156.028,-2.231,123.05,2025-05-14 14:36:09.786
1747200969.796,23.292,37.260000000000005,-7.656,27.942,55.974,-49.086,185.432,109.41000000000001,152.294,-156.026,-2.232,123.05,2025-05-14 14:36:09.796
1747200969.806,23.288,37.255,-7.674,27.938,55.996,-49.079,185.438,109.4,152.351,-156.024,-2.233,123.05,2025-05-14 14:36:09.806
1747200969.816,23.284000000000002,37.25,-7.692,27.934,56.018,-49.072,185.444,109.39,152.40800000000002,-156.022,-2.234,123.05,2025-05-14 14:36:09.816
1747200969.826,23.28,37.245000000000005,-7.71,27.93,56.04,-49.065,185.45,109.38,152.465,-156.01999999999998,-2.2350000000000003,123.05,2025-05-14 14:36:09.826
1747200969.836,23.276,37.24,-7.728,27.926,56.062,-49.058,185.456,109.37,152.522,-156.018,-2.236,123.05,2025-05-14 14:36:09.836
1747200969.846,23.272000000000002,37.235,-7.7459999999999996,27.922,56.083999999999996,-49.051,185.462,109.36,152.579,-156.016,-2.237,123.05,2025-05-14 14:36:09.846
1747200969.856,23.268,37.23,-7.764,27.918,56.106,-49.044000000000004,185.468,109.35,152.636,-156.01399999999998,-2.238,123.05,2025-05-14 14:36:09.856
1747200969.866,23.264000000000003,37.225,-7.782,27.914,56.128,-49.037,185.474,109.34,152.693,-156.012,-2.2390000000000003,123.05,2025-05-14 14:36:09.866
1747200969.876,23.26,37.22,-7.8,27.91,56.15,-49.03,185.48,109.33,152.75,-156.01,-2.24,123.05,2025-05-14 14:36:09.876
1747200969.886,23.25670330274941,37.21615385320764,-7.814835137627658,27.90560440366588,56.168131834878245,-49.023956055040586,185.4849450458759,109.32120880733176,152.7972526605918,-156.00835165137468,-2.24,123.04945055045823,2025-05-14 14:36:09.886
1747200969.896,23.25340660549882,37.21230770641529,-7.829670275255317,27.90120880733176,56.1862636697565,-49.01791211008117,185.48989009175176,109.31241761466352,152.84450532118362,-156.0067033027494,-2.24,123.04890110091647,2025-05-14 14:36:09.896
1747200969.906,23.25010990824823,37.20846155962293,-7.844505412882976,27.896813210997635,56.204395504634746,-49.011868165121754,185.49483513762766,109.30362642199528,152.8917579817754,-156.0050549541241,-2.24,123.0483516513747,2025-05-14 14:36:09.906
1747200969.916,23.246813210997637,37.20461541283058,-7.859340550510635,27.892417614663515,56.22252733951299,-49.00582422016234,185.49978018350353,109.29483522932703,152.9390106423672,-156.0034066054988,-2.24,123.04780220183294,2025-05-14 14:36:09.916
1747200969.926,23.243516435147583,37.200769174338845,-7.874176041835874,27.88802191353011,56.24065960668829,-48.999780131103904,185.50472534727862,109.28604382706023,152.9862644295513,-156.00175821757378,-2.24,123.04725273919126,2025-05-14 14:36:09.926
1747200969.936,23.240219737896993,37.19692302754649,-7.889011179463532,27.88362631719599,56.25879144156654,-48.99373618614449,185.5096703931545,109.27725263439198,153.0335170901431,-156.0001098689485,-2.24,123.0467032896495,2025-05-14 14:36:09.936
1747200969.946,23.236923040646403,37.193076880754134,-7.903846317091191,27.87923072086187,56.27692327644478,-48.98769224118507,185.5146154390304,109.26846144172374,153.0807697507349,-155.9984615203232,-2.24,123.04615384010773,2025-05-14 14:36:09.946
1747200969.956,23.233626343395812,37.18923073396178,-7.9186814547188495,27.87483512452775,56.29505511132304,-48.98164829622566,185.51956048490626,109.2596702490555,153.12802241132673,-155.9968131716979,-2.24,123.04560439056597,2025-05-14 14:36:09.956
1747200969.966,23.230329646145222,37.18538458716942,-7.933516592346509,27.870439528193625,56.313186946201284,-48.97560435126624,185.52450553078216,109.25087905638725,153.17527507191852,-155.9951648230726,-2.24,123.0450549410242,2025-05-14 14:36:09.966
1747200969.976,23.227032948894628,37.18153844037707,-7.948351729974167,27.866043931859505,56.33131878107954,-48.96956040630682,185.52945057665804,109.24208786371901,153.22252773251031,-155.99351647444732,-2.24,123.04450549148244,2025-05-14 14:36:09.976
1747200969.986,23.223736251644038,37.17769229358471,-7.963186867601825,27.861648335525384,56.349450615957785,-48.9635164613474,185.53439562253394,109.23329667105077,153.2697803931021,-155.991868125822,-2.24,123.04395604194067,2025-05-14 14:36:09.986
1747200969.996,23.220439554393447,37.17384614679236,-7.978022005229485,27.857252739191264,56.36758245083603,-48.95747251638799,185.5393406684098,109.22450547838253,153.31703305369393,-155.99021977719673,-2.24,123.04340659239891,2025-05-14 14:36:09.996
1747200970.006,23.217142857142857,37.17,-7.992857142857143,27.852857142857143,56.385714285714286,-48.95142857142857,185.5442857142857,109.21571428571428,153.36428571428573,-155.98857142857142,-2.24,123.04285714285714,2025-05-14 14:36:10.006
1747200970.016,23.213846159892267,37.16615385320764,-8.007692280484802,27.84846154652302,56.40384612059253,-48.945384626469156,185.5492307601616,109.20692309304604,153.41153837487752,-155.9869230799461,-2.24,123.04230769331538,2025-05-14 14:36:10.016
1747200970.026,23.210549462641676,37.162307706415284,-8.02252741811246,27.8440659501889,56.42197795547078,-48.93934068150974,185.55417580603748,109.1981319003778,153.45879103546932,-155.98527473132083,-2.24,123.04175824377361,2025-05-14 14:36:10.026
1747200970.036,23.207252765391086,37.15846155962293,-8.037362555740119,27.83967035385478,56.440109790349034,-48.933296736550325,185.55912085191338,109.18934070770956,153.50604369606114,-155.98362638269552,-2.24,123.04120879423185,2025-05-14 14:36:10.036
1747200970.046,23.203956068140492,37.15461541283057,-8.052197693367777,27.835274757520658,56.45824162522728,-48.92725279159091,185.56406589778925,109.18054951504132,153.55329635665294,-155.98197803407024,-2.24,123.04065934469008,2025-05-14 14:36:10.046
1747200970.056,23.200659370889902,37.15076926603822,-8.067032830995437,27.830879161186537,56.47637346010553,-48.921208846631494,185.56901094366515,109.17175832237308,153.60054901724473,-155.98032968544493,-2.24,123.04010989514832,2025-05-14 14:36:10.056
1747200970.058,23.2,37.15,-8.07,27.83,56.48,-48.92,185.57,109.17,153.61,-155.98,-2.24,123.04,2025-05-14 14:36:10.058
1747200970.068,23.195049501444675,37.143069302022546,-8.09376239306555,27.82405940173361,56.509702991331935,-48.91009900288935,185.57693069797745,109.1561386040451,153.686237677752,-155.9770297008668,-2.24,123.04,2025-05-14 14:36:10.068
1747200970.078,23.190099002889355,37.136138604045094,-8.117524786131098,27.818118803467225,56.53940598266387,-48.90019800577871,185.5838613959549,109.14227720809019,153.76247535550394,-155.9740594017336,-2.24,123.04,2025-05-14 14:36:10.078
1747200970.088,23.18514850433403,37.12920790606764,-8.141287179196647,27.812178205200837,56.5691089739958,-48.890297008668064,185.59079209393235,109.12841581213529,153.8387130332559,-155.97108910260042,-2.24,123.04,2025-05-14 14:36:10.088
1747200970.098,23.18019800577871,37.12227720809019,-8.165049572262195,27.80623760693445,56.59881196532774,-48.88039601155742,185.5977227919098,109.11455441618038,153.9149507110079,-155.9681188034672,-2.24,123.04,2025-05-14 14:36:10.098
1747200970.108,23.175247507223386,37.11534651011274,-8.188811965327744,27.800297008668064,56.62851495665968,-48.870495014446774,185.60465348988726,109.10069302022548,153.99118838875984,-155.96514850433402,-2.24,123.04,2025-05-14 14:36:10.108
1747200970.118,23.17029700866806,37.10841581213529,-8.212574358393292,27.794356410401676,56.658217947991616,-48.860594017336126,185.6115841878647,109.08683162427059,154.0674260665118,-155.96217820520081,-2.24,123.04,2025-05-14 14:36:10.118
1747200970.128,23.16534651011274,37.10148511415784,-8.236336751458841,27.788415812135288,56.687920939323554,-48.850693020225485,185.61851488584216,109.07297022831568,154.1436637442638,-155.95920790606763,-2.24,123.04,2025-05-14 14:36:10.128
1747200970.138,23.160396011557417,37.09455441618039,-8.26009914452439,27.782475213868903,56.717623930655485,-48.84079202311484,185.6254455838196,109.05910883236078,154.21990142201574,-155.95623760693445,-2.24,123.04,2025-05-14 14:36:10.138
1747200970.148,23.155445513002096,37.087623718202934,-8.283861537589939,27.776534615602515,56.74732692198742,-48.830891026004196,185.63237628179706,109.04524743640587,154.29613909976771,-155.95326730780124,-2.24,123.04,2025-05-14 14:36:10.148
1747200970.158,23.150495014446772,37.08069302022548,-8.307623930655488,27.770594017336126,56.77702991331936,-48.82099002889355,185.63930697977452,109.03138604045097,154.3723767775197,-155.95029700866806,-2.24,123.04,2025-05-14 14:36:10.158
1747200970.159,23.15,37.08,-8.31,27.77,56.78,-48.82,185.64,109.03,154.38,-155.95,-2.24,123.04,2025-05-14 14:36:10.159
1747200970.169,23.146850399022295,37.0768503990223,-8.321811003666387,27.766850399022296,56.79417320439966,-48.81448819828902,185.64393700122213,109.02291339780017,154.41779521173243,-155.94921259975555,-2.240787400244426,123.03921259975559,2025-05-14 14:36:10.169
1747200970.179,23.14370079804459,37.07370079804459,-8.333622007332774,27.763700798044592,56.80834640879933,-48.80897639657804,185.64787400244424,109.01582679560033,154.45559042346488,-155.94842519951115,-2.2415748004888516,123.03842519951115,2025-05-14 14:36:10.179
1747200970.189,23.140551197066888,37.07055119706689,-8.34543301099916,27.76055119706689,56.82251961319899,-48.80346459486706,185.65181100366638,109.0087401934005,154.4933856351973,-155.94763779926672,-2.2423622007332775,123.03763779926673,2025-05-14 14:36:10.189
1747200970.199,23.137401596089187,37.067401596089184,-8.357244014665548,27.75740159608919,56.83669281759866,-48.79795279315608,185.6557480048885,109.00165359120066,154.53118084692974,-155.94685039902228,-2.2431496009777034,123.0368503990223,2025-05-14 14:36:10.199
1747200970.209,23.13425192001907,37.064251920019075,-8.369055299928474,27.754251920019072,56.85086635991417,-48.79244086003338,185.65968509997614,108.99456682004292,154.56897695977113,-155.94606298000477,-2.2439370199952315,123.03606298000477,2025-05-14 14:36:10.209
1747200970.219,23.131102319041368,37.06110231904137,-8.380866303594862,27.75110231904137,56.86503956431383,-48.7869290583224,185.66362210119829,108.98748021784309,154.60677217150356,-155.94527557976033,-2.2447244202396575,123.03527557976035,2025-05-14 14:36:10.219
1747200970.229,23.127952718063668,37.05795271806367,-8.392677307261248,27.74795271806367,56.8792127687135,-48.78141725661142,185.6675591024204,108.98039361564325,154.644567383236,-155.9444881795159,-2.2455118204840834,123.03448817951592,2025-05-14 14:36:10.229
1747200970.239,23.124803117085964,37.05480311708596,-8.404488310927636,27.744803117085965,56.89338597311316,-48.77590545490044,185.67149610364254,108.97330701344342,154.68236259496845,-155.9437007792715,-2.2462992207285093,123.0337007792715,2025-05-14 14:36:10.239
1747200970.249,23.12165351610826,37.05165351610826,-8.416299314594022,27.74165351610826,56.90755917751283,-48.77039365318946,185.67543310486468,108.96622041124358,154.72015780670088,-155.94291337902706,-2.2470866209729348,123.03291337902706,2025-05-14 14:36:10.249
1747200970.259,23.118503915130557,37.04850391513056,-8.42811031826041,27.738503915130558,56.92173238191249,-48.76488185147848,185.6793701060868,108.95913380904375,154.7579530184333,-155.94212597878263,-2.2478740212173607,123.03212597878264,2025-05-14 14:36:10.259
1747200970.269,23.115354314152853,37.04535431415285,-8.439921321926796,27.735354314152854,56.93590558631216,-48.7593700497675,185.68330710730893,108.95204720684391,154.79574823016577,-155.94133857853822,-2.2486614214617866,123.03133857853821,2025-05-14 14:36:10.269
1747200970.279,23.11220471317515,37.04220471317515,-8.451732325593184,27.73220471317515,56.95007879071182,-48.75385824805652,185.68724410853105,108.9449606046441,154.8335434418982,-155.9405511782938,-2.249448821706212,123.03055117829379,2025-05-14 14:36:10.279
1747200970.286,23.11,37.04,-8.46,27.73,56.96,-48.75,185.69,108.94,154.86,-155.94,-2.25,123.03,2025-05-14 14:36:10.286
1747200970.296,23.10513513826993,37.033513517693244,-8.482702688073655,27.72405405788547,56.98756754980372,-48.74081081673209,185.69648648230677,108.92648649519425,154.9324323857588,-155.93783783923107,-2.25,123.02945945980777,2025-05-14 14:36:10.296
1747200970.306,23.100270276539863,37.02702703538648,-8.50540537614731,27.718108115770942,57.01513509960745,-48.73162163346419,185.7029729646135,108.91297299038851,155.00486477151762,-155.93567567846216,-2.25,123.02891891961553,2025-05-14 14:36:10.306
1747200970.316,23.095405414809793,37.02054055307973,-8.528108064220964,27.712162173656413,57.04270264941117,-48.72243245019628,185.70945944692028,108.89945948558275,155.0772971572764,-155.93351351769323,-2.25,123.02837837942332,2025-05-14 14:36:10.316
1747200970.326,23.090540553079723,37.014054070772964,-8.55081075229462,27.706216231541887,57.070270199214896,-48.713243266928366,185.71594592922702,108.88594598077701,155.14972954303522,-155.93135135692432,-2.25,123.02783783923108,2025-05-14 14:36:10.326
1747200970.336,23.085675691349657,37.00756758846621,-8.573513440368274,27.70027028942736,57.097837749018616,-48.70405408366046,185.7224324115338,108.87243247597127,155.222161928794,-155.9291891961554,-2.25,123.02729729903885,2025-05-14 14:36:10.336
1747200970.346,23.080810829619587,37.00108110615945,-8.59621612844193,27.69432434731283,57.12540529882234,-48.69486490039255,185.72891889384056,108.85891897116552,155.29459431455282,-155.9270270353865,-2.25,123.02675675884662,2025-05-14 14:36:10.346
1747200970.356,23.075945967889517,36.99459462385269,-8.618918816515583,27.6883784051983,57.152972848626064,-48.685675717124646,185.7354053761473,108.84540546635976,155.3670267003116,-155.92486487461755,-2.25,123.02621621865438,2025-05-14 14:36:10.356
1747200970.366,23.071081106159447,36.98810814154593,-8.641621504589237,27.68243246308377,57.18054039842979,-48.67648653385674,185.74189185845407,108.83189196155402,155.43945908607043,-155.92270271384865,-2.25,123.02567567846216,2025-05-14 14:36:10.366
1747200970.376,23.06621624442938,36.981621659239174,-8.664324192662892,27.67648652096924,57.20810794823351,-48.66729735058883,185.74837834076084,108.81837845674828,155.51189147182922,-155.92054055307972,-2.25,123.02513513826993,2025-05-14 14:36:10.376
1747200970.386,23.06135138269931,36.97513517693242,-8.687026880736546,27.670540578854716,57.23567549803723,-48.65810816732092,185.75486482306758,108.80486495194253,155.58432385758803,-155.9183783923108,-2.25,123.0245945980777,2025-05-14 14:36:10.386
1747200970.396,23.05648652096924,36.96864869462566,-8.709729568810202,27.664594636740187,57.26324304784096,-48.64891898405301,185.76135130537435,108.79135144713678,155.65675624334682,-155.91621623154188,-2.25,123.02405405788546,2025-05-14 14:36:10.396
1747200970.406,23.051621659239174,36.9621622123189,-8.732432256883856,27.658648694625658,57.29081059764468,-48.639729800785105,185.7678377876811,108.77783794233103,155.72918862910564,-155.91405407077298,-2.25,123.02351351769325,2025-05-14 14:36:10.406
1747200970.416,23.046756797509104,36.95567573001214,-8.755134944957511,27.65270275251113,57.318378147448406,-48.6305406175172,185.77432426998786,108.76432443752529,155.80162101486442,-155.91189191000404,-2.25,123.02297297750101,2025-05-14 14:36:10.416
1747200970.426,23.041891819791584,36.949189093055445,-8.777838174305945,27.646756668634158,57.34594635451436,-48.62135121516188,185.78081090694457,108.75081061053217,155.87405512754754,-155.90972969768515,-2.25,123.02243242442128,2025-05-14 14:36:10.426
1747200970.436,23.037026958061514,36.94270261074869,-8.800540862379599,27.64081072651963,57.37351390431808,-48.61216203189397,185.7872973892513,108.73729710572643,155.94648751330632,-155.90756753691625,-2.25,123.02189188422905,2025-05-14 14:36:10.436
1747200970.446,23.032162096331444,36.93621612844193,-8.823243550453254,27.634864784405103,57.40108145412181,-48.60297284862606,185.79378387155808,108.72378360092068,156.01891989906514,-155.9054053761473,-2.25,123.02135134403683,2025-05-14 14:36:10.446
1747200970.456,23.027297234601377,36.92972964613517,-8.845946238526908,27.628918842290574,57.42864900392553,-48.59378366535815,185.80027035386485,108.71027009611494,156.09135228482393,-155.90324321537838,-2.25,123.0208108038446,2025-05-14 14:36:10.456
1747200970.466,23.022432372871307,36.92324316382841,-8.868648926600564,27.622972900176045,57.456216553729256,-48.584594482090246,185.8067568361716,108.69675659130918,156.16378467058274,-155.90108105460948,-2.25,123.02027026365236,2025-05-14 14:36:10.466
1747200970.471,23.02,36.92,-8.88,27.62,57.47,-48.58,185.81,108.69,156.2,-155.9,-2.25,123.02,2025-05-14 14:36:10.471
1747200970.481,23.016039610504574,36.91504951313072,-8.897821752729419,27.615049513130717,57.49178214222484,-48.57207922100915,185.8149504868693,108.67811883151371,156.25742564768368,-155.89900990262615,-2.25,123.02,2025-05-14 14:36:10.481
1747200970.491,23.01207922100915,36.910099026261435,-8.915643505458839,27.610099026261434,57.513564284449686,-48.5641584420183,185.81990097373858,108.66623766302745,156.31485129536736,-155.8980198052523,-2.25,123.02,2025-05-14 14:36:10.491
1747200970.501,23.00811883151372,36.90514853939215,-8.933465258188257,27.60514853939215,57.535346426674536,-48.55623766302744,185.82485146060785,108.65435649454116,156.37227694305105,-155.89702970787843,-2.25,123.02,2025-05-14 14:36:10.501
1747200970.511,23.004158442018294,36.90019805252287,-8.951287010917676,27.60019805252287,57.55712856889938,-48.54831688403659,185.82980194747714,108.64247532605488,156.42970259073473,-155.89603961050457,-2.25,123.02,2025-05-14 14:36:10.511
1747200970.521,23.00019805252287,36.895247565653584,-8.969108763647094,27.595247565653587,57.57891071112422,-48.54039610504574,185.83475243434643,108.6305941575686,156.48712823841842,-155.89504951313072,-2.25,123.02,2025-05-14 14:36:10.521
1747200970.531,22.996237663027443,36.8902970787843,-8.986930516376512,27.590297078784303,57.60069285334907,-48.532475326054886,185.83970292121572,108.61871298908233,156.54455388610208,-155.89405941575686,-2.25,123.02,2025-05-14 14:36:10.531
1747200970.541,22.992277273532014,36.88534659191502,-9.004752269105932,27.58534659191502,57.62247499557392,-48.52455454706403,185.84465340808498,108.60683182059604,156.60197953378577,-155.893069318383,-2.25,123.02,2025-05-14 14:36:10.541
1747200970.551,22.988316789613457,36.88039598701682,-9.022574446739451,27.580395987016818,57.64425765712599,-48.51663357922691,185.84960401298318,108.59495036884036,156.6594065506049,-155.89207919740335,-2.25,123.02,2025-05-14 14:36:10.551
1747200970.561,22.984356400118028,36.875445500147535,-9.040396199468871,27.575445500147538,57.66603979935084,-48.508712800236054,185.85455449985247,108.58306920035407,156.71683219828859,-155.8910891000295,-2.25,123.02,2025-05-14 14:36:10.561
1747200970.571,22.980396010622602,36.87049501327825,-9.058217952198289,27.570495013278254,57.687821941575685,-48.5007920212452,185.85950498672176,108.5711880318678,156.77425784597227,-155.89009900265563,-2.25,123.02,2025-05-14 14:36:10.571
1747200970.572,22.98,36.87,-9.06,27.57,57.69,-48.5,185.86,108.57,156.78,-155.89,-2.25,123.02,2025-05-14 14:36:10.572
1747200970.582,22.98,36.87,-9.06,27.57,57.69,-48.5,185.86,108.57,156.78,-155.89,-2.25,123.02,2025-05-14 14:36:10.582
1747200970.592,22.98,36.87,-9.06,27.57,57.69,-48.5,185.86,108.57,156.78,-155.89,-2.25,123.02,2025-05-14 14:36:10.592
1747200970.602,22.98,36.87,-9.06,27.57,57.69,-48.5,185.86,108.57,156.78,-155.89,-2.25,123.02,2025-05-14 14:36:10.602
1747200970.612,22.98,36.87,-9.06,27.57,57.69,-48.5,185.86,108.57,156.78,-155.89,-2.25,123.02,2025-05-14 14:36:10.612
1747200970.622,22.98,36.87,-9.06,27.57,57.69,-48.5,185.86,108.57,156.78,-155.89,-2.25,123.02,2025-05-14 14:36:10.622
1747200970.632,22.98,36.87,-9.06,27.57,57.69,-48.5,185.86,108.57,156.78,-155.89,-2.25,123.02,2025-05-14 14:36:10.632
1747200970.642,22.98,36.87,-9.06,27.57,57.69,-48.5,185.86,108.57,156.78,-155.89,-2.25,123.02,2025-05-14 14:36:10.642
1747200970.652,22.98,36.87,-9.06,27.57,57.69,-48.5,185.86,108.57,156.78,-155.89,-2.25,123.02,2025-05-14 14:36:10.652
1747200970.662,22.98,36.87,-9.06,27.57,57.69,-48.5,185.86,108.57,156.78,-155.89,-2.25,123.02,2025-05-14 14:36:10.662
1747200970.672,22.98,36.87,-9.06,27.57,57.69,-48.5,185.86,108.57,156.78,-155.89,-2.25,123.02,2025-05-14 14:36:10.672
1747200970.682,22.98,36.87,-9.06,27.57,57.69,-48.5,185.86,108.57,156.78,-155.89,-2.25,123.02,2025-05-14 14:36:10.682
1747200970.692,22.98,36.87,-9.06,27.57,57.69,-48.5,185.86,108.57,156.78,-155.89,-2.25,123.02,2025-05-14 14:36:10.692
1747200970.702,22.98,36.87,-9.06,27.57,57.69,-48.5,185.86,108.57,156.78,-155.89,-2.25,123.02,2025-05-14 14:36:10.702
1747200970.712,22.98,36.87,-9.06,27.57,57.69,-48.5,185.86,108.57,156.78,-155.89,-2.25,123.02,2025-05-14 14:36:10.712
1747200970.714,22.98,36.87,-9.06,27.57,57.69,-48.5,185.86,108.57,156.78,-155.89,-2.25,123.02,2025-05-14 14:36:10.714
1747200970.724,22.972436979335715,36.85991597244762,-9.097815103321432,27.55991597244762,57.73621845961508,-48.48487395867143,185.8700840275524,108.54647060237777,156.9001679949992,-155.88663865748254,-2.2508403356293654,123.01915966437063,2025-05-14 14:36:10.724
1747200970.734,22.96487395867143,36.849831944895236,-9.135630206642865,27.549831944895235,57.782436919230165,-48.46974791734286,185.88016805510478,108.52294120475554,157.02033598999844,-155.88327731496506,-2.2516806712587303,123.01831932874127,2025-05-14 14:36:10.734
1747200970.744,22.95731093800714,36.839747917342855,-9.173445309964297,27.539747917342854,57.82865537884525,-48.45462187601428,185.89025208265716,108.49941180713333,157.14050398499765,-155.8799159724476,-2.2525210068880956,123.01747899311191,2025-05-14 14:36:10.744
1747200970.754,22.949747917342854,36.82966388979047,-9.21126041328573,27.529663889790474,57.87487383846034,-48.43949583468571,185.90033611020954,108.4758824095111,157.26067197999689,-155.87655462993015,-2.2533613425174606,123.01663865748255,2025-05-14 14:36:10.754
1747200970.764,22.94218489667857,36.819579862238086,-9.249075516607162,27.51957986223809,57.92109229807542,-48.42436979335714,185.91042013776192,108.45235301188887,157.3808399749961,-155.87319328741268,-2.254201678146826,123.01579832185317,2025-05-14 14:36:10.764
1747200970.774,22.934621876014283,36.809495834685706,-9.286890619928595,27.50949583468571,57.967310757690505,-48.409243752028566,185.9205041653143,108.42882361426665,157.50100796999533,-155.86983194489522,-2.255042013776191,123.0149579862238,2025-05-14 14:36:10.774
1747200970.784,22.927058855349994,36.799411807133325,-9.324705723250027,27.499411807133328,58.01352921730559,-48.39411771069999,185.93058819286668,108.40529421664444,157.62117596499453,-155.86647060237777,-2.255882349405556,123.01411765059444,2025-05-14 14:36:10.784
1747200970.794,22.91949583468571,36.789327779580944,-9.36252082657146,27.489327779580943,58.05974767692067,-48.378991669371416,185.94067222041906,108.38176481902221,157.74134395999374,-155.8631092598603,-2.256722685034921,123.01327731496508,2025-05-14 14:36:10.794
1747200970.804,22.911932814021423,36.77924375202856,-9.400335929892892,27.479243752028562,58.105966136535756,-48.363865628042845,185.95075624797144,108.35823542139998,157.86151195499298,-155.85974791734284,-2.2575630206642865,123.01243697933572,2025-05-14 14:36:10.804
1747200970.814,22.904369793357137,36.76915972447618,-9.438151033214325,27.469159724476178,58.15218459615084,-48.348739586714274,185.96084027552382,108.33470602377776,157.98167994999218,-155.8563865748254,-2.2584033562936514,123.01159664370635,2025-05-14 14:36:10.814
1747200970.824,22.896806772692848,36.7590756969238,-9.475966136535757,27.459075696923797,58.19840305576593,-48.333613545385695,185.9709243030762,108.31117662615553,158.10184794499142,-155.8530252323079,-2.2592436919230168,123.01075630807699,2025-05-14 14:36:10.824
1747200970.833,22.89,36.75,-9.51,27.45,58.24,-48.32,185.98,108.29,158.21,-155.85,-2.26,123.01,2025-05-14 14:36:10.833
1747200970.843,22.886666673289398,36.74583334161175,-9.524999970197708,27.445833341611745,58.25833329690831,-48.313333346578794,185.9833333267106,108.2800000198682,158.25833323730373,-155.84833333664469,-2.26,123.00916666832235,2025-05-14 14:36:10.843
1747200970.853,22.883333346578798,36.74166668322349,-9.539999940395417,27.441666683223495,58.27666659381662,-48.306666693157595,185.9866666534212,108.27000003973639,158.30666647460745,-155.8466666732894,-2.26,123.0083333366447,2025-05-14 14:36:10.853
1747200970.863,22.880000019868195,36.73750002483524,-9.554999910593125,27.43750002483524,58.29499989072493,-48.30000003973639,185.9899999801318,108.2600000596046,158.35499971191118,-155.8450000099341,-2.26,123.00750000496706,2025-05-14 14:36:10.863
1747200970.873,22.876666693157592,36.73333336644699,-9.569999880790833,27.43333336644699,58.31333318763324,-48.29333338631518,185.9933333068424,108.25000007947278,158.4033329492149,-155.8433333465788,-2.26,123.0066666732894,2025-05-14 14:36:10.873
1747200970.883,22.873333366446992,36.72916670805874,-9.584999850988542,27.429166708058737,58.33166648454155,-48.286666732893984,185.99666663355302,108.24000009934097,158.45166618651865,-155.8416666832235,-2.26,123.00583334161175,2025-05-14 14:36:10.883
1747200970.893,22.87000003973639,36.725000049670484,-9.59999982118625,27.425000049670484,58.34999978144986,-48.28000007947278,185.9999999602636,108.23000011920917,158.49999942382237,-155.8400000198682,-2.26,123.0050000099341,2025-05-14 14:36:10.893
1747200970.903,22.86666663355301,36.72083329194126,-9.615000149011458,27.42083329194126,58.36833351545845,-48.27333326710602,186.00333336644698,108.21999990065903,158.54833381348135,-155.8383333167765,-2.26,123.00416665838826,2025-05-14 14:36:10.903
1747200970.913,22.86333330684241,36.71666663355301,-9.630000119209166,27.416666633553007,58.38666681236676,-48.26666661368482,186.0066666931576,108.20999992052722,158.5966670507851,-155.83666665342122,-2.26,123.0033333267106,2025-05-14 14:36:10.913
1747200970.923,22.859999980131807,36.71249997516476,-9.645000089406874,27.412499975164756,58.40500010927507,-48.25999996026361,186.0100000198682,108.19999994039541,158.64500028808882,-155.8349999900659,-2.26,123.00249999503295,2025-05-14 14:36:10.923
1747200970.933,22.856666653421204,36.70833331677651,-9.660000059604583,27.408333316776503,58.42333340618338,-48.25333330684241,186.0133333465788,108.18999996026362,158.69333352539255,-155.8333333267106,-2.26,123.00166666335531,2025-05-14 14:36:10.933
1747200970.943,22.853333326710604,36.70416665838825,-9.675000029802291,27.404166658388252,58.44166670309169,-48.24666665342121,186.0166666732894,108.17999998013181,158.74166676269627,-155.83166666335532,-2.26,123.00083333167765,2025-05-14 14:36:10.943
1747200970.953,22.85,36.7,-9.69,27.4,58.46,-48.24,186.02,108.17,158.79,-155.83,-2.26,123.0,2025-05-14 14:36:10.953
1747200970.953,22.85,36.7,-9.69,27.4,58.46,-48.24,186.02,108.17,158.79,-155.83,-2.26,123.0,2025-05-14 14:36:10.953
1747200970.963,22.845238099292835,36.694047624116045,-9.71142855318225,27.394642861704437,58.486190453889414,-48.23107143617406,186.02476190070718,108.1557142978785,158.8584523226655,-155.8288095248232,-2.26,123.0,2025-05-14 14:36:10.963
1747200970.973,22.84047619858567,36.68809524823209,-9.732857106364499,27.389285723408875,58.512380907778834,-48.22214287234813,186.02952380141434,108.141428595757,158.92690464533104,-155.82761904964642,-2.26,123.0,2025-05-14 14:36:10.973
1747200970.983,22.8357142978785,36.68214287234813,-9.754285659546749,27.38392858511331,58.53857136166825,-48.21321430852219,186.0342857021215,108.12714289363551,158.99535696799654,-155.82642857446965,-2.26,123.0,2025-05-14 14:36:10.983
1747200970.993,22.830952397171334,36.67619049646417,-9.775714212729,27.378571446817748,58.56476181555767,-48.20428574469625,186.03904760282867,108.11285719151401,159.06380929066208,-155.82523809929285,-2.26,123.0,2025-05-14 14:36:10.993
1747200971.003,22.826190496464168,36.67023812058021,-9.797142765911248,27.373214308522186,58.59095226944708,-48.19535718087032,186.04380950353584,108.0985714893925,159.1322616133276,-155.82404762411605,-2.26,123.0,2025-05-14 14:36:11.003
1747200971.013,22.821428595757002,36.66428574469625,-9.818571319093499,27.367857170226625,58.6171427233365,-48.18642861704438,186.048571404243,108.084285787271,159.20071393599312,-155.82285714893925,-2.26,123.0,2025-05-14 14:36:11.013
1747200971.023,22.816666695049836,36.65833336881229,-9.839999872275747,27.362500031931063,58.64333317722591,-48.17750005321844,186.05333330495017,108.0700000851495,159.26916625865863,-155.82166667376248,-2.26,123.0,2025-05-14 14:36:11.023
1747200971.033,22.811904794342666,36.652380992928336,-9.861428425457998,27.357142893635498,58.66952363111533,-48.168571489392505,186.05809520565734,108.055714383028,159.33761858132416,-155.82047619858568,-2.26,123.0,2025-05-14 14:36:11.033
1747200971.043,22.8071428936355,36.64642861704438,-9.882856978640248,27.351785755339936,58.695714085004745,-48.159642925566565,186.0628571063645,108.0414286809065,159.40607090398967,-155.81928572340888,-2.26,123.0,2025-05-14 14:36:11.043
1747200971.053,22.802380992928335,36.64047624116042,-9.904285531822497,27.346428617044374,58.721904538894165,-48.150714361740626,186.06761900707167,108.02714297878501,159.4745232266552,-155.81809524823208,-2.26,123.0,2025-05-14 14:36:11.053
1747200971.063,22.79761909222117,36.63452386527646,-9.925714085004747,27.341071478748812,58.74809499278358,-48.14178579791469,186.07238090777884,108.01285727666351,159.54297554932072,-155.81690477305528,-2.26,123.0,2025-05-14 14:36:11.063
1747200971.073,22.792857191514003,36.628571489392506,-9.947142638186998,27.33571434045325,58.774285446673,-48.13285723408875,186.077142808486,107.99857157454201,159.61142787198622,-155.81571429787851,-2.26,123.0,2025-05-14 14:36:11.073
1747200971.083,22.788095290806833,36.62261911350854,-9.968571191369247,27.330357202157685,58.80047590056241,-48.12392867026281,186.08190470919317,107.98428587242051,159.67988019465176,-155.81452382270172,-2.26,123.0,2025-05-14 14:36:11.083
1747200971.093,22.783333390099667,36.616666737624584,-9.989999744551497,27.325000063862124,58.82666635445183,-48.11500010643688,186.08666660990033,107.970000170299,159.74833251731727,-155.81333334752492,-2.26,123.0,2025-05-14 14:36:11.093
1747200971.103,22.7785714893925,36.61071436174063,-10.011428297733747,27.319642925566562,58.852856808341244,-48.10607154261094,186.0914285106075,107.9557144681775,159.8167848399828,-155.81214287234812,-2.26,123.0,2025-05-14 14:36:11.103
1747200971.113,22.773809588685335,36.60476198585667,-10.032856850915996,27.314285787271,58.87904726223066,-48.09714297878501,186.09619041131467,107.941428766056,159.8852371626483,-155.81095239717135,-2.26,123.0,2025-05-14 14:36:11.113
1747200971.121,22.77,36.6,-10.05,27.31,58.9,-48.09,186.1,107.93,159.94,-155.81,-2.26,123.0,2025-05-14 14:36:11.121
1747200971.131,22.766,36.595,-10.068000000000001,27.305,58.922,-48.083000000000006,186.10399999999998,107.918,159.99699999999999,-155.809,-2.26,122.999,2025-05-14 14:36:11.131
1747200971.141,22.762,36.59,-10.086,27.3,58.943999999999996,-48.076,186.108,107.906,160.054,-155.808,-2.26,122.998,2025-05-14 14:36:11.141
1747200971.151,22.758,36.585,-10.104000000000001,27.294999999999998,58.966,-48.069,186.112,107.894,160.111,-155.80700000000002,-2.26,122.997,2025-05-14 14:36:11.151
1747200971.161,22.754,36.58,-10.122,27.29,58.988,-48.062000000000005,186.11599999999999,107.882,160.168,-155.806,-2.26,122.996,2025-05-14 14:36:11.161
1747200971.171,22.75,36.575,-10.14,27.285,59.01,-48.05500000000001,186.12,107.87,160.225,-155.805,-2.26,122.995,2025-05-14 14:36:11.171
1747200971.181,22.746,36.57,-10.158000000000001,27.28,59.032,-48.048,186.124,107.858,160.28199999999998,-155.804,-2.26,122.994,2025-05-14 14:36:11.181
1747200971.191,22.742,36.565,-10.176,27.275000000000002,59.053999999999995,-48.041000000000004,186.128,107.846,160.339,-155.803,-2.26,122.993,2025-05-14 14:36:11.191
1747200971.201,22.738,36.559999999999995,-10.194,27.27,59.076,-48.034000000000006,186.13199999999998,107.834,160.396,-155.80200000000002,-2.26,122.99199999999999,2025-05-14 14:36:11.201
1747200971.211,22.734,36.555,-10.212,27.265,59.098,-48.027,186.136,107.822,160.453,-155.80100000000002,-2.26,122.991,2025-05-14 14:36:11.211
1747200971.221,22.73,36.55,-10.23,27.26,59.12,-48.02,186.14,107.81,160.51,-155.8,-2.26,122.99,2025-05-14 14:36:11.221
1747200971.231,22.72862069078915,36.54862069078915,-10.236206891448829,27.25862069078915,59.12758620065968,-48.0172413815783,186.1406896546054,107.80517241776202,160.52999998355733,-155.7993103453946,-2.26,122.99,2025-05-14 14:36:11.231
1747200971.241,22.7272413815783,36.547241381578296,-10.242413782897659,27.2572413815783,59.13517240131936,-48.0144827631566,186.14137930921083,107.80034483552404,160.54999996711467,-155.79862069078916,-2.26,122.99,2025-05-14 14:36:11.241
1747200971.251,22.72586207236745,36.54586207236745,-10.248620674346487,27.25586207236745,59.14275860197904,-48.0117241447349,186.14206896381626,107.79551725328606,160.569999950672,-155.79793103618374,-2.26,122.99,2025-05-14 14:36:11.251
1747200971.261,22.724482763156598,36.544482763156594,-10.254827565795315,27.2544827631566,59.15034480263871,-48.0089655263132,186.14275861842168,107.79068967104809,160.58999993422935,-155.79724138157832,-2.26,122.99,2025-05-14 14:36:11.261
1747200971.271,22.723103453945747,36.54310345394575,-10.261034457244145,27.253103453945748,59.157931003298394,-48.006206907891496,186.14344827302713,107.7858620888101,160.6099999177867,-155.79655172697287,-2.26,122.99,2025-05-14 14:36:11.271
1747200971.281,22.721724144734896,36.54172414473489,-10.267241348692973,27.251724144734894,59.165517203958075,-48.00344828946979,186.14413792763256,107.78103450657213,160.62999990134404,-155.79586207236744,-2.26,122.99,2025-05-14 14:36:11.281
1747200971.291,22.720344835524045,36.540344835524046,-10.273448240141802,27.250344835524043,59.173103404617756,-48.000689671048086,186.14482758223798,107.77620692433415,160.64999988490135,-155.79517241776202,-2.26,122.99,2025-05-14 14:36:11.291
1747200971.301,22.71896549342787,36.53896549342787,-10.279655279574596,27.248965493427868,59.18068978614672,-47.997930986855735,186.14551725328607,107.77137922699754,160.67000034529593,-155.79448274671392,-2.26,122.99,2025-05-14 14:36:11.301
1747200971.311,22.71758618421702,36.53758618421702,-10.285862171023425,27.247586184217017,59.1882759868064,-47.995172368434034,186.1462069078915,107.76655164475956,160.69000032885327,-155.7937930921085,-2.26,122.99,2025-05-14 14:36:11.311
1747200971.321,22.716206875006165,36.536206875006165,-10.292069062472253,27.246206875006166,59.19586218746608,-47.99241375001233,186.14689656249692,107.76172406252158,160.71000031241059,-155.79310343750308,-2.26,122.99,2025-05-14 14:36:11.321
1747200971.331,22.714827565795314,36.53482756579532,-10.298275953921083,27.244827565795315,59.203448388125764,-47.98965513159063,186.14758621710234,107.7568964802836,160.73000029596793,-155.79241378289765,-2.26,122.99,2025-05-14 14:36:11.331
1747200971.341,22.713448256584464,36.533448256584464,-10.304482845369911,27.243448256584465,59.211034588785445,-47.98689651316893,186.14827587170777,107.75206889804562,160.75000027952527,-155.79172412829223,-2.26,122.99,2025-05-14 14:36:11.341
1747200971.351,22.712068947373613,36.53206894737362,-10.31068973681874,27.242068947373614,59.218620789445126,-47.98413789474723,186.1489655263132,107.74724131580764,160.7700002630826,-155.7910344736868,-2.26,122.99,2025-05-14 14:36:11.351
1747200971.361,22.710689638162762,36.53068963816276,-10.316896628267568,27.24068963816276,59.2262069901048,-47.98137927632552,186.14965518091861,107.74241373356966,160.79000024663995,-155.79034481908138,-2.26,122.99,2025-05-14 14:36:11.361
1747200971.366,22.71,36.53,-10.32,27.24,59.23,-47.98,186.15,107.74,160.8,-155.79,-2.26,122.99,2025-05-14 14:36:11.366
1747200971.376,22.702857159076075,36.52126986109298,-10.350952310670353,27.231269861092976,59.26730150260273,-47.96730161613524,186.15634919193238,107.71857147722821,160.8984124749519,-155.7884127020169,-2.2607936489915472,122.98920635100845,2025-05-14 14:36:11.376
1747200971.386,22.695714318152145,36.512539722185956,-10.381904621340706,27.222539722185953,59.304603005205465,-47.95460323227048,186.16269838386475,107.69714295445642,160.99682494990378,-155.7868254040338,-2.2615872979830947,122.9884127020169,2025-05-14 14:36:11.386
1747200971.396,22.68857147722822,36.50380958327894,-10.412856932011058,27.21380958327893,59.341904507808195,-47.94190484840572,186.16904757579715,107.67571443168465,161.09523742485567,-155.7852381060507,-2.2623809469746425,122.98761905302536,2025-05-14 14:36:11.396
1747200971.406,22.68142863630429,36.49507944437191,-10.44380924268141,27.205079444371908,59.37920601041093,-47.92920646454096,186.17539676772952,107.65428590891287,161.19364989980755,-155.78365080806762,-2.26317459596619,122.98682540403381,2025-05-14 14:36:11.406
1747200971.416,22.674285795380364,36.48634930546489,-10.474761553351764,27.196349305464885,59.41650751301366,-47.916508080676195,186.1817459596619,107.63285738614108,161.29206237475947,-155.78206351008453,-2.2639682449577374,122.98603175504226,2025-05-14 14:36:11.416
1747200971.426,22.667142784157676,36.477618958414936,-10.505714601983414,27.187618958414934,59.45380990495437,-47.90380939405809,186.18809530297096,107.61142835247301,161.39047719604983,-155.78047617425727,-2.2647619128713696,122.98523808712864,2025-05-14 14:36:11.426
1747200971.436,22.659999943233746,36.46888881950791,-10.536666912653766,27.17888881950791,59.4911114075571,-47.89111101019333,186.19444449490334,107.58999982970124,161.48888967100171,-155.77888887627418,-2.265555561862917,122.98444443813709,2025-05-14 14:36:11.436
1747200971.446,22.65285710230982,36.46015868060089,-10.567619223324119,27.17015868060089,59.52841291015984,-47.87841262632857,186.2007936868357,107.56857130692946,161.5873021459536,-155.7773015782911,-2.2663492108544645,122.98365078914554,2025-05-14 14:36:11.446
1747200971.456,22.64571426138589,36.45142854169387,-10.598571533994471,27.161428541693866,59.56571441276257,-47.86571424246381,186.20714287876808,107.54714278415767,161.6857146209055,-155.775714280308,-2.267142859846012,122.982857140154,2025-05-14 14:36:11.456
1747200971.466,22.638571420461965,36.442698402786846,-10.629523844664824,27.152698402786843,59.603015915365305,-47.85301585859904,186.21349207070048,107.52571426138589,161.78412709585737,-155.7741269823249,-2.2679365088375594,122.98206349116245,2025-05-14 14:36:11.466
1747200971.476,22.63142857953804,36.43396826387983,-10.660476155335177,27.14396826387982,59.640317417968035,-47.840317474734285,186.21984126263285,107.5042857386141,161.88253957080929,-155.77253968434178,-2.2687301578291073,122.98126984217089,2025-05-14 14:36:11.476
1747200971.486,22.62428573861411,36.4252381249728,-10.69142846600553,27.135238124972798,59.677618920570765,-47.827619090869526,186.22619045456523,107.48285721584233,161.98095204576117,-155.7709523863587,-2.2695238068206547,122.98047619317934,2025-05-14 14:36:11.486
1747200971.492,22.62,36.42,-10.71,27.13,59.7,-47.82,186.23,107.47,162.04,-155.77,-2.27,122.98,2025-05-14 14:36:11.492
1747200971.502,22.617,36.415,-10.728000000000002,27.125999999999998,59.722,-47.812,186.23299999999998,107.458,162.09799999999998,-155.769,-2.27,122.98,2025-05-14 14:36:11.502
1747200971.512,22.614,36.410000000000004,-10.746,27.122,59.744,-47.804,186.236,107.446,162.156,-155.768,-2.27,122.98,2025-05-14 14:36:11.512
1747200971.522,22.611,36.405,-10.764000000000001,27.118,59.766000000000005,-47.796,186.23899999999998,107.434,162.214,-155.767,-2.27,122.98,2025-05-14 14:36:11.522
1747200971.532,22.608,36.4,-10.782,27.114,59.788000000000004,-47.788000000000004,186.242,107.422,162.272,-155.766,-2.27,122.98,2025-05-14 14:36:11.532
1747200971.542,22.605,36.394999999999996,-10.8,27.11,59.81,-47.78,186.24499999999998,107.41,162.32999999999998,-155.765,-2.27,122.98,2025-05-14 14:36:11.542
1747200971.552,22.602,36.39,-10.818000000000001,27.105999999999998,59.832,-47.772,186.248,107.398,162.388,-155.764,-2.27,122.98,2025-05-14 14:36:11.552
1747200971.562,22.599,36.385,-10.836,27.102,59.854,-47.764,186.25099999999998,107.386,162.446,-155.763,-2.27,122.98,2025-05-14 14:36:11.562
1747200971.572,22.596,36.379999999999995,-10.854000000000001,27.098,59.876000000000005,-47.756,186.254,107.374,162.504,-155.762,-2.27,122.98,2025-05-14 14:36:11.572
1747200971.582,22.593,36.375,-10.872,27.094,59.898,-47.748000000000005,186.25699999999998,107.362,162.562,-155.761,-2.27,122.98,2025-05-14 14:36:11.582
1747200971.592,22.59,36.37,-10.89,27.09,59.92,-47.74,186.26,107.35,162.62,-155.76,-2.27,122.98,2025-05-14 14:36:11.592
1747200971.602,22.58843750174623,36.36843750174623,-10.894687494761312,27.08843750174623,59.926249993015084,-47.73843750174623,186.26078124912686,107.34609375436557,162.63484373341083,-155.75921875087312,-2.27,122.98,2025-05-14 14:36:11.602
1747200971.612,22.58687500349246,36.36687500349246,-10.899374989522624,27.08687500349246,59.932499986030166,-47.73687500349246,186.26156249825377,107.34218750873114,162.64968746682163,-155.75843750174622,-2.27,122.98,2025-05-14 14:36:11.612
1747200971.622,22.58531250523869,36.365312505238684,-10.904062484283934,27.08531250523869,59.93874997904525,-47.73531250523869,186.26234374738064,107.33828126309672,162.66453120023246,-155.75765625261934,-2.27,122.98,2025-05-14 14:36:11.622
1747200971.632,22.583750006984918,36.363750006984915,-10.908749979045245,27.083750006984918,59.94499997206033,-47.73375000698492,186.26312499650754,107.33437501746229,162.6793749336433,-155.75687500349244,-2.27,122.98,2025-05-14 14:36:11.632
1747200971.642,22.58218750873115,36.36218750873115,-10.913437473806557,27.08218750873115,59.95124996507541,-47.73218750873115,186.26390624563442,107.33046877182787,162.6942186670541,-155.75609375436557,-2.27,122.98,2025-05-14 14:36:11.642
1747200971.652,22.580625010477377,36.36062501047738,-10.918124968567868,27.080625010477377,59.957499958090494,-47.730625010477375,186.26468749476132,107.32656252619344,162.70906240046492,-155.7553125052387,-2.27,122.98,2025-05-14 14:36:11.652
1747200971.662,22.579062512223608,36.35906251222361,-10.92281246332918,27.079062512223608,59.96374995110558,-47.72906251222361,186.2654687438882,107.32265628055902,162.72390613387574,-155.7545312561118,-2.27,122.98,2025-05-14 14:36:11.662
1747200971.672,22.577500013969836,36.35750001396983,-10.927499958090491,27.077500013969836,59.96999994412066,-47.72750001396984,186.2662499930151,107.31875003492459,162.73874986728657,-155.75375000698492,-2.27,122.98,2025-05-14 14:36:11.672
1747200971.682,22.575937515716067,36.355937515716064,-10.932187452851801,27.075937515716067,59.976249937135734,-47.72593751571607,186.26703124214197,107.31484378929017,162.75359360069737,-155.75296875785804,-2.27,122.98,2025-05-14 14:36:11.682
1747200971.692,22.574375017462295,36.354375017462296,-10.936874947613113,27.074375017462295,59.982499930150816,-47.72437501746229,186.26781249126887,107.31093754365574,162.7684373341082,-155.75218750873114,-2.27,122.98,2025-05-14 14:36:11.692
1747200971.702,22.572812519208526,36.35281251920853,-10.941562442374424,27.072812519208526,59.9887499231659,-47.722812519208524,186.26859374039574,107.30703129802131,162.78328106751903,-155.75140625960427,-2.27,122.98,2025-05-14 14:36:11.702
1747200971.712,22.571250020954754,36.35125002095476,-10.946249937135736,27.071250020954754,59.99499991618098,-47.721250020954756,186.26937498952262,107.30312505238689,162.79812480092983,-155.75062501047736,-2.27,122.98,2025-05-14 14:36:11.712
1747200971.72,22.57,36.35,-10.95,27.07,60.0,-47.72,186.27,107.3,162.81,-155.75,-2.27,122.98,2025-05-14 14:36:11.720
1747200971.73,22.563430667223557,36.34124088963141,-10.980656886290069,27.061970815495457,60.03722621906651,-47.70686133444711,186.2743795551843,107.27810222407852,162.9078100657826,-155.7485401482719,-2.27,122.97927007413595,2025-05-14 14:36:11.730
1747200971.74,22.556861334447113,36.33248177926282,-11.01131377258014,27.053941630990916,60.07445243813303,-47.693722668894225,186.2787591103686,107.25620444815704,163.00562013156522,-155.7470802965438,-2.27,122.9785401482719,2025-05-14 14:36:11.740
1747200971.75,22.55029200167067,36.32372266889423,-11.04197065887021,27.045912446486373,60.11167865719954,-47.68058400334134,186.2831386655529,107.23430667223556,163.10343019734782,-155.7456204448157,-2.27,122.97781022240785,2025-05-14 14:36:11.750
1747200971.76,22.543722668894226,36.31496355852563,-11.072627545160278,27.037883261981833,60.14890487626605,-47.66744533778845,186.28751822073718,107.21240889631409,163.20124026313042,-155.7441605930876,-2.27,122.9770802965438,2025-05-14 14:36:11.760
1747200971.77,22.537153336117782,36.30620444815704,-11.10328443145035,27.02985407747729,60.18613109533257,-47.65430667223556,186.29189777592148,107.1905111203926,163.299050328913,-155.7427007413595,-2.27,122.97635037067975,2025-05-14 14:36:11.770
1747200971.78,22.53058400334134,36.29744533778845,-11.133941317740419,27.02182489297275,60.22335731439908,-47.641168006682676,186.29627733110578,107.16861334447113,163.39686039469564,-155.7412408896314,-2.27,122.9756204448157,2025-05-14 14:36:11.780
1747200971.79,22.524014670564895,36.28868622741986,-11.164598204030488,27.013795708468205,60.26058353346559,-47.62802934112979,186.30065688629008,107.14671556854965,163.49467046047823,-155.7397810379033,-2.27,122.97489051895165,2025-05-14 14:36:11.790
1747200971.8,22.517445337788452,36.279927117051265,-11.19525509032056,27.005766523963665,60.29780975253211,-47.6148906755769,186.30503644147439,107.12481779262816,163.59248052626083,-155.7383211861752,-2.27,122.9741605930876,2025-05-14 14:36:11.800
1747200971.81,22.51087600501201,36.27116800668268,-11.225911976610629,26.99773733945912,60.33503597159862,-47.601752010024015,186.3094159966587,107.10292001670669,163.69029059204345,-155.7368613344471,-2.27,122.97343066722355,2025-05-14 14:36:11.810
1747200971.82,22.504306672235565,36.262408896314085,-11.256568862900698,26.98970815495458,60.37226219066513,-47.58861334447113,186.31379555184296,107.08102224078522,163.78810065782605,-155.735401482719,-2.27,122.9727007413595,2025-05-14 14:36:11.820
1747200971.83,22.49773733945912,36.25364978594549,-11.28722574919077,26.981678970450037,60.409488409731644,-47.57547467891824,186.31817510702726,107.05912446486373,163.88591072360865,-155.7339416309909,-2.27,122.97197081549545,2025-05-14 14:36:11.830
1747200971.84,22.491168006682678,36.2448906755769,-11.317882635480839,26.973649785945494,60.44671462879816,-47.56233601336535,186.32255466221156,107.03722668894225,163.98372078939124,-155.7324817792628,-2.27,122.9712408896314,2025-05-14 14:36:11.840
1747200971.85,22.484598673906234,36.23613156520831,-11.348539521770908,26.965620601440953,60.48394084786467,-47.549197347812466,186.32693421739586,107.01532891302078,164.08153085517387,-155.7310219275347,-2.27,122.97051096376735,2025-05-14 14:36:11.850
1747200971.857,22.48,36.23,-11.37,26.96,60.51,-47.54,186.33,107.0,164.15,-155.73,-2.27,122.97,2025-05-14 14:36:11.857
1747200971.867,22.478437500776103,36.2284375007761,-11.37624999689559,26.958437500776103,60.51729166304485,-47.537395834626835,186.33104166614928,106.9953125023283,164.17031248991069,-155.73,-2.27,122.97,2025-05-14 14:36:11.867
1747200971.877,22.476875001552205,36.2268750015522,-11.38249999379118,26.956875001552206,60.52458332608971,-47.53479166925367,186.33208333229854,106.99062500465662,164.19062497982134,-155.73,-2.27,122.97,2025-05-14 14:36:11.877
1747200971.887,22.475312502328308,36.22531250232831,-11.388749990686769,26.955312502328308,60.531874989134565,-47.532187503880515,186.3331249984478,106.98593750698492,164.21093746973202,-155.73,-2.27,122.97,2025-05-14 14:36:11.887
1747200971.897,22.47375000310441,36.223750003104406,-11.39499998758236,26.95375000310441,60.53916665217942,-47.52958333850735,186.33416666459706,106.98125000931323,164.23124995964267,-155.73,-2.27,122.97,2025-05-14 14:36:11.897
1747200971.907,22.472187503880512,36.22218750388051,-11.40124998447795,26.952187503880513,60.54645831522427,-47.52697917313419,186.33520833074633,106.97656251164153,164.25156244955335,-155.73,-2.27,122.97,2025-05-14 14:36:11.907
1747200971.917,22.470625004656615,36.22062500465661,-11.40749998137354,26.950625004656615,60.55374997826913,-47.52437500776102,186.3362499968956,106.97187501396985,164.271874939464,-155.73,-2.27,122.97,2025-05-14 14:36:11.917
1747200971.927,22.469062505432717,36.21906250543272,-11.413749978269129,26.949062505432718,60.561041641313984,-47.521770842387866,186.33729166304485,106.96718751629815,164.29218742937468,-155.73,-2.27,122.97,2025-05-14 14:36:11.927
1747200971.937,22.46750000620882,36.217500006208816,-11.41999997516472,26.94750000620882,60.56833330435884,-47.5191666770147,186.3383333291941,106.96250001862646,164.31249991928533,-155.73,-2.27,122.97,2025-05-14 14:36:11.937
1747200971.947,22.465937506984922,36.21593750698492,-11.42624997206031,26.945937506984922,60.57562496740369,-47.51656251164154,186.33937499534338,106.95781252095476,164.332812409196,-155.73,-2.27,122.97,2025-05-14 14:36:11.947
1747200971.957,22.464375007761024,36.21437500776103,-11.4324999689559,26.944375007761025,60.58291663044855,-47.513958346268375,186.34041666149264,106.95312502328308,164.35312489910666,-155.73,-2.27,122.97,2025-05-14 14:36:11.957
1747200971.967,22.462812508537127,36.21281250853713,-11.438749965851489,26.942812508537127,60.590208293493404,-47.51135418089521,186.34145832764193,106.94843752561138,164.37343738901734,-155.73,-2.27,122.97,2025-05-14 14:36:11.967
1747200971.977,22.46125000931323,36.21125000931323,-11.44499996274708,26.94125000931323,60.59749995653826,-47.508750015522054,186.3424999937912,106.94375002793969,164.39374987892802,-155.73,-2.27,122.97,2025-05-14 14:36:11.977
1747200971.987,22.45968751008933,36.20968751008933,-11.45124995964267,26.939687510089332,60.60479161958311,-47.50614585014889,186.34354165994046,106.93906253026799,164.41406236883867,-155.73,-2.27,122.97,2025-05-14 14:36:11.987
1747200971.997,22.458125010865434,36.20812501086544,-11.45749995653826,26.938125010865434,60.61208328262797,-47.503541684775726,186.34458332608972,106.93437503259631,164.43437485874935,-155.73,-2.27,122.97,2025-05-14 14:36:11.997
1747200972.007,22.456562511641536,36.206562511641536,-11.46374995343385,26.936562511641537,60.619374945672824,-47.50093751940256,186.34562499223898,106.92968753492461,164.45468734866,-155.73,-2.27,122.97,2025-05-14 14:36:12.007
1747200972.017,22.45500001241764,36.20500001241764,-11.46999995032944,26.93500001241764,60.62666660871768,-47.4983333540294,186.34666665838824,106.92500003725291,164.47499983857068,-155.73,-2.27,122.97,2025-05-14 14:36:12.017
1747200972.027,22.45343751319374,36.20343751319375,-11.47624994722503,26.93343751319374,60.63395827176253,-47.49572918865624,186.3477083245375,106.92031253958122,164.49531232848133,-155.73,-2.27,122.97,2025-05-14 14:36:12.027
1747200972.037,22.451875013969843,36.20187501396985,-11.48249994412062,26.931875013969844,60.64124993480739,-47.49312502328308,186.34874999068677,106.91562504190954,164.515624818392,-155.73,-2.27,122.97,2025-05-14 14:36:12.037
1747200972.047,22.450312514745946,36.20031251474595,-11.488749941016211,26.930312514745946,60.648541597852244,-47.490520857909914,186.34979165683603,106.91093754423784,164.53593730830266,-155.73,-2.27,122.97,2025-05-14 14:36:12.047
1747200972.049,22.45,36.2,-11.49,26.93,60.65,-47.49,186.35,106.91,164.54,-155.73,-2.27,122.97,2025-05-14 14:36:12.049
1747200972.059,22.441743124684205,36.18990826350292,-11.528532084807045,26.91899083291227,60.697706390713485,-47.47440367995905,186.35458715295323,106.88155965169004,164.66201826855564,-155.7281651388187,-2.27,122.96908256940935,2025-05-14 14:36:12.059
1747200972.069,22.433486249368407,36.17981652700583,-11.56706416961409,26.907981665824547,60.74541278142697,-47.45880735991811,186.35917430590644,106.85311930338007,164.7840365371113,-155.72633027763743,-2.27,122.9681651388187,2025-05-14 14:36:12.069
1747200972.079,22.425229374052613,36.16972479050875,-11.605596254421135,26.89697249873682,60.79311917214045,-47.44321103987716,186.36376145885967,106.82467895507011,164.9060548056669,-155.72449541645614,-2.27,122.96724770822807,2025-05-14 14:36:12.079
1747200972.089,22.41697249873682,36.15963305401167,-11.64412833922818,26.88596333164909,60.84082556285394,-47.427614719836214,186.36834861181288,106.79623860676016,165.02807307422256,-155.72266055527484,-2.27,122.96633027763743,2025-05-14 14:36:12.089
1747200972.099,22.408715623421024,36.14954131751459,-11.682660424035225,26.874954164561363,60.88853195356742,-47.412018399795265,186.3729357647661,106.76779825845018,165.1500913427782,-155.72082569409355,-2.27,122.96541284704678,2025-05-14 14:36:12.099
1747200972.109,22.400458748105226,36.1394495810175,-11.72119250884227,26.863944997473638,60.93623834428091,-47.39642207975432,186.37752291771932,106.73935791014023,165.27210961133386,-155.71899083291228,-2.27,122.96449541645613,2025-05-14 14:36:12.109
1747200972.119,22.392201872789432,36.12935784452042,-11.759724593649315,26.85293583038591,60.98394473499439,-47.380825759713375,186.38211007067255,106.71091756183026,165.3941278798895,-155.717155971731,-2.27,122.96357798586548,2025-05-14 14:36:12.119
1747200972.129,22.383944997473638,36.11926610802334,-11.79825667845636,26.84192666329818,61.031651125707874,-47.365229439672426,186.38669722362576,106.6824772135203,165.51614614844513,-155.7153211105497,-2.27,122.96266055527484,2025-05-14 14:36:12.129
1747200972.139,22.37568812215784,36.10917437152625,-11.836788763263405,26.830917496210454,61.07935751642136,-47.34963311963148,186.391284376579,106.65403686521034,165.63816441700078,-155.7134862493684,-2.27,122.9617431246842,2025-05-14 14:36:12.139
1747200972.149,22.367431246842045,36.09908263502917,-11.87532084807045,26.81990832912273,61.12706390713485,-47.334036799590535,186.3958715295322,106.62559651690037,165.76018268555643,-155.71165138818714,-2.27,122.96082569409356,2025-05-14 14:36:12.149
1747200972.158,22.36,36.09,-11.91,26.81,61.17,-47.32,186.4,106.6,165.87,-155.71,-2.27,122.96,2025-05-14 14:36:12.158
1747200972.168,22.35619048051553,36.08523810064442,-11.927142837680119,26.80619048051553,61.189999977293475,-47.31238096103106,186.40190475974225,106.58761906167547,165.92523803252485,-155.7090476201289,-2.27,122.96,2025-05-14 14:36:12.168
1747200972.178,22.35238096103106,36.080476201288825,-11.94428567536024,26.80238096103106,61.20999995458695,-47.30476192206212,186.40380951948447,106.57523812335093,165.98047606504966,-155.70809524025776,-2.27,122.96,2025-05-14 14:36:12.178
1747200972.188,22.348571441546586,36.07571430193324,-11.961428513040358,26.798571441546585,61.22999993188042,-47.29714288309317,186.40571427922671,106.5628571850264,166.0357140975745,-155.70714286038665,-2.27,122.96,2025-05-14 14:36:12.188
1747200972.198,22.344761922062116,36.070952402577646,-11.978571350720479,26.794761922062115,61.249999909173894,-47.28952384412423,186.40761903896893,106.55047624670188,166.0909521300993,-155.70619048051552,-2.27,122.96,2025-05-14 14:36:12.198
1747200972.208,22.340952402577646,36.06619050322206,-11.995714188400598,26.790952402577645,61.26999988646737,-47.28190480515529,186.40952379871118,106.53809530837734,166.14619016262415,-155.7052381006444,-2.27,122.96,2025-05-14 14:36:12.208
1747200972.218,22.337142883093176,36.06142860386647,-12.012857026080717,26.787142883093175,61.28999986376084,-47.27428576618635,186.4114285584534,106.52571437005281,166.20142819514896,-155.7042857207733,-2.27,122.96,2025-05-14 14:36:12.218
1747200972.228,22.333333363608702,36.05666670451088,-12.029999863760837,26.7833333636087,61.309999841054314,-47.266666727217405,186.41333331819564,106.51333343172828,166.2566662276738,-155.70333334090216,-2.27,122.96,2025-05-14 14:36:12.228
1747200972.238,22.329523844124232,36.05190480515529,-12.047142701440956,26.77952384412423,61.32999981834779,-47.259047688248465,186.4152380779379,106.50095249340376,166.31190426019862,-155.70238096103105,-2.27,122.96,2025-05-14 14:36:12.238
1747200972.248,22.325714324639762,36.0471429057997,-12.064285539121075,26.77571432463976,61.34999979564126,-47.251428649279525,186.4171428376801,106.48857155507922,166.36714229272346,-155.70142858115994,-2.27,122.96,2025-05-14 14:36:12.248
1747200972.258,22.32190480515529,36.04238100644411,-12.081428376801195,26.77190480515529,61.36999977293473,-47.243809610310585,186.41904759742235,106.47619061675469,166.4223803252483,-155.7004762012888,-2.27,122.96,2025-05-14 14:36:12.258
1747200972.263,22.32,36.04,-12.09,26.77,61.38,-47.24,186.42,106.47,166.45,-155.7,-2.27,122.96,2025-05-14 14:36:12.263
1747200972.273,22.32,36.039342105675935,-12.091973682972203,26.769342105675932,61.38263157729627,-47.23934210567593,186.42,106.46802631702779,166.45657894324066,-155.7,-2.2693421056759324,122.96,2025-05-14 14:36:12.273
1747200972.283,22.32,36.038684211351864,-12.093947365944404,26.768684211351864,61.38526315459254,-47.23868421135187,186.42,106.4660526340556,166.46315788648133,-155.7,-2.2686842113518653,122.96,2025-05-14 14:36:12.283
1747200972.293,22.32,36.0380263170278,-12.095921048916606,26.768026317027797,61.387894731888814,-47.238026317027796,186.42,106.4640789510834,166.46973682972202,-155.7,-2.2680263170277977,122.96,2025-05-14 14:36:12.293
1747200972.303,22.32,36.03736842270373,-12.09789473188881,26.76736842270373,61.390526309185084,-47.23736842270373,186.42,106.46210526811119,166.4763157729627,-155.7,-2.26736842270373,122.96,2025-05-14 14:36:12.303
1747200972.313,22.32,36.036710528379665,-12.09986841486101,26.76671052837966,61.39315788648135,-47.23671052837966,186.42,106.46013158513898,166.48289471620336,-155.7,-2.266710528379663,122.96,2025-05-14 14:36:12.313
1747200972.323,22.32,36.036052634055594,-12.101842097833213,26.766052634055598,61.39578946377762,-47.236052634055596,186.42,106.45815790216679,166.48947365944403,-155.7,-2.2660526340555953,122.96,2025-05-14 14:36:12.323
1747200972.333,22.32,36.03539473973153,-12.103815780805416,26.76539473973153,61.39842104107389,-47.235394739731525,186.42,106.45618421919458,166.49605260268473,-155.7,-2.265394739731528,122.96,2025-05-14 14:36:12.333
1747200972.343,22.32,36.03473684540746,-12.105789463777617,26.764736845407462,61.40105261837016,-47.23473684540746,186.42,106.45421053622238,166.5026315459254,-155.7,-2.2647368454074606,122.96,2025-05-14 14:36:12.343
1747200972.353,22.32,36.034078951083394,-12.10776314674982,26.764078951083395,61.40368419566643,-47.23407895108339,186.42,106.45223685325018,166.50921048916607,-155.7,-2.264078951083393,122.96,2025-05-14 14:36:12.353
1747200972.363,22.32,36.03342105675932,-12.109736829722022,26.763421056759327,61.4063157729627,-47.233421056759326,186.42,106.45026317027798,166.51578943240673,-155.7,-2.263421056759326,122.96,2025-05-14 14:36:12.363
1747200972.373,22.32,36.03276316243526,-12.111710512694223,26.76276316243526,61.40894735025897,-47.232763162435255,186.42,106.44828948730577,166.52236837564743,-155.7,-2.262763162435258,122.96,2025-05-14 14:36:12.373
1747200972.383,22.32,36.032105268111195,-12.113684195666426,26.762105268111192,61.41157892755524,-47.23210526811119,186.42,106.44631580433357,166.5289473188881,-155.7,-2.2621052681111906,122.96,2025-05-14 14:36:12.383
1747200972.393,22.32,36.031447373787124,-12.115657878638629,26.761447373787124,61.41421050485151,-47.23144737378712,186.42,106.44434212136137,166.53552626212877,-155.7,-2.2614473737871235,122.96,2025-05-14 14:36:12.393
1747200972.403,22.32,36.030789463777616,-12.117631608667145,26.76078946377762,61.41684214488953,-47.23078946377762,186.42,106.44236839133285,166.54210536222382,-155.7,-2.260789463777618,122.96,2025-05-14 14:36:12.403
1747200972.413,22.32,36.03013156945355,-12.119605291639347,26.760131569453552,61.4194737221858,-47.23013156945355,186.42,106.44039470836066,166.5486843054645,-155.7,-2.2601315694535504,122.96,2025-05-14 14:36:12.413
1747200972.415,22.32,36.03,-12.12,26.76,61.42,-47.23,186.42,106.44,166.55,-155.7,-2.26,122.96,2025-05-14 14:36:12.415
1747200972.425,22.31108912363529,36.018118831513725,-12.161584089701977,26.74910892888758,61.47049496606669,-47.21217824727058,186.42396038949542,106.4083168840366,166.68168295072294,-155.69900990262613,-2.26,122.95900990262614,2025-05-14 14:36:12.425
1747200972.435,22.302178247270582,36.00623766302744,-12.203168179403953,26.738217857775155,61.520989932133375,-47.19435649454116,186.42792077899085,106.37663376807318,166.81336590144585,-155.69801980525227,-2.26,122.95801980525228,2025-05-14 14:36:12.435
1747200972.445,22.293267370905873,35.994356494541165,-12.24475226910593,26.727326786662733,61.57148489820006,-47.17653474181174,186.43188116848629,106.34495065210977,166.94504885216878,-155.69702970787841,-2.26,122.95702970787843,2025-05-14 14:36:12.445
1747200972.455,22.284356494541164,35.98247532605488,-12.286336358807906,26.71643571555031,61.62197986426675,-47.158712989082325,186.4358415579817,106.31326753614636,167.07673180289171,-155.69603961050456,-2.26,122.95603961050458,2025-05-14 14:36:12.455
1747200972.465,22.275445618176455,35.970594157568605,-12.327920448509884,26.705544644437886,61.672474830333435,-47.14089123635291,186.43980194747712,106.28158442018295,167.20841475361465,-155.6950495131307,-2.26,122.95504951313072,2025-05-14 14:36:12.465
1747200972.475,22.266534741811743,35.95871298908232,-12.369504538211862,26.694653573325464,61.72296979640012,-47.12306948362348,186.44376233697255,106.24990130421953,167.34009770433755,-155.69405941575687,-2.26,122.95405941575686,2025-05-14 14:36:12.475
1747200972.485,22.257623865447034,35.946831820596046,-12.411088627913838,26.683762502213042,61.7734647624668,-47.105247730894064,186.447722726468,106.21821818825613,167.47178065506048,-155.693069318383,-2.26,122.953069318383,2025-05-14 14:36:12.485
1747200972.495,22.248712989082325,35.93495065210976,-12.452672717615815,26.672871431100617,61.82395972853349,-47.087425978164646,186.45168311596342,106.18653507229271,167.60346360578342,-155.69207922100915,-2.26,122.95207922100914,2025-05-14 14:36:12.495
1747200972.505,22.239801900265565,35.923069200354085,-12.494257798760696,26.661980100324577,61.87445589849513,-47.06960380053113,186.45564359988197,106.15485120094424,167.73514969607552,-155.6910891000295,-2.26,122.9510891000295,2025-05-14 14:36:12.505
1747200972.515,22.230891023900856,35.9111880318678,-12.535841888462672,26.651089029212155,61.924950864561815,-47.05178204780171,186.4596039893774,106.12316808498082,167.86683264679846,-155.69009900265564,-2.26,122.95009900265565,2025-05-14 14:36:12.515
1747200972.516,22.23,35.91,-12.54,26.65,61.93,-47.05,186.46,106.12,167.88,-155.69,-2.26,122.95,2025-05-14 14:36:12.516
1747200972.526,22.227285069923546,35.90683258157747,-12.550859720305823,26.646832581577467,61.94357465038228,-47.04547511653924,186.46045248834608,106.11140272142457,167.91484160264784,-155.68954751165393,-2.26,122.95,2025-05-14 14:36:12.526
1747200972.536,22.22457013984709,35.90366516315493,-12.561719440611645,26.643665163154935,61.957149300764556,-47.040950233078476,186.46090497669215,106.10280544284912,167.94968320529568,-155.68909502330786,-2.26,122.95,2025-05-14 14:36:12.536
1747200972.546,22.221855209770634,35.900497744732405,-12.572579160917469,26.640497744732404,61.97072395114684,-47.036425349617716,186.46135746503825,106.09420816427368,167.98452480794356,-155.68864253496176,-2.26,122.95,2025-05-14 14:36:12.546
1747200972.556,22.219140279694177,35.89733032630987,-12.583438881223291,26.637330326309872,61.98429860152911,-47.03190046615696,186.46180995338432,106.08561088569823,168.0193664105914,-155.6881900466157,-2.26,122.95,2025-05-14 14:36:12.556
1747200972.566,22.216425349617722,35.89416290788734,-12.594298601529115,26.63416290788734,61.99787325191139,-47.0273755826962,186.4622624417304,106.0770136071228,168.05420801323925,-155.68773755826962,-2.26,122.95,2025-05-14 14:36:12.566
1747200972.576,22.213710419541265,35.89099548946481,-12.605158321834939,26.63099548946481,62.011447902293675,-47.02285069923544,186.46271493007646,106.06841632854734,168.0890496158871,-155.68728506992355,-2.26,122.95,2025-05-14 14:36:12.576
1747200972.586,22.21099548946481,35.88782807104228,-12.61601804214076,26.627828071042277,62.02502255267595,-47.01832581577468,186.46316741842253,106.0598190499719,168.12389121853494,-155.68683258157748,-2.26,122.95,2025-05-14 14:36:12.586
1747200972.596,22.208280559388356,35.88466065261974,-12.626877762446584,26.624660652619745,62.03859720305823,-47.01380093231392,186.4636199067686,106.05122177139646,168.15873282118278,-155.6863800932314,-2.26,122.95,2025-05-14 14:36:12.596
1747200972.606,22.2055656293119,35.881493234197215,-12.637737482752408,26.621493234197214,62.052171853440505,-47.00927604885316,186.4640723951147,106.04262449282102,168.19357442383065,-155.6859276048853,-2.26,122.95,2025-05-14 14:36:12.606
1747200972.616,22.202850699235444,35.87832581577468,-12.64859720305823,26.618325815774682,62.06574650382279,-47.004751165392406,186.46452488346077,106.03402721424557,168.2284160264785,-155.68547511653924,-2.26,122.95,2025-05-14 14:36:12.616
1747200972.626,22.200135769158987,35.87515839735215,-12.659456923364054,26.61515839735215,62.07932115420507,-47.000226281931646,186.46497737180684,106.02542993567013,168.26325762912634,-155.68502262819317,-2.26,122.95,2025-05-14 14:36:12.626
1747200972.636,22.197420839082532,35.87199097892962,-12.670316643669876,26.61199097892962,62.09289580458734,-46.995701398470885,186.4654298601529,106.01683265709468,168.2980992317742,-155.6845701398471,-2.26,122.95,2025-05-14 14:36:12.636
1747200972.646,22.194705909006075,35.86882356050709,-12.6811763639757,26.608823560507087,62.106470454969624,-46.991176515010125,186.46588234849898,106.00823537851925,168.33294083442203,-155.68411765150103,-2.26,122.95,2025-05-14 14:36:12.646
1747200972.656,22.19199097892962,35.86565614208455,-12.692036084281524,26.605656142084555,62.120045105351906,-46.986651631549364,186.46633483684508,105.9996380999438,168.36778243706988,-155.68366516315493,-2.26,122.95,2025-05-14 14:36:12.656
1747200972.666,22.189276048853163,35.862488723662025,-12.702895804587346,26.602488723662024,62.13361975573418,-46.982126748088604,186.46678732519115,105.99104082136836,168.40262403971775,-155.68321267480886,-2.26,122.95,2025-05-14 14:36:12.666
1747200972.676,22.18656105404767,35.85932122972228,-12.713755783809324,26.59932122972228,62.14719472976166,-46.97760175674612,186.4672398243254,105.98244333781763,168.4374664730549,-155.68276017567462,-2.26,122.95,2025-05-14 14:36:12.676
1747200972.686,22.183846123971215,35.85615381129975,-12.724615504115148,26.596153811299747,62.16076938014393,-46.97307687328536,186.46769231267146,105.97384605924218,168.47230807570278,-155.68230768732855,-2.26,122.95,2025-05-14 14:36:12.686
1747200972.696,22.181131193894757,35.85298639287722,-12.735475224420972,26.592986392877215,62.174344030526214,-46.9685519898246,186.46814480101753,105.96524878066674,168.50714967835063,-155.68185519898248,-2.26,122.95,2025-05-14 14:36:12.696
1747200972.706,22.178416263818303,35.849818974454685,-12.746334944726794,26.589818974454683,62.18791868090849,-46.96402710636384,186.46859728936363,105.95665150209129,168.54199128099847,-155.68140271063638,-2.26,122.95,2025-05-14 14:36:12.706
1747200972.716,22.17570133374185,35.84665155603216,-12.757194665032618,26.58665155603215,62.20149333129077,-46.959502222903076,186.4690497777097,105.94805422351585,168.57683288364632,-155.6809502222903,-2.26,122.95,2025-05-14 14:36:12.716
1747200972.726,22.17298640366539,35.84348413760962,-12.768054385338441,26.58348413760962,62.21506798167305,-46.954977339442316,186.46950226605577,105.9394569449404,168.61167448629416,-155.68049773394424,-2.26,122.95,2025-05-14 14:36:12.726
1747200972.736,22.170271473588937,35.84031671918709,-12.778914105644263,26.58031671918709,62.228642632055326,-46.95045245598156,186.46995475440184,105.93085966636497,168.646516088942,-155.68004524559817,-2.26,122.95,2025-05-14 14:36:12.736
1747200972.737,22.17,35.84,-12.78,26.58,62.23,-46.95,186.47,105.93,168.65,-155.68,-2.26,122.95,2025-05-14 14:36:12.737
1747200972.747,22.163069318383005,35.831089123635294,-12.815643505458837,26.57108912363529,62.27257418707583,-46.93514853939215,186.47198019474772,105.90227727353202,168.76287110061966,-155.67900990262615,-2.26,122.95,2025-05-14 14:36:12.747
1747200972.757,22.15613863676601,35.822178247270585,-12.851287010917675,26.56217824727058,62.31514837415166,-46.9202970787843,186.47396038949543,105.87455454706404,168.87574220123932,-155.6780198052523,-2.26,122.95,2025-05-14 14:36:12.757
1747200972.767,22.149207955149013,35.813267370905876,-12.886930516376513,26.55326737090587,62.3577225612275,-46.90544561817646,186.47594058424315,105.84683182059605,168.98861330185895,-155.67702970787843,-2.26,122.95,2025-05-14 14:36:12.767
1747200972.777,22.142277273532017,35.80435649454117,-12.922574021835349,26.544356494541162,62.40029674830333,-46.89059415756861,186.47792077899086,105.81910909412807,169.1014844024786,-155.67603961050457,-2.26,122.95,2025-05-14 14:36:12.777
1747200972.787,22.13534659191502,35.79544561817646,-12.958217527294186,26.535445618176453,62.44287093537916,-46.87574269696076,186.47990097373858,105.79138636766008,169.21435550309826,-155.67504951313072,-2.26,122.95,2025-05-14 14:36:12.787
1747200972.797,22.128415910298024,35.78653474181174,-12.993861032753024,26.52653474181174,62.485445122455,-46.860891236352906,186.4818811684863,105.7636636411921,169.32722660371792,-155.67405941575686,-2.26,122.95,2025-05-14 14:36:12.797
1747200972.807,22.121485228681028,35.77762386544703,-13.029504538211862,26.51762386544703,62.52801930953083,-46.846039775745055,186.48386136323398,105.73594091472411,169.44009770433755,-155.673069318383,-2.26,122.95,2025-05-14 14:36:12.807
1747200972.817,22.11455454706403,35.768712989082324,-13.0651480436707,26.508712989082323,62.57059349660666,-46.831188315137204,186.4858415579817,105.70821818825613,169.5529688049572,-155.67207922100914,-2.26,122.95,2025-05-14 14:36:12.817
1747200972.827,22.107623865447035,35.759802112717615,-13.100791549129537,26.499802112717614,62.6131676836825,-46.81633685452936,186.48782175272942,105.68049546178814,169.66583990557686,-155.67108912363528,-2.26,122.95,2025-05-14 14:36:12.827
1747200972.837,22.10069318383004,35.750891236352906,-13.136435054588375,26.490891236352905,62.655741870758334,-46.80148539392151,186.48980194747713,105.65277273532016,169.77871100619652,-155.67009902626143,-2.26,122.95,2025-05-14 14:36:12.837
1747200972.838,22.1,35.75,-13.14,26.49,62.66,-46.8,186.49,105.65,169.79,-155.67,-2.26,122.95,2025-05-14 14:36:12.838
1747200972.848,22.09603960115574,35.745049501444676,-13.157821794799162,26.485049501444678,62.681782193643414,-46.793069302022545,186.49099009971107,105.63514850433404,169.84742578324173,-155.67,-2.26,122.94900990028894,2025-05-14 14:36:12.848
1747200972.858,22.092079202311485,35.74009900288936,-13.175643589598323,26.480099002889354,62.70356438728684,-46.78613860404509,186.49198019942213,105.62029700866808,169.90485156648347,-155.67,-2.26,122.94801980057787,2025-05-14 14:36:12.858
1747200972.868,22.088118803467225,35.735148504334035,-13.193465384397484,26.475148504334033,62.72534658093026,-46.77920790606764,186.4929702991332,105.6054455130021,169.9622773497252,-155.67,-2.26,122.9470297008668,2025-05-14 14:36:12.868
1747200972.878,22.08415840462297,35.73019800577871,-13.211287179196647,26.47019800577871,62.747128774573675,-46.77227720809019,186.49396039884425,105.59059401733613,170.01970313296698,-155.67,-2.26,122.94603960115575,2025-05-14 14:36:12.878
1747200972.888,22.08019800577871,35.725247507223386,-13.229108973995809,26.46524750722339,62.7689109682171,-46.765346510112735,186.49495049855534,105.57574252167016,170.07712891620872,-155.67,-2.26,122.94504950144467,2025-05-14 14:36:12.888
1747200972.898,22.076237606934452,35.72029700866807,-13.24693076879497,26.460297008668064,62.79069316186052,-46.75841581213529,186.4959405982664,105.5608910260042,170.13455469945046,-155.67,-2.26,122.94405940173361,2025-05-14 14:36:12.898
1747200972.908,22.072277208090192,35.715346510112745,-13.264752563594131,26.455346510112744,62.812475355503935,-46.75148511415784,186.49693069797746,105.54603953033822,170.1919804826922,-155.67,-2.26,122.94306930202255,2025-05-14 14:36:12.908
1747200972.918,22.068316809245935,35.71039601155742,-13.282574358393292,26.45039601155742,62.83425754914736,-46.744554416180385,186.49792079768852,105.53118803467225,170.24940626593394,-155.67,-2.26,122.94207920231148,2025-05-14 14:36:12.918
1747200972.928,22.064356410401675,35.7054455130021,-13.300396153192453,26.4454455130021,62.85603974279078,-46.73762371820293,186.49891089739958,105.51633653900629,170.30683204917568,-155.67,-2.26,122.94108910260042,2025-05-14 14:36:12.928
1747200972.938,22.06039601155742,35.70049501444678,-13.318217947991615,26.440495014446775,62.8778219364342,-46.73069302022548,186.49990099711064,105.50148504334032,170.36425783241742,-155.67,-2.26,122.94009900288935,2025-05-14 14:36:12.938
1747200972.939,22.06,35.7,-13.32,26.44,62.88,-46.73,186.5,105.5,170.37,-155.67,-2.26,122.94,2025-05-14 14:36:12.939
1747200972.949,22.058181822122616,35.69818182212262,-13.32545453363215,26.43818182212262,62.88727271150954,-46.72727273318392,186.5,105.49545455530654,170.38727268983516,-155.67,-2.26,122.94,2025-05-14 14:36:12.949
1747200972.959,22.05636360089645,35.696363600896454,-13.330909197310643,26.436363600896453,62.89454559641419,-46.72454540134468,186.5,105.49090900224114,170.4045457914837,-155.67,-2.26,122.94,2025-05-14 14:36:12.959
1747200972.969,22.054545423019068,35.69454542301907,-13.336363730942793,26.43454542301907,62.901818307923726,-46.721818134528604,186.5,105.48636355754768,170.42181848131884,-155.67,-2.26,122.94,2025-05-14 14:36:12.969
1747200972.979,22.052727245141686,35.69272724514169,-13.341818264574943,26.432727245141688,62.90909101943326,-46.71909086771253,186.5,105.48181811285421,170.439091171154,-155.67,-2.26,122.94,2025-05-14 14:36:12.979
1747200972.989,22.0509090672643,35.6909090672643,-13.347272798207095,26.430909067264302,62.91636373094279,-46.71636360089645,186.5,105.47727266816075,170.45636386098914,-155.67,-2.26,122.94,2025-05-14 14:36:12.989
1747200972.999,22.049090889386918,35.68909088938692,-13.352727331839246,26.42909088938692,62.92363644245233,-46.71363633408038,186.5,105.4727272234673,170.47363655082427,-155.67,-2.26,122.94,2025-05-14 14:36:12.999
1747200973.009,22.047272711509535,35.687272711509536,-13.358181865471398,26.427272711509538,62.93090915396186,-46.7109090672643,186.5,105.46818177877384,170.49090924065942,-155.67,-2.26,122.94,2025-05-14 14:36:13.009
1747200973.019,22.04545453363215,35.685454533632154,-13.363636399103548,26.425454533632152,62.9381818654714,-46.70818180044823,186.5,105.46363633408038,170.50818193049457,-155.67,-2.26,122.94,2025-05-14 14:36:13.019
1747200973.029,22.043636355754767,35.683636355754764,-13.369090932735698,26.42363635575477,62.94545457698093,-46.70545453363215,186.5,105.45909088938691,170.52545462032973,-155.67,-2.26,122.94,2025-05-14 14:36:13.029
1747200973.039,22.04181817787738,35.68181817787738,-13.37454546636785,26.421818177877384,62.952727288490465,-46.702727266816076,186.5,105.45454544469347,170.54272731016485,-155.67,-2.26,122.94,2025-05-14 14:36:13.039
1747200973.049,22.04,35.68,-13.38,26.42,62.96,-46.7,186.5,105.45,170.56,-155.67,-2.26,122.94,2025-05-14 14:36:13.049
1747200973.049,22.04,35.68,-13.38,26.42,62.96,-46.7,186.5,105.45,170.56,-155.67,-2.26,122.94,2025-05-14 14:36:13.049
1747200973.059,22.03485294298111,35.672647061401584,-13.40647057895429,26.41338235526143,62.99235292983302,-46.68897059210238,186.50073529385983,105.42794118420477,170.64455879388177,-155.66926470614015,-2.2592647061401583,122.94,2025-05-14 14:36:13.059
1747200973.069,22.02970588596222,35.665294122803175,-13.432941157908578,26.406764710522857,63.02470585966604,-46.67794118420476,186.5014705877197,105.40588236840952,170.7291175877635,-155.6685294122803,-2.2585294122803172,122.94,2025-05-14 14:36:13.069
1747200973.079,22.02455882894333,35.65794118420476,-13.459411736862865,26.400147065784285,63.05705878949906,-46.66691177630714,186.50220588157953,105.38382355261429,170.81367638164528,-155.66779411842046,-2.2577941184204757,122.94,2025-05-14 14:36:13.079
1747200973.089,22.019411771924442,35.65058824560634,-13.485882315817154,26.393529421045713,63.08941171933208,-46.65588236840952,186.50294117543936,105.36176473681904,170.89823517552702,-155.66705882456063,-2.2570588245606347,122.94,2025-05-14 14:36:13.089
1747200973.099,22.01426471490555,35.643235307007934,-13.512352894771443,26.38691177630714,63.121764649165094,-46.6448529605119,186.5036764692992,105.3397059210238,170.9827939694088,-155.6663235307008,-2.256323530700793,122.94,2025-05-14 14:36:13.099
1747200973.109,22.009117657886662,35.63588236840952,-13.538823473725731,26.38029413156857,63.15411757899812,-46.63382355261428,186.50441176315906,105.31764710522856,171.06735276329053,-155.66558823684093,-2.2555882368409517,122.94,2025-05-14 14:36:13.109
1747200973.119,22.003970600867774,35.6285294298111,-13.56529405268002,26.373676486829996,63.186470508831135,-46.62279414471666,186.5051470570189,105.29558828943333,171.1519115571723,-155.6648529429811,-2.2548529429811106,122.94,2025-05-14 14:36:13.119
1747200973.129,21.998823543848882,35.621176491212694,-13.591764631634309,26.367058842091424,63.21882343866415,-46.61176473681904,186.50588235087872,105.27352947363808,171.23647035105404,-155.66411764912127,-2.254117649121269,122.94,2025-05-14 14:36:13.129
1747200973.139,21.993676486829994,35.61382355261428,-13.618235210588598,26.360441197352852,63.25117636849717,-46.60073532892142,186.50661764473855,105.25147065784284,171.3210291449358,-155.66338235526143,-2.2533823552614276,122.94,2025-05-14 14:36:13.139
1747200973.149,21.988529429811106,35.60647061401586,-13.644705789542884,26.353823552614276,63.283529298330194,-46.5897059210238,186.50735293859842,105.2294118420476,171.40558793881755,-155.66264706140157,-2.2526470614015865,122.94,2025-05-14 14:36:13.149
1747200973.159,21.983382372792214,35.59911767541745,-13.671176368497173,26.347205907875704,63.31588222816321,-46.578676513126176,186.50808823245825,105.20735302625236,171.49014673269932,-155.66191176754174,-2.251911767541745,122.94,2025-05-14 14:36:13.159
1747200973.169,21.978235315773325,35.59176473681904,-13.697646947451462,26.340588263137132,63.34823515799623,-46.56764710522855,186.50882352631808,105.18529421045712,171.57470552658106,-155.6611764736819,-2.251176473681904,122.94,2025-05-14 14:36:13.169
1747200973.179,21.973088258754437,35.58441179822062,-13.72411752640575,26.33397061839856,63.380588087829246,-46.556617697330935,186.50955882017792,105.16323539466188,171.65926432046282,-155.66044117982207,-2.2504411798220625,122.94,2025-05-14 14:36:13.179
1747200973.185,21.97,35.58,-13.74,26.33,63.4,-46.55,186.51,105.15,171.71,-155.66,-2.25,122.94,2025-05-14 14:36:13.185
1747200973.195,21.96632353714592,35.57558824457511,-13.755441143987126,26.325588244575105,63.41838231427039,-46.54338236686266,186.51,105.13750002629614,171.75852930967383,-155.66,-2.25,122.94,2025-05-14 14:36:13.195
1747200973.205,21.962647074291844,35.57117648915021,-13.770882287974251,26.32117648915021,63.43676462854077,-46.53676473372532,186.51,105.12500005259228,171.80705861934766,-155.66,-2.25,122.94,2025-05-14 14:36:13.205
1747200973.215,21.958970611437767,35.56676473372532,-13.786323431961376,26.316764733725318,63.45514694281116,-46.53014710058798,186.51,105.11250007888842,171.85558792902148,-155.66,-2.25,122.94,2025-05-14 14:36:13.215
1747200973.225,21.95529414858369,35.562352978300424,-13.801764575948502,26.312352978300428,63.47352925708155,-46.52352946745064,186.51,105.10000010518455,171.9041172386953,-155.66,-2.25,122.94,2025-05-14 14:36:13.225
1747200973.235,21.951617685729612,35.557941222875534,-13.817205719935627,26.307941222875534,63.491911571351935,-46.5169118343133,186.51,105.08750013148068,171.95264654836913,-155.66,-2.25,122.94,2025-05-14 14:36:13.235
1747200973.245,21.947941222875535,35.553529467450645,-13.832646863922752,26.30352946745064,63.510293885622325,-46.51029420117596,186.51,105.07500015777683,172.00117585804296,-155.66,-2.25,122.94,2025-05-14 14:36:13.245
1747200973.255,21.94426467236767,35.5491176068412,-13.84808837605579,26.2991176068412,63.528676638161656,-46.503676410261804,186.51,105.06249988605008,172.04970632474678,-155.66,-2.25,122.94,2025-05-14 14:36:13.255
1747200973.265,21.940588209513592,35.54470585141631,-13.863529520042915,26.29470585141631,63.54705895243204,-46.497058777124465,186.51,105.04999991234622,172.0982356344206,-155.66,-2.25,122.94,2025-05-14 14:36:13.265
1747200973.275,21.936911746659515,35.54029409599142,-13.87897066403004,26.290294095991417,63.56544126670243,-46.49044114398713,186.51,105.03749993864236,172.14676494409443,-155.66,-2.25,122.94,2025-05-14 14:36:13.275
1747200973.285,21.933235283805438,35.53588234056652,-13.894411808017166,26.285882340566523,63.58382358097282,-46.48382351084979,186.51,105.02499996493849,172.19529425376825,-155.66,-2.25,122.94,2025-05-14 14:36:13.285
1747200973.295,21.92955882095136,35.53147058514163,-13.909852952004291,26.28147058514163,63.6022058952432,-46.47720587771245,186.51,105.01249999123462,172.24382356344208,-155.66,-2.25,122.94,2025-05-14 14:36:13.295
1747200973.305,21.925882358097283,35.527058829716744,-13.925294095991417,26.277058829716736,63.62058820951359,-46.470588244575104,186.51,105.00000001753077,172.29235287311587,-155.66,-2.25,122.94,2025-05-14 14:36:13.305
1747200973.315,21.922205895243206,35.52264707429185,-13.940735239978542,26.272647074291843,63.638970523783975,-46.463970611437766,186.51,104.9875000438269,172.3408821827897,-155.66,-2.25,122.94,2025-05-14 14:36:13.315
1747200973.321,21.92,35.52,-13.95,26.27,63.65,-46.46,186.51,104.98,172.37,-155.66,-2.25,122.94,2025-05-14 14:36:13.321
1747200973.331,21.918095240257767,35.518095240257765,-13.958571418840059,26.268095240257765,63.66047617858229,-46.45714286038665,186.51,104.97333334090217,172.3976190162624,-155.66,-2.25,122.94,2025-05-14 14:36:13.331
1747200973.341,21.91619048051553,35.51619048051553,-13.967142837680118,26.26619048051553,63.67095235716459,-46.45428572077329,186.51,104.96666668180436,172.42523803252485,-155.66,-2.25,122.94,2025-05-14 14:36:13.341
1747200973.351,21.914285720773293,35.514285720773294,-13.97571425652018,26.264285720773294,63.68142853574688,-46.45142858115994,186.51,104.96000002270652,172.45285704878725,-155.66,-2.25,122.94,2025-05-14 14:36:13.351
1747200973.361,21.912380961031058,35.51238096103106,-13.984285675360239,26.26238096103106,63.691904714329176,-46.44857144154659,186.51,104.9533333636087,172.48047606504966,-155.66,-2.25,122.94,2025-05-14 14:36:13.361
1747200973.371,21.910476201288823,35.510476201288824,-13.992857094200298,26.26047620128882,63.70238089291148,-46.445714301933236,186.51,104.94666670451087,172.50809508131206,-155.66,-2.25,122.94,2025-05-14 14:36:13.371
1747200973.381,21.908571441546588,35.508571441546586,-14.001428513040358,26.258571441546586,63.71285707149377,-46.44285716231988,186.51,104.94000004541306,172.5357140975745,-155.66,-2.25,122.94,2025-05-14 14:36:13.381
1747200973.391,21.90666668180435,35.506666681804354,-14.009999931880417,26.25666668180435,63.72333325007607,-46.44000002270653,186.51,104.93333338631523,172.5633331138369,-155.66,-2.25,122.94,2025-05-14 14:36:13.391
1747200973.401,21.904761922062114,35.504761922062116,-14.018571350720478,26.254761922062116,63.73380942865836,-46.43714288309317,186.51,104.92666672721741,172.5909521300993,-155.66,-2.25,122.94,2025-05-14 14:36:13.401
1747200973.411,21.90285716231988,35.502857162319884,-14.027142769560538,26.25285716231988,63.744285607240656,-46.43428574347982,186.51,104.92000006811958,172.61857114636172,-155.66,-2.25,122.94,2025-05-14 14:36:13.411
1747200973.421,21.900952402577644,35.500952402577646,-14.035714188400597,26.250952402577646,63.75476178582295,-46.431428603866465,186.51,104.91333340902176,172.64619016262415,-155.66,-2.25,122.94,2025-05-14 14:36:13.421
1747200973.426,21.9,35.5,-14.04,26.25,63.76,-46.43,186.51,104.91,172.66,-155.66,-2.25,122.94,2025-05-14 14:36:13.426
1747200973.436,21.892999999999997,35.49,-14.072999999999999,26.241,63.801,-46.416,186.509,104.88199999999999,172.765,-155.66,-2.249,122.939,2025-05-14 14:36:13.436
1747200973.446,21.886,35.48,-14.106,26.232,63.842,-46.402,186.50799999999998,104.854,172.87,-155.66,-2.248,122.938,2025-05-14 14:36:13.446
1747200973.456,21.878999999999998,35.47,-14.139,26.223,63.882999999999996,-46.388,186.507,104.826,172.975,-155.66,-2.247,122.937,2025-05-14 14:36:13.456
1747200973.466,21.872,35.46,-14.171999999999999,26.214,63.924,-46.374,186.506,104.798,173.08,-155.66,-2.246,122.936,2025-05-14 14:36:13.466
1747200973.476,21.865,35.45,-14.204999999999998,26.205,63.965,-46.36,186.505,104.77,173.185,-155.66,-2.245,122.935,2025-05-14 14:36:13.476
1747200973.486,21.857999999999997,35.44,-14.238,26.196,64.006,-46.346,186.504,104.74199999999999,173.29,-155.66,-2.244,122.934,2025-05-14 14:36:13.486
1747200973.496,21.851,35.43,-14.270999999999999,26.187,64.047,-46.332,186.503,104.714,173.395,-155.66,-2.2430000000000003,122.933,2025-05-14 14:36:13.496
1747200973.506,21.843999999999998,35.42,-14.303999999999998,26.178,64.088,-46.318,186.502,104.68599999999999,173.5,-155.66,-2.242,122.932,2025-05-14 14:36:13.506
1747200973.516,21.837,35.41,-14.337,26.169,64.129,-46.304,186.501,104.658,173.60500000000002,-155.66,-2.241,122.93100000000001,2025-05-14 14:36:13.516
1747200973.526,21.83,35.4,-14.37,26.16,64.17,-46.29,186.5,104.63,173.71,-155.66,-2.24,122.93,2025-05-14 14:36:13.526
1747200973.536,21.828089174586108,35.397452232781475,-14.379554127069456,26.157452232781477,64.18146495248335,-46.28617834917222,186.5,104.6217197565398,173.73993626481763,-155.66,-2.24,122.93,2025-05-14 14:36:13.536
1747200973.546,21.826178349172217,35.39490446556295,-14.389108254138915,26.154904465562957,64.1929299049667,-46.28235669834444,186.5,104.6134395130796,173.76987252963528,-155.66,-2.24,122.93,2025-05-14 14:36:13.546
1747200973.556,21.824267523758323,35.392356698344436,-14.398662381208371,26.152356698344434,64.20439485745004,-46.27853504751665,186.5,104.6051592696194,173.7998087944529,-155.66,-2.24,122.93,2025-05-14 14:36:13.556
1747200973.566,21.822356698344432,35.38980893112591,-14.408216508277828,26.149808931125914,64.21585980993339,-46.27471339668887,186.5,104.59687902615921,173.82974505927055,-155.66,-2.24,122.93,2025-05-14 14:36:13.566
1747200973.576,21.82044587293054,35.38726116390739,-14.417770635347285,26.14726116390739,64.22732476241674,-46.270891745861086,186.5,104.58859878269901,173.85968132408817,-155.66,-2.24,122.93,2025-05-14 14:36:13.576
1747200973.586,21.81853504751665,35.384713396688866,-14.427324762416744,26.144713396688868,64.2387897149001,-46.267070095033304,186.5,104.58031853923882,173.8896175889058,-155.66,-2.24,122.93,2025-05-14 14:36:13.586
1747200973.596,21.81662422210276,35.38216562947034,-14.4368788894862,26.142165629470348,64.25025466738344,-46.263248444205516,186.5,104.57203829577863,173.91955385372344,-155.66,-2.24,122.93,2025-05-14 14:36:13.596
1747200973.606,21.81471339668887,35.37961786225183,-14.446433016555657,26.139617862251825,64.26171961986678,-46.259426793377735,186.5,104.56375805231843,173.94949011854106,-155.66,-2.24,122.93,2025-05-14 14:36:13.606
1747200973.616,21.812802571274975,35.377070095033304,-14.455987143625114,26.1370700950333,64.27318457235013,-46.25560514254995,186.5,104.55547780885823,173.9794263833587,-155.66,-2.24,122.93,2025-05-14 14:36:13.616
1747200973.626,21.810891745861085,35.37452232781478,-14.465541270694573,26.134522327814782,64.28464952483348,-46.25178349172217,186.5,104.54719756539804,174.00936264817634,-155.66,-2.24,122.93,2025-05-14 14:36:13.626
1747200973.636,21.808980920447194,35.37197456059626,-14.47509539776403,26.13197456059626,64.29611447731683,-46.247961840894384,186.5,104.53891732193784,174.03929891299396,-155.66,-2.24,122.93,2025-05-14 14:36:13.636
1747200973.646,21.807070095033303,35.369426793377734,-14.484649524833486,26.12942679337774,64.30757942980019,-46.2441401900666,186.5,104.53063707847764,174.0692351778116,-155.66,-2.24,122.93,2025-05-14 14:36:13.646
1747200973.656,21.805159269619413,35.36687902615921,-14.494203651902943,26.126879026159216,64.31904438228352,-46.24031853923882,186.5,104.52235683501745,174.09917144262923,-155.66,-2.24,122.93,2025-05-14 14:36:13.656
1747200973.666,21.80324844420552,35.364331258940695,-14.503757778972401,26.124331258940693,64.33050933476687,-46.23649688841104,186.5,104.51407659155726,174.12910770744688,-155.66,-2.24,122.93,2025-05-14 14:36:13.666
1747200973.676,21.80133757323396,35.36178343097861,-14.513312133830215,26.12178343097861,64.34197456059626,-46.23267514646791,186.5,104.50579615068048,174.15904468600135,-155.66,-2.24,122.93,2025-05-14 14:36:13.676
1747200973.683,21.8,35.36,-14.52,26.12,64.35,-46.23,186.5,104.5,174.18,-155.66,-2.24,122.93,2025-05-14 14:36:13.683
