Najongs/2025_ICRA_Multi_View_Robot_Pose_Estimation/dataset/Meca_insertion/Meca_9th_hand/robot_data_interpolated.csv
timestamp,j1,j2,j3,j4,j5,j6,x,y,z,rx,ry,rz,datetime
1747200810.975,23.51,37.61,-6.64,28.22,54.74,-49.52,185.06,109.98,148.82,-156.16,-2.27,123.1,2025-05-14 14:33:30.975
1747200810.985,23.50369370317548,37.6009910045364,-6.6706305845762595,28.211891904082755,54.776936881400786,-49.50738740635096,185.0717116941027,109.96378380816552,148.91639625146058,-156.15639640181456,-2.27,123.09909910045363,2025-05-14 14:33:30.985
1747200810.995,23.497387406350953,37.59198200907279,-6.701261169152519,28.203783808165507,54.81387376280157,-49.494774812701905,185.08342338820538,109.94756761633103,149.01279250292114,-156.15279280362913,-2.27,123.09819820090728,2025-05-14 14:33:30.995
1747200811.005,23.491080959172454,37.582972798817785,-6.73189248401952,28.195675518936007,54.85081152484707,-49.48216191834491,185.09513536153688,109.93135103787202,149.10919105264966,-156.1491891195271,-2.27,123.09729727988177,2025-05-14 14:33:31.005
1747200811.015,23.484774662347927,37.57396380335418,-6.76252306859578,28.187567423018763,54.88774840624785,-49.469549324695855,185.10684705563958,109.91513484603753,149.20558730411025,-156.14558552134167,-2.27,123.09639638033542,2025-05-14 14:33:31.015
1747200811.025,23.478468365523405,37.56495480789057,-6.793153653172039,28.17945932710152,54.924685287648636,-49.45693673104681,185.11855874974225,109.89891865420304,149.3019835555708,-156.14198192315624,-2.27,123.09549548078905,2025-05-14 14:33:31.025
1747200811.035,23.472162068698882,37.55594581242697,-6.823784237748299,28.17135123118427,54.96162216904942,-49.444324137397764,185.13027044384495,109.88270246236854,149.3983798070314,-156.1383783249708,-2.27,123.0945945812427,2025-05-14 14:33:31.035
1747200811.045,23.465855771874356,37.54693681696337,-6.854414822324559,28.163243135267027,54.998559050450204,-49.43171154374871,185.14198213794762,109.86648627053405,149.494776058492,-156.13477472678534,-2.27,123.09369368169634,2025-05-14 14:33:31.045
1747200811.055,23.459549475049833,37.53792782149976,-6.885045406900818,28.155135039349783,55.03549593185099,-49.41909895009967,185.15369383205032,109.85027007869957,149.59117230995255,-156.1311711285999,-2.27,123.09279278214997,2025-05-14 14:33:31.055
1747200811.065,23.45324317822531,37.528918826036154,-6.915675991477078,28.147026943432536,55.072432813251766,-49.40648635645062,185.165405526153,109.83405388686508,149.68756856141314,-156.12756753041447,-2.27,123.09189188260362,2025-05-14 14:33:31.065
1747200811.075,23.446936881400784,37.519909830572544,-6.946306576053337,28.138918847515292,55.10936969465255,-49.39387376280157,185.1771172202557,109.81783769503059,149.78396481287373,-156.12396393222903,-2.27,123.09099098305725,2025-05-14 14:33:31.075
1747200811.085,23.44063058457626,37.51090083510894,-6.976937160629597,28.130810751598048,55.146306576053334,-49.38126116915252,185.18882891435837,109.80162150319609,149.8803610643343,-156.12036033404357,-2.27,123.0900900835109,2025-05-14 14:33:31.085
1747200811.086,23.44,37.51,-6.98,28.13,55.15,-49.38,185.19,109.8,149.89,-156.12,-2.27,123.09,2025-05-14 14:33:31.086
1747200811.096,23.43600000953673,37.50500001192091,-6.997999957084717,28.12500001192091,55.17199994754799,-49.37200001907346,185.19699998331072,109.79100002145763,149.9469998641016,-156.11800000476836,-2.2709999976158177,123.09,2025-05-14 14:33:31.096
1747200811.106,23.43200001907346,37.50000002384182,-7.015999914169434,28.120000023841822,55.19399989509597,-49.36400003814692,185.20399996662144,109.78200004291529,150.0039997282032,-156.11600000953672,-2.2719999952316354,123.09,2025-05-14 14:33:31.106
1747200811.116,23.42800002861019,37.495000035762736,-7.033999871254152,28.115000035762733,55.21599984264396,-49.35600005722038,185.21099994993216,109.77300006437292,150.0609995923048,-156.1140000143051,-2.2729999928474527,123.09,2025-05-14 14:33:31.116
1747200811.126,23.424000038146918,37.490000047683644,-7.051999828338869,28.110000047683645,55.23799979019195,-49.348000076293836,185.21799993324288,109.76400008583056,150.1179994564064,-156.11200001907346,-2.2739999904632704,123.09,2025-05-14 14:33:31.126
1747200811.136,23.420000047683647,37.48500005960456,-7.069999785423586,28.105000059604556,55.25999973773994,-49.340000095367294,185.2249999165536,109.7550001072882,150.17499932050802,-156.11000002384182,-2.274999988079088,123.09,2025-05-14 14:33:31.136
1747200811.146,23.416000057220376,37.480000071525474,-7.087999742508303,28.10000007152547,55.28199968528792,-49.33200011444075,185.23199989986432,109.74600012874585,150.23199918460963,-156.10800002861018,-2.275999985694906,123.09,2025-05-14 14:33:31.146
1747200811.156,23.412000066757106,37.47500008344638,-7.105999699593021,28.095000083446383,55.30399963283591,-49.32400013351421,185.23899988317507,109.73700015020349,150.28899904871122,-156.10600003337856,-2.276999983310723,123.09,2025-05-14 14:33:31.156
1747200811.166,23.408000076293835,37.4700000953673,-7.1239996566777375,28.090000095367294,55.3259995803839,-49.31600015258767,185.2459998664858,109.72800017166112,150.34599891281283,-156.10400003814692,-2.2779999809265408,123.09,2025-05-14 14:33:31.166
1747200811.176,23.40399999046327,37.464999988079086,-7.142000042915283,28.084999988079087,55.34800005245201,-49.30799998092654,185.25300001668927,109.71899997854236,150.4030001358984,-156.10199999523164,-2.279000002384182,123.09,2025-05-14 14:33:31.176
1747200811.186,23.4,37.46,-7.16,28.08,55.37,-49.3,185.26,109.71,150.46,-156.1,-2.28,123.09,2025-05-14 14:33:31.186
1747200811.186,23.4,37.46,-7.16,28.08,55.37,-49.3,185.26,109.71,150.46,-156.1,-2.28,123.09,2025-05-14 14:33:31.186
1747200811.196,23.39873417836125,37.45873417836125,-7.165696197374378,28.07873417836125,55.37696201901313,-49.298101267541874,185.26189873245812,109.70683544590312,150.47835441376188,-156.09936708918062,-2.28,123.08936708918063,2025-05-14 14:33:31.196
1747200811.206,23.3974683567225,37.4574683567225,-7.1713923947487554,28.0774683567225,55.38392403802625,-49.296202535083744,185.26379746491625,109.70367089180624,150.49670882752378,-156.09873417836124,-2.28,123.08873417836125,2025-05-14 14:33:31.206
1747200811.216,23.39620253508375,37.45620253508375,-7.177088592123133,28.07620253508375,55.39088605703938,-49.29430380262562,185.26569619737438,109.70050633770937,150.51506324128565,-156.09810126754186,-2.28,123.08810126754187,2025-05-14 14:33:31.216
1747200811.226,23.394936713444995,37.454936713445,-7.18278478949751,28.074936713444995,55.39784807605251,-49.2924050701675,185.26759492983248,109.69734178361249,150.53341765504754,-156.0974683567225,-2.28,123.0874683567225,2025-05-14 14:33:31.226
1747200811.236,23.393670891806245,37.45367089180625,-7.1884809868718875,28.073670891806245,55.404810095065635,-49.29050633770937,185.2694936622906,109.69417722951562,150.5517720688094,-156.0968354459031,-2.28,123.08683544590312,2025-05-14 14:33:31.236
1747200811.246,23.392405070167495,37.452405070167494,-7.194177184246265,28.072405070167495,55.411772114078765,-49.288607605251244,185.27139239474874,109.69101267541873,150.5701264825713,-156.09620253508373,-2.28,123.08620253508374,2025-05-14 14:33:31.246
1747200811.256,23.391139248528745,37.45113924852875,-7.199873381620643,28.071139248528745,55.418734133091895,-49.28670887279312,185.27329112720687,109.68784812132186,150.58848089633318,-156.09556962426439,-2.28,123.08556962426438,2025-05-14 14:33:31.256
1747200811.266,23.389873426889995,37.449873426889994,-7.2055695789950205,28.069873426889995,55.42569615210502,-49.28481014033499,185.275189859665,109.68468356722498,150.60683531009508,-156.094936713445,-2.28,123.084936713445,2025-05-14 14:33:31.266
1747200811.276,23.388607605251245,37.44860760525125,-7.211265776369398,28.068607605251245,55.43265817111815,-49.28291140787687,185.27708859212314,109.68151901312811,150.62518972385695,-156.09430380262563,-2.28,123.08430380262563,2025-05-14 14:33:31.276
1747200811.286,23.38734178361249,37.447341783612494,-7.216961973743776,28.06734178361249,55.43962019013128,-49.281012675418744,185.27898732458124,109.67835445903123,150.64354413761885,-156.09367089180625,-2.28,123.08367089180625,2025-05-14 14:33:31.286
1747200811.296,23.38607596197374,37.44607596197374,-7.2226581711181534,28.06607596197374,55.44658220914441,-49.27911394296062,185.28088605703937,109.67518990493436,150.66189855138072,-156.09303798098688,-2.28,123.08303798098687,2025-05-14 14:33:31.296
1747200811.306,23.38481014033499,37.444810140334994,-7.22835436849253,28.06481014033499,55.45354422815753,-49.27721521050249,185.2827847894975,109.67202535083747,150.6802529651426,-156.0924050701675,-2.28,123.0824050701675,2025-05-14 14:33:31.306
1747200811.316,23.38354431869624,37.44354431869624,-7.234050565866908,28.06354431869624,55.46050624717066,-49.27531647804437,185.28468352195563,109.6688607967406,150.69860737890448,-156.09177215934812,-2.28,123.08177215934812,2025-05-14 14:33:31.316
1747200811.326,23.38227849705749,37.44227849705749,-7.2397467632412855,28.06227849705749,55.46746826618379,-49.273417745586244,185.28658225441376,109.66569624264373,150.71696179266635,-156.09113924852875,-2.28,123.08113924852874,2025-05-14 14:33:31.326
1747200811.336,23.38101267541874,37.44101267541874,-7.245442960615663,28.06101267541874,55.47443028519692,-49.27151901312811,185.2884809868719,109.66253168854685,150.73531620642825,-156.09050633770937,-2.28,123.08050633770937,2025-05-14 14:33:31.336
1747200811.344,23.38,37.44,-7.25,28.06,55.48,-49.27,185.29,109.66,150.75,-156.09,-2.28,123.08,2025-05-14 14:33:31.344
1747200811.354,23.372800006866456,37.43040000915527,-7.283599967956543,28.051200008392332,55.520799961090084,-49.255600013732916,185.3019999885559,109.64080001831054,150.85799989700317,-156.0860000038147,-2.2807999992370602,123.07920000076294,2025-05-14 14:33:31.354
1747200811.364,23.36560001373291,37.420800018310544,-7.317199935913086,28.04240001678467,55.56159992218017,-49.24120002746582,185.31399997711182,109.62160003662109,150.96599979400634,-156.0820000076294,-2.281599998474121,123.07840000152588,2025-05-14 14:33:31.364
1747200811.374,23.358400020599365,37.41120002746582,-7.350799903869629,28.033600025177,55.60239988327026,-49.226800041198736,185.3259999656677,109.60240005493164,151.07399969100953,-156.0780000114441,-2.2823999977111815,123.07760000228882,2025-05-14 14:33:31.374
1747200811.384,23.35120002746582,37.40160003662109,-7.384399871826172,28.024800033569335,55.64319984436035,-49.21240005493164,185.33799995422362,109.58320007324218,151.1819995880127,-156.07400001525878,-2.283199996948242,123.07680000305176,2025-05-14 14:33:31.384
1747200811.394,23.344000034332275,37.39200004577636,-7.4179998397827145,28.016000041961668,55.68399980545044,-49.198000068664555,185.34999994277953,109.56400009155273,151.28999948501587,-156.0700000190735,-2.283999996185303,123.0760000038147,2025-05-14 14:33:31.394
1747200811.404,23.336800041198728,37.38240005493164,-7.451599807739258,28.007200050354005,55.72479976654053,-49.18360008239746,185.36199993133545,109.54480010986327,151.39799938201904,-156.06600002288818,-2.2847999954223632,123.07520000457764,2025-05-14 14:33:31.404
1747200811.414,23.329600048065185,37.37280006408691,-7.485199775695801,27.998400058746338,55.765599727630615,-49.169200096130375,185.37399991989136,109.52560012817382,151.5059992790222,-156.0620000267029,-2.2855999946594237,123.07440000534058,2025-05-14 14:33:31.414
1747200811.424,23.32240005493164,37.36320007324219,-7.518799743652344,27.98960006713867,55.8063996887207,-49.15480010986329,185.38599990844727,109.50640014648438,151.61399917602537,-156.05800003051758,-2.2863999938964845,123.0736000061035,2025-05-14 14:33:31.424
1747200811.434,23.315200061798095,37.35360008239746,-7.552399711608887,27.980800075531004,55.84719964981079,-49.140400123596194,185.39799989700316,109.48720016479493,151.72199907302857,-156.05400003433226,-2.287199993133545,123.07280000686644,2025-05-14 14:33:31.434
1747200811.444,23.30800006866455,37.344000091552736,-7.58599967956543,27.97200008392334,55.88799961090088,-49.12600013732911,185.40999988555907,109.46800018310547,151.82999897003174,-156.05000003814698,-2.2879999923706054,123.07200000762938,2025-05-14 14:33:31.444
1747200811.454,23.300800075531004,37.33440010070801,-7.619599647521973,27.963200092315674,55.92879957199097,-49.111600151062014,185.421999874115,109.44880020141602,151.9379988670349,-156.04600004196166,-2.2887999916076662,123.07120000839232,2025-05-14 14:33:31.454
1747200811.464,23.29360008239746,37.32480010986328,-7.653199615478515,27.954400100708007,55.96959953308106,-49.09720016479493,185.4339998626709,109.42960021972657,152.04599876403807,-156.04200004577635,-2.2895999908447267,123.07040000915526,2025-05-14 14:33:31.464
1747200811.469,23.29,37.32,-7.67,27.95,55.99,-49.09,185.44,109.42,152.1,-156.04,-2.29,123.07,2025-05-14 14:33:31.469
1747200811.479,23.285999999999998,37.315,-7.688,27.945,56.012,-49.082,185.446,109.41,152.158,-156.03799999999998,-2.29,123.07,2025-05-14 14:33:31.479
1747200811.489,23.282,37.31,-7.7059999999999995,27.939999999999998,56.034,-49.074000000000005,185.452,109.4,152.216,-156.036,-2.29,123.07,2025-05-14 14:33:31.489
1747200811.499,23.278,37.305,-7.724,27.935,56.056000000000004,-49.066,185.458,109.39,152.274,-156.034,-2.29,123.07,2025-05-14 14:33:31.499
1747200811.509,23.274,37.300000000000004,-7.742,27.93,56.078,-49.058,185.464,109.38,152.332,-156.032,-2.29,123.07,2025-05-14 14:33:31.509
1747200811.519,23.27,37.295,-7.76,27.924999999999997,56.1,-49.05,185.47,109.37,152.39,-156.03,-2.29,123.07,2025-05-14 14:33:31.519
1747200811.529,23.266,37.29,-7.778,27.919999999999998,56.122,-49.042,185.476,109.36,152.448,-156.028,-2.29,123.07,2025-05-14 14:33:31.529
1747200811.539,23.262,37.285000000000004,-7.795999999999999,27.915,56.144,-49.034,185.482,109.35,152.506,-156.026,-2.29,123.07,2025-05-14 14:33:31.539
1747200811.549,23.258,37.28,-7.814,27.91,56.166000000000004,-49.025999999999996,185.488,109.33999999999999,152.564,-156.024,-2.29,123.07,2025-05-14 14:33:31.549
1747200811.559,23.254,37.275000000000006,-7.832,27.904999999999998,56.188,-49.018,185.494,109.33,152.622,-156.02200000000002,-2.29,123.07,2025-05-14 14:33:31.559
1747200811.569,23.25,37.27,-7.85,27.9,56.21,-49.01,185.5,109.32,152.68,-156.02,-2.29,123.07,2025-05-14 14:33:31.569
1747200811.579,23.24836065701918,37.267540985528775,-7.857377043413686,27.89836065701918,56.21901638639451,-49.00754098552877,185.50245901447124,109.31590164254794,152.70295080173148,-156.0191803285096,-2.29,123.07,2025-05-14 14:33:31.579
1747200811.589,23.24672131403836,37.26508197105755,-7.864754086827371,27.89672131403836,56.22803277278901,-49.00508197105754,185.50491802894246,109.3118032850959,152.72590160346294,-156.0183606570192,-2.29,123.07,2025-05-14 14:33:31.589
1747200811.599,23.245081971057544,37.26262295658632,-7.872131130241057,27.895081971057543,56.23704915918351,-49.002622956586315,185.5073770434137,109.30770492764385,152.7488524051944,-156.01754098552877,-2.29,123.07,2025-05-14 14:33:31.599
1747200811.609,23.243442628076725,37.26016394211509,-7.8795081736547425,27.893442628076723,56.24606554557802,-49.00016394211509,185.5098360578849,109.3036065701918,152.77180320692588,-156.01672131403836,-2.29,123.07,2025-05-14 14:33:31.609
1747200811.619,23.241803285095905,37.25770492764386,-7.8868852170684285,27.891803285095904,56.255081931972526,-48.99770492764385,185.51229507235615,109.29950821273975,152.79475400865735,-156.01590164254796,-2.29,123.07,2025-05-14 14:33:31.619
1747200811.629,23.240163942115085,37.25524591317263,-7.8942622604821135,27.890163942115084,56.264098318367026,-48.995245913172624,185.51475408682737,109.29540985528772,152.81770481038882,-156.01508197105755,-2.29,123.07,2025-05-14 14:33:31.629
1747200811.639,23.238524599134266,37.2527868987014,-7.9016393038957995,27.888524599134264,56.27311470476153,-48.9927868987014,185.5172131012986,109.29131149783566,152.84065561212026,-156.01426229956712,-2.29,123.07,2025-05-14 14:33:31.639
1747200811.649,23.23688525615345,37.250327884230174,-7.909016347309485,27.886885256153448,56.28213109115604,-48.99032788423017,185.51967211576982,109.28721314038361,152.86360641385173,-156.01344262807672,-2.29,123.07,2025-05-14 14:33:31.649
1747200811.659,23.23524591317263,37.247868869758946,-7.9163933907231705,27.88524591317263,56.291147477550545,-48.98786886975894,185.52213113024106,109.28311478293156,152.8865572155832,-156.0126229565863,-2.29,123.07,2025-05-14 14:33:31.659
1747200811.669,23.23360657019181,37.24540985528772,-7.9237704341368564,27.88360657019181,56.300163863945045,-48.98540985528771,185.52459014471228,109.27901642547953,152.90950801731466,-156.0118032850959,-2.29,123.07,2025-05-14 14:33:31.669
1747200811.679,23.23196722721099,37.24295084081649,-7.931147477550542,27.88196722721099,56.30918025033955,-48.982950840816486,185.52704915918352,109.27491806802747,152.93245881904613,-156.01098361360548,-2.29,123.07,2025-05-14 14:33:31.679
1747200811.689,23.23032788423017,37.24049182634526,-7.9385245209642274,27.88032788423017,56.31819663673406,-48.98049182634526,185.52950817365473,109.27081971057542,152.9554096207776,-156.01016394211507,-2.29,123.07,2025-05-14 14:33:31.689
1747200811.691,23.23,37.24,-7.94,27.88,56.32,-48.98,185.53,109.27,152.96,-156.01,-2.29,123.07,2025-05-14 14:33:31.691
1747200811.701,23.222982467881486,37.23122808485186,-7.971578894533318,27.871228084851854,56.35859642665183,-48.96684212727778,185.54052629817778,109.25157897818889,153.06175421571848,-156.00649123394072,-2.29,123.06912280848518,2025-05-14 14:33:31.701
1747200811.711,23.21596493576297,37.22245616970371,-8.003157789066634,27.862456169703712,56.397192853303665,-48.95368425455557,185.55105259635553,109.2331579563778,153.16350843143695,-156.00298246788148,-2.29,123.06824561697037,2025-05-14 14:33:31.711
1747200811.721,23.208947403644455,37.213684254555574,-8.03473668359995,27.853684254555567,56.43578927995549,-48.94052638183335,185.5615788945333,109.21473693456669,153.2652626471554,-155.9994737018222,-2.29,123.06736842545556,2025-05-14 14:33:31.721
1747200811.731,23.20192987152594,37.20491233940743,-8.066315578133269,27.844912339407426,56.47438570660733,-48.92736850911113,185.5721051927111,109.1963159127556,153.36701686287387,-155.99596493576297,-2.29,123.06649123394074,2025-05-14 14:33:31.731
1747200811.741,23.194912339407427,37.19614042425928,-8.097894472666585,27.83614042425928,56.51298213325916,-48.91421063638892,185.58263149088887,109.17789489094449,153.46877107859234,-155.9924561697037,-2.29,123.06561404242592,2025-05-14 14:33:31.741
1747200811.751,23.18789480728891,37.18736850911114,-8.129473367199902,27.82736850911114,56.551578559910986,-48.901052763666705,185.59315778906662,109.1594738691334,153.5705252943108,-155.98894740364446,-2.29,123.06473685091112,2025-05-14 14:33:31.751
1747200811.761,23.180877275170396,37.17859659396299,-8.161052261733218,27.818596593962994,56.59017498656282,-48.88789489094449,185.6036840872444,109.14105284732229,153.67227951002926,-155.9854386375852,-2.29,123.0638596593963,2025-05-14 14:33:31.761
1747200811.771,23.17385974305188,37.169824678814855,-8.192631156266536,27.809824678814852,56.62877141321465,-48.87473701822228,185.61421038542218,109.12263182551119,153.77403372574773,-155.98192987152595,-2.29,123.06298246788148,2025-05-14 14:33:31.771
1747200811.781,23.166842210933364,37.16105276366671,-8.224210050799853,27.801052763666707,56.667367839866486,-48.86157914550006,185.62473668359996,109.10421080370008,153.8757879414662,-155.97842110546668,-2.29,123.06210527636667,2025-05-14 14:33:31.781
1747200811.791,23.15982467881485,37.152280848518565,-8.255788945333169,27.792280848518566,56.705964266518315,-48.84842127277784,185.63526298177771,109.08578978188899,153.97754215718467,-155.9749123394074,-2.29,123.06122808485186,2025-05-14 14:33:31.791
1747200811.801,23.152806979385172,37.14350872423147,-8.28736859276672,27.783508724231467,56.74456161338154,-48.8352630863472,185.64578953092226,109.06736832088608,154.079298798915,-155.9714034896926,-2.29,123.06035087242314,2025-05-14 14:33:31.801
1747200811.805,23.15,37.14,-8.3,27.78,56.76,-48.83,185.65,109.06,154.12,-155.97,-2.29,123.06,2025-05-14 14:33:31.805
1747200811.815,23.146226416791873,37.135283020989846,-8.316981124436568,27.775283020989843,56.78075470764469,-48.822452833583746,185.6556603748122,109.04962264617765,154.17471695651784,-155.96811320839595,-2.2909433958020315,123.05905660419798,2025-05-14 14:33:31.815
1747200811.825,23.142452833583746,37.130566041979684,-8.333962248873135,27.770566041979684,56.80150941528938,-48.814905667167494,185.6613207496244,109.0392452923553,154.22943391303565,-155.96622641679187,-2.291886791604063,123.05811320839594,2025-05-14 14:33:31.825
1747200811.835,23.13867925037562,37.12584906296953,-8.350943373309702,27.76584906296953,56.82226412293408,-48.80735850075124,185.66698112443657,109.02886793853297,154.28415086955349,-155.96433962518782,-2.2928301874060946,123.05716981259391,2025-05-14 14:33:31.835
1747200811.845,23.134905667167494,37.121132083959374,-8.36792449774627,27.76113208395937,56.84301883057877,-48.79981133433499,185.67264149924875,109.01849058471062,154.33886782607132,-155.96245283358374,-2.293773583208126,123.05622641679187,2025-05-14 14:33:31.845
1747200811.855,23.13113208395937,37.11641510494921,-8.384905622182837,27.756415104949212,56.86377353822346,-48.79226416791874,185.67830187406096,109.00811323088827,154.39358478258913,-155.9605660419797,-2.2947169790101576,123.05528302098985,2025-05-14 14:33:31.855
1747200811.865,23.127358500751242,37.11169812593906,-8.401886746619404,27.751698125939054,56.884528245868154,-48.784717001502486,185.68396224887314,108.99773587706592,154.44830173910697,-155.9586792503756,-2.295660374812189,123.05433962518781,2025-05-14 14:33:31.865
1747200811.875,23.123584917543116,37.1069811469289,-8.418867871055971,27.7469811469289,56.90528295351285,-48.777169835086234,185.68962262368532,108.98735852324357,154.50301869562477,-155.95679245877156,-2.2966037706142206,123.05339622938578,2025-05-14 14:33:31.875
1747200811.885,23.11981133433499,37.10226416791874,-8.435848995492538,27.74226416791874,56.926037661157544,-48.76962266866998,185.69528299849753,108.97698116942124,154.5577356521426,-155.95490566716748,-2.297547166416252,123.05245283358374,2025-05-14 14:33:31.885
1747200811.895,23.116037751126864,37.097547188908585,-8.452830119929105,27.737547188908582,56.946792368802235,-48.76207550225373,185.7009433733097,108.96660381559889,154.61245260866045,-155.95301887556343,-2.2984905622182836,123.05150943778172,2025-05-14 14:33:31.895
1747200811.905,23.112264167918738,37.09283020989843,-8.469811244365673,27.732830209898424,56.96754707644693,-48.75452833583748,185.7066037481219,108.95622646177654,154.66716956517826,-155.95113208395935,-2.2994339580203147,123.05056604197968,2025-05-14 14:33:31.905
1747200811.911,23.11,37.09,-8.48,27.73,56.98,-48.75,185.71,108.95,154.7,-155.95,-2.3,123.05,2025-05-14 14:33:31.911
1747200811.921,23.10593909071765,37.084923863397066,-8.498274091770567,27.72543147705736,57.00233500105291,-48.7423857950956,185.71507613660293,108.93883249947355,154.75837557093374,-155.94847715901912,-2.3,123.04949238633971,2025-05-14 14:33:31.921
1747200811.931,23.101878181435303,37.079847726794135,-8.516548183541133,27.72086295411472,57.02467000210583,-48.734771590191194,185.72015227320588,108.9276649989471,154.81675114186748,-155.94695431803822,-2.3,123.04898477267942,2025-05-14 14:33:31.931
1747200811.941,23.097817272152955,37.0747715901912,-8.534822275311699,27.716294431172077,57.04700500315874,-48.727157385286795,185.7252284098088,108.91649749842063,154.87512671280126,-155.94543147705735,-2.3,123.04847715901911,2025-05-14 14:33:31.941
1747200811.951,23.093756362870607,37.06969545358826,-8.553096367082265,27.711725908229432,57.069340004211654,-48.71954318038239,185.73030454641176,108.90532999789417,154.933502283735,-155.94390863607646,-2.3,123.04796954535882,2025-05-14 14:33:31.951
1747200811.961,23.08969545358826,37.06461931698533,-8.571370458852831,27.70715738528679,57.09167500526457,-48.71192897547799,185.73538068301468,108.89416249736772,154.99187785466876,-155.9423857950956,-2.3,123.04746193169854,2025-05-14 14:33:31.961
1747200811.971,23.08563454430591,37.05954318038239,-8.589644550623397,27.70258886234415,57.114010006317486,-48.70431477057358,185.7404568196176,108.88299499684126,155.0502534256025,-155.9408629541147,-2.3,123.04695431803825,2025-05-14 14:33:31.971
1747200811.981,23.081573635023563,37.05446704377946,-8.607918642393965,27.69802033940151,57.1363450073704,-48.69670056566918,185.74553295622056,108.87182749631481,155.10862899653625,-155.93934011313382,-2.3,123.04644670437794,2025-05-14 14:33:31.981
1747200811.991,23.077512725741215,37.04939090717652,-8.626192734164531,27.693451816458868,57.15868000842332,-48.68908636076478,185.75060909282348,108.86065999578834,155.16700456747003,-155.93781727215296,-2.3,123.04593909071765,2025-05-14 14:33:31.991
1747200812.001,23.073451816458867,37.044314770573585,-8.644466825935098,27.688883293516227,57.181015009476226,-48.68147215586038,185.75568522942643,108.84949249526188,155.22538013840378,-155.93629443117206,-2.3,123.04543147705736,2025-05-14 14:33:32.001
1747200812.011,23.06939090717652,37.039238633970655,-8.662740917705664,27.684314770573586,57.20335001052914,-48.67385795095598,185.76076136602936,108.83832499473543,155.28375570933753,-155.9347715901912,-2.3,123.04492386339707,2025-05-14 14:33:32.011
1747200812.021,23.06532999789417,37.03416249736772,-8.68101500947623,27.679746247630945,57.22568501158206,-48.66624374605157,185.76583750263228,108.82715749420898,155.34213128027127,-155.9332487492103,-2.3,123.04441624973677,2025-05-14 14:33:32.021
1747200812.031,23.061269088611823,37.02908636076478,-8.699289101246796,27.6751777246883,57.248020012634974,-48.65862954114717,185.77091363923523,108.81598999368252,155.40050685120502,-155.93172590822942,-2.3,123.04390863607648,2025-05-14 14:33:32.031
1747200812.041,23.057208179329475,37.02401022416185,-8.717563193017362,27.67060920174566,57.27035501368789,-48.651015336242764,185.77598977583816,108.80482249315607,155.4588824221388,-155.93020306724853,-2.3,123.04340102241619,2025-05-14 14:33:32.041
1747200812.051,23.053147173227412,37.01893396653427,-8.735837720476644,27.66604056988084,57.29269054724923,-48.643400949801396,185.78106603346575,108.7936547263754,155.51725938485595,-155.92868018996026,-2.3,123.04289339665343,2025-05-14 14:33:32.051
1747200812.061,23.049086263945064,37.01385782993133,-8.75411181224721,27.661472046938197,57.315025548302145,-48.635786744897,185.78614217006867,108.78248722584893,155.5756349557897,-155.9271573489794,-2.3,123.04238578299314,2025-05-14 14:33:32.061
1747200812.071,23.045025354662716,37.008781693328395,-8.772385904017776,27.656903523995556,57.33736054935506,-48.6281725399926,185.7912183066716,108.77131972532247,155.63401052672344,-155.9256345079985,-2.3,123.04187816933285,2025-05-14 14:33:32.071
1747200812.081,23.040964445380368,37.003705556725464,-8.790659995788342,27.652335001052915,57.35969555040798,-48.62055833508819,185.79629444327455,108.76015222479602,155.6923860976572,-155.92411166701763,-2.3,123.04137055567256,2025-05-14 14:33:32.081
1747200812.091,23.03690353609802,36.998629420122526,-8.808934087558908,27.647766478110274,57.382030551460886,-48.61294413018379,185.80137057987747,108.74898472426956,155.75076166859094,-155.92258882603676,-2.3,123.04086294201225,2025-05-14 14:33:32.091
1747200812.101,23.032842626815672,36.993553283519596,-8.827208179329475,27.643197955167633,57.4043655525138,-48.605329925279385,185.80644671648042,108.73781722374311,155.80913723952472,-155.92106598505586,-2.3,123.04035532835196,2025-05-14 14:33:32.101
1747200812.108,23.03,36.99,-8.84,27.64,57.42,-48.6,185.81,108.73,155.85,-155.92,-2.3,123.04,2025-05-14 14:33:32.108
1747200812.118,23.026,36.985,-8.858,27.635,57.442,-48.593,185.815,108.71900000000001,155.908,-155.91899999999998,-2.3,123.04,2025-05-14 14:33:32.118
1747200812.128,23.022000000000002,36.980000000000004,-8.876,27.63,57.464,-48.586,185.82,108.708,155.966,-155.91799999999998,-2.3,123.04,2025-05-14 14:33:32.128
1747200812.138,23.018,36.975,-8.894,27.625,57.486000000000004,-48.579,185.82500000000002,108.697,156.024,-155.917,-2.3,123.04,2025-05-14 14:33:32.138
1747200812.148,23.014,36.97,-8.911999999999999,27.62,57.508,-48.572,185.83,108.686,156.082,-155.916,-2.3,123.04,2025-05-14 14:33:32.148
1747200812.158,23.009999999999998,36.965,-8.93,27.615000000000002,57.53,-48.565,185.835,108.67500000000001,156.14,-155.915,-2.3,123.04,2025-05-14 14:33:32.158
1747200812.168,23.006,36.96,-8.948,27.61,57.552,-48.558,185.84,108.664,156.198,-155.914,-2.3,123.04,2025-05-14 14:33:32.168
1747200812.178,23.002,36.955,-8.966,27.605,57.574,-48.551,185.845,108.653,156.256,-155.91299999999998,-2.3,123.04,2025-05-14 14:33:32.178
1747200812.188,22.997999999999998,36.949999999999996,-8.984,27.6,57.596000000000004,-48.544000000000004,185.85000000000002,108.64200000000001,156.314,-155.912,-2.3,123.04,2025-05-14 14:33:32.188
1747200812.198,22.994,36.945,-9.001999999999999,27.595,57.618,-48.537,185.85500000000002,108.631,156.372,-155.911,-2.3,123.04,2025-05-14 14:33:32.198
1747200812.208,22.99,36.94,-9.02,27.59,57.64,-48.53,185.86,108.62,156.43,-155.91,-2.3,123.04,2025-05-14 14:33:32.208
1747200812.218,22.99,36.939397591399704,-9.021807225800892,27.589397591399702,57.64180722580089,-48.528795182799406,185.8606024086003,108.6187951827994,156.436024086003,-155.9093975913997,-2.3,123.04,2025-05-14 14:33:32.218
1747200812.228,22.99,36.9387951827994,-9.023614451601784,27.588795182799405,57.643614451601785,-48.52759036559881,185.86120481720062,108.61759036559882,156.44204817200594,-155.9087951827994,-2.3,123.04,2025-05-14 14:33:32.228
1747200812.238,22.99,36.93819277419911,-9.025421677402676,27.588192774199108,57.64542167740267,-48.52638554839822,185.8618072258009,108.61638554839821,156.44807225800892,-155.9081927741991,-2.3,123.04,2025-05-14 14:33:32.238
1747200812.248,22.99,36.93759036559881,-9.027228903203568,27.58759036559881,57.64722890320357,-48.52518073119762,185.8624096344012,108.61518073119763,156.4540963440119,-155.90759036559882,-2.3,123.04,2025-05-14 14:33:32.248
1747200812.258,22.99,36.936987956998514,-9.02903612900446,27.586987956998513,57.64903612900446,-48.52397591399703,185.8630120430015,108.61397591399702,156.46012043001488,-155.9069879569985,-2.3,123.04,2025-05-14 14:33:32.258
1747200812.268,22.99,36.93638554839821,-9.030843354805352,27.586385548398216,57.65084335480535,-48.52277109679643,185.8636144516018,108.61277109679644,156.46614451601783,-155.90638554839822,-2.3,123.04,2025-05-14 14:33:32.268
1747200812.278,22.99,36.935783125435364,-9.032650623693906,27.585783125435363,57.65265062369391,-48.52156625087073,185.86421687456465,108.61156625087072,156.47216874564634,-155.90578312543536,-2.3,123.04,2025-05-14 14:33:32.278
1747200812.288,22.99,36.93518071683506,-9.034457849494798,27.585180716835065,57.6544578494948,-48.52036143367013,185.86481928316493,108.61036143367014,156.47819283164932,-155.90518071683508,-2.3,123.04,2025-05-14 14:33:32.288
1747200812.298,22.99,36.93457830823477,-9.03626507529569,27.584578308234768,57.65626507529569,-48.51915661646954,185.86542169176525,108.60915661646953,156.4842169176523,-155.90457830823476,-2.3,123.04,2025-05-14 14:33:32.298
1747200812.308,22.99,36.93397589963447,-9.038072301096582,27.58397589963447,57.65807230109658,-48.51795179926894,185.86602410036554,108.60795179926895,156.49024100365529,-155.90397589963447,-2.3,123.04,2025-05-14 14:33:32.308
1747200812.318,22.99,36.933373491034175,-9.039879526897474,27.583373491034173,57.65987952689748,-48.51674698206835,185.86662650896582,108.60674698206834,156.49626508965824,-155.9033734910342,-2.3,123.04,2025-05-14 14:33:32.318
1747200812.328,22.99,36.93277108243388,-9.041686752698364,27.582771082433876,57.661686752698365,-48.51554216486775,185.86722891756614,108.60554216486776,156.50228917566122,-155.90277108243387,-2.3,123.04,2025-05-14 14:33:32.328
1747200812.338,22.99,36.93216867383358,-9.043493978499257,27.58216867383358,57.66349397849926,-48.51433734766716,185.86783132616642,108.60433734766715,156.5083132616642,-155.9021686738336,-2.3,123.04,2025-05-14 14:33:32.338
1747200812.348,22.99,36.931566265233286,-9.045301204300149,27.58156626523328,57.66530120430015,-48.513132530466564,185.8684337347667,108.60313253046657,156.51433734766715,-155.9015662652333,-2.3,123.04,2025-05-14 14:33:32.348
1747200812.358,22.99,36.930963856632985,-9.04710843010104,27.580963856632984,57.667108430101045,-48.51192771326597,185.86903614336703,108.60192771326597,156.52036143367013,-155.90096385663298,-2.3,123.04,2025-05-14 14:33:32.358
1747200812.368,22.99,36.93036144803269,-9.048915655901933,27.580361448032686,57.668915655901934,-48.510722896065374,185.8696385519673,108.60072289606538,156.5263855196731,-155.9003614480327,-2.3,123.04,2025-05-14 14:33:32.368
1747200812.374,22.99,36.93,-9.05,27.58,57.67,-48.51,185.87,108.6,156.53,-155.9,-2.3,123.04,2025-05-14 14:33:32.374
1747200812.384,22.98126213794492,36.9183495172599,-9.09077668959036,27.56932039082157,57.71951455164544,-48.49349514945152,185.88067960917843,108.57378641383477,156.66106793082616,-155.89708737931497,-2.3,123.03902912643834,2025-05-14 14:33:32.384
1747200812.394,22.972524275889846,36.9066990345198,-9.131553379180719,27.558640781643142,57.769029103290876,-48.47699029890304,185.89135921835685,108.54757282766953,156.7921358616523,-155.89417475862996,-2.3,123.03805825287665,2025-05-14 14:33:32.394
1747200812.404,22.963786413834768,36.895048551779695,-9.17233006877108,27.547961172464717,57.81854365493631,-48.46048544835456,185.90203882753528,108.5213592415043,156.92320379247846,-155.89126213794492,-2.3,123.03708737931498,2025-05-14 14:33:32.404
1747200812.414,22.95504855177969,36.88339806903959,-9.21310675836144,27.53728156328629,57.86805820658175,-48.44398059780608,185.9127184367137,108.49514565533907,157.05427172330462,-155.8883495172599,-2.3,123.0361165057533,2025-05-14 14:33:32.414
1747200812.424,22.946310689724612,36.871747586299485,-9.253883447951798,27.52660195410786,57.91757275822718,-48.42747574725761,185.92339804589213,108.46893206917385,157.1853396541308,-155.88543689657487,-2.3,123.03514563219163,2025-05-14 14:33:32.424
1747200812.434,22.937572827669538,36.86009710355938,-9.294660137542158,27.515922344929432,57.96708730987262,-48.41097089670913,185.93407765507055,108.4427184830086,157.31640758495692,-155.88252427588986,-2.3,123.03417475862996,2025-05-14 14:33:32.434
1747200812.444,22.92883496561446,36.84844662081928,-9.335436827132517,27.505242735751008,58.016601861518055,-48.39446604616065,185.94475726424898,108.41650489684338,157.44747551578308,-155.87961165520483,-2.3,123.03320388506827,2025-05-14 14:33:32.444
1747200812.454,22.92009710355938,36.83679613807918,-9.376213516722878,27.49456312657258,58.06611641316349,-48.37796119561217,185.9554368734274,108.39029131067815,157.57854344660925,-155.8766990345198,-2.3,123.0322330115066,2025-05-14 14:33:32.454
1747200812.464,22.911359241504304,36.82514565533908,-9.416990206313237,27.48388351739415,58.11563096480893,-48.361456345063694,185.96611648260583,108.36407772451292,157.7096113774354,-155.87378641383478,-2.3,123.03126213794492,2025-05-14 14:33:32.464
1747200812.474,22.90262137944923,36.81349517259898,-9.457766895903596,27.473203908215723,58.165145516454366,-48.344951494515215,185.97679609178425,108.33786413834768,157.84067930826154,-155.87087379314974,-2.3,123.03029126438325,2025-05-14 14:33:32.474
1747200812.477,22.9,36.81,-9.47,27.47,58.18,-48.34,185.98,108.33,157.88,-155.87,-2.3,123.03,2025-05-14 14:33:32.477
1747200812.487,22.895049513130715,36.80405941575686,-9.49079204485099,27.46405941575686,58.20574253172027,-48.331089123635294,185.98495048686928,108.31613863676601,157.94633652404838,-155.8680198052523,-2.3,123.02900990262614,2025-05-14 14:33:32.487
1747200812.497,22.89009902626143,36.798118831513726,-9.511584089701977,27.45811883151372,58.231485063440545,-48.322178247270585,185.98990097373857,108.30227727353201,158.0126730480968,-155.86603961050457,-2.3,123.02801980525228,2025-05-14 14:33:32.497
1747200812.507,22.88514853939215,36.792178247270584,-9.532376134552965,27.45217824727058,58.25722759516081,-48.313267370905876,185.99485146060783,108.28841591029803,158.07900957214517,-155.86405941575686,-2.3,123.02702970787843,2025-05-14 14:33:32.507
1747200812.517,22.880198052522868,36.78623766302744,-9.553168179403954,27.446237663027443,58.28297012688108,-48.30435649454117,185.99980194747712,108.27455454706403,158.14534609619358,-155.86207922100914,-2.3,123.02603961050457,2025-05-14 14:33:32.517
1747200812.527,22.875247565653584,36.7802970787843,-9.573960224254943,27.4402970787843,58.30871265860136,-48.29544561817646,186.00475243434641,108.26069318383004,158.21168262024196,-155.86009902626142,-2.3,123.02504951313071,2025-05-14 14:33:32.527
1747200812.537,22.8702970787843,36.774356494541166,-9.594752269105932,27.434356494541163,58.33445519032163,-48.28653474181174,186.0097029212157,108.24683182059604,158.27801914429037,-155.8581188315137,-2.3,123.02405941575685,2025-05-14 14:33:32.537
1747200812.547,22.86534659191502,36.768415910298025,-9.615544313956919,27.42841591029802,58.360197722041896,-48.27762386544703,186.01465340808497,108.23297045736206,158.34435566833875,-155.85613863676602,-2.3,123.02306931838301,2025-05-14 14:33:32.547
1747200812.557,22.860396105045737,36.76247532605488,-9.636336358807908,27.422475326054883,58.38594025376217,-48.268712989082324,186.01960389495426,108.21910909412806,158.41069219238713,-155.8541584420183,-2.3,123.02207922100915,2025-05-14 14:33:32.557
1747200812.567,22.855445618176454,36.75653474181174,-9.657128403658897,27.416534741811745,58.41168278548244,-48.259802112717615,186.02455438182355,108.20524773089407,158.47702871643554,-155.8521782472706,-2.3,123.02108912363529,2025-05-14 14:33:32.567
1747200812.577,22.85049513130717,36.75059415756861,-9.677920448509884,27.410594157568603,58.43742531720271,-48.250891236352906,186.02950486869284,108.19138636766007,158.54336524048392,-155.85019805252287,-2.3,123.02009902626143,2025-05-14 14:33:32.577
1747200812.578,22.85,36.75,-9.68,27.41,58.44,-48.25,186.03,108.19,158.55,-155.85,-2.3,123.02,2025-05-14 14:33:32.578
1747200812.588,22.849310345394574,36.749310345394576,-9.684137927632552,27.409310345394573,58.44482758223798,-48.248620690789146,186.03068965460542,108.1872413815783,158.5631034375031,-155.85,-2.3,123.02,2025-05-14 14:33:32.588
1747200812.598,22.84862069078915,36.74862069078915,-9.688275855265104,27.40862069078915,58.449655164475956,-48.2472413815783,186.03137930921085,108.1844827631566,158.57620687500616,-155.85,-2.3,123.02,2025-05-14 14:33:32.598
1747200812.608,22.847931036183724,36.74793103618372,-9.692413782897658,27.407931036183722,58.45448274671393,-48.245862072367444,186.03206896381627,108.1817241447349,158.58931031250927,-155.85,-2.3,123.02,2025-05-14 14:33:32.608
1747200812.618,22.8472413815783,36.7472413815783,-9.69655171053021,27.4072413815783,58.45931032895191,-48.2444827631566,186.0327586184217,108.17896552631319,158.60241375001235,-155.85,-2.3,123.02,2025-05-14 14:33:32.618
1747200812.628,22.846551726972873,36.746551726972875,-9.700689638162762,27.40655172697287,58.46413791118989,-48.24310345394574,186.03344827302712,108.1762069078915,158.61551718751542,-155.85,-2.3,123.02,2025-05-14 14:33:32.628
1747200812.638,22.84586207236745,36.74586207236745,-9.704827565795314,27.405862072367448,58.468965493427866,-48.241724144734896,186.03413792763254,108.17344828946979,158.6286206250185,-155.85,-2.3,123.02,2025-05-14 14:33:32.638
1747200812.648,22.845172417762022,36.74517241776202,-9.708965493427868,27.40517241776202,58.473793075665846,-48.24034483552404,186.03482758223797,108.1706896710481,158.6417240625216,-155.85,-2.3,123.02,2025-05-14 14:33:32.648
1747200812.658,22.8444827631566,36.7444827631566,-9.71310342106042,27.404482763156597,58.47862065790382,-48.238965526313194,186.0355172368434,108.16793105262639,158.65482750002468,-155.85,-2.3,123.02,2025-05-14 14:33:32.658
1747200812.668,22.84379310855117,36.74379310855117,-9.717241348692973,27.40379310855117,58.4834482401418,-48.23758621710234,186.0362068914488,108.16517243420469,158.66793093752776,-155.85,-2.3,123.02,2025-05-14 14:33:32.668
1747200812.678,22.843103453945748,36.74310345394575,-9.721379276325525,27.403103453945747,58.48827582237978,-48.23620690789149,186.03689654605424,108.16241381578298,158.68103437503083,-155.85,-2.3,123.02,2025-05-14 14:33:32.678
1747200812.688,22.84241379934032,36.74241379934032,-9.725517203958077,27.40241379934032,58.493103404617756,-48.23482759868064,186.03758620065966,108.15965519736129,158.6941378125339,-155.85,-2.3,123.02,2025-05-14 14:33:32.688
1747200812.698,22.841724144734894,36.741724144734896,-9.729655131590631,27.401724144734892,58.497930986855735,-48.233448289469784,186.0382758552651,108.15689657893958,158.70724125003701,-155.85,-2.3,123.02,2025-05-14 14:33:32.698
1747200812.708,22.84103449012947,36.74103449012947,-9.733793059223183,27.40103449012947,58.502758569093714,-48.23206898025894,186.03896550987054,108.15413796051789,158.7203446875401,-155.85,-2.3,123.02,2025-05-14 14:33:32.708
1747200812.718,22.840344835524043,36.74034483552405,-9.737930986855735,27.40034483552404,58.50758615133169,-48.23068967104808,186.03965516447596,108.15137934209618,158.73344812504317,-155.85,-2.3,123.02,2025-05-14 14:33:32.718
1747200812.723,22.84,36.74,-9.74,27.4,58.51,-48.23,186.04,108.15,158.74,-155.85,-2.3,123.02,2025-05-14 14:33:32.723
1747200812.733,22.831964292556655,36.73017857979147,-9.774821398921157,27.390178579791467,58.5528571063645,-48.21482144149591,186.04803570744335,108.12678573405258,158.8524999042068,-155.84732143085222,-2.3008928563825934,123.0191071436174,2025-05-14 14:33:32.733
1747200812.743,22.82392858511331,36.72035715958294,-9.809642797842312,27.380357159582935,58.595714212729,-48.19964288299181,186.05607141488667,108.10357146810513,158.96499980841364,-155.84464286170444,-2.3017857127651875,123.01821428723481,2025-05-14 14:33:32.743
1747200812.753,22.81589287766997,36.71053573937441,-9.844464196763468,27.370535739374404,58.6385713190935,-48.18446432448772,186.06410712233003,108.0803572021577,159.07749971262044,-155.84196429255664,-2.302678569147781,123.01732143085222,2025-05-14 14:33:32.753
1747200812.763,22.807857170226626,36.700714319165876,-9.879285595684623,27.360714319165876,58.681428425457995,-48.16928576598362,186.07214282977336,108.05714293621025,159.18999961682724,-155.83928572340886,-2.3035714255303747,123.01642857446963,2025-05-14 14:33:32.763
1747200812.773,22.79982146278328,36.690892898957344,-9.91410699460578,27.350892898957344,58.724285531822495,-48.154107207479534,186.0801785372167,108.03392867026282,159.30249952103406,-155.8366071542611,-2.304464281912969,123.01553571808704,2025-05-14 14:33:32.773
1747200812.783,22.791785755339937,36.68107147874881,-9.948928393526936,27.341071478748812,58.767142638186996,-48.13892864897544,186.08821424466007,108.01071440431538,159.41499942524086,-155.8339285851133,-2.3053571382955624,123.01464286170444,2025-05-14 14:33:32.783
1747200812.793,22.783750047896593,36.67125005854029,-9.98374979244809,27.33125005854028,58.8099997445515,-48.12375009047135,186.0962499521034,107.98750013836795,159.5274993294477,-155.83125001596554,-2.306249994678156,123.01375000532184,2025-05-14 14:33:32.793
1747200812.803,22.775714340453252,36.661428638331756,-10.018571191369247,27.32142863833175,58.852856850916,-48.10857153196725,186.10428565954675,107.9642858724205,159.6399992336545,-155.82857144681773,-2.3071428510607497,123.01285714893925,2025-05-14 14:33:32.803
1747200812.813,22.767678633009908,36.651607218123225,-10.053392590290404,27.311607218123218,58.8957139572805,-48.09339297346316,186.11232136699007,107.94107160647307,159.7524991378613,-155.82589287766996,-2.3080357074433437,123.01196429255666,2025-05-14 14:33:32.813
1747200812.823,22.759642925566563,36.64178579791469,-10.088213989211559,27.301785797914686,58.93857106364499,-48.078214414959064,186.12035707443343,107.91785734052563,159.86499904206812,-155.82321430852218,-2.3089285638259374,123.01107143617406,2025-05-14 14:33:32.823
1747200812.833,22.75160721812322,36.63196437770616,-10.123035388132715,27.291964377706158,58.981428170009494,-48.063035856454974,186.12839278187678,107.8946430745782,159.97749894627492,-155.8205357393744,-2.309821420208531,123.01017857979147,2025-05-14 14:33:32.833
1747200812.835,22.75,36.63,-10.13,27.29,58.99,-48.06,186.13,107.89,160.0,-155.82,-2.31,123.01,2025-05-14 14:33:32.835
1747200812.845,22.747037039653428,36.62629629956679,-10.143333321559576,27.287037039653427,59.00629628190615,-48.0548148193935,186.13296296034656,107.88111111896028,160.0429629250253,-155.81925925991334,-2.31,123.01,2025-05-14 14:33:32.845
1747200812.855,22.744074079306856,36.62259259913357,-10.156666643119152,27.284074079306855,59.022592563812296,-48.049629638786996,186.13592592069313,107.87222223792057,160.0859258500506,-155.8185185198267,-2.31,123.01,2025-05-14 14:33:32.855
1747200812.865,22.741111118960283,36.618888898700355,-10.169999964678727,27.281111118960283,59.038888845718446,-48.0444444581805,186.13888888103972,107.86333335688084,160.1288887750759,-155.81777777974006,-2.31,123.01,2025-05-14 14:33:32.865
1747200812.875,22.73814815861371,36.61518519826714,-10.183333286238303,27.27814815861371,59.05518512762459,-48.039259277574,186.14185184138628,107.85444447584113,160.1718517001012,-155.81703703965343,-2.31,123.01,2025-05-14 14:33:32.875
1747200812.885,22.73518519826714,36.61148149783392,-10.196666607797878,27.27518519826714,59.07148140953074,-48.034074096967494,186.14481480173285,107.84555559480141,160.2148146251265,-155.81629629956677,-2.31,123.01,2025-05-14 14:33:32.885
1747200812.895,22.732222237920567,36.60777779740071,-10.209999929357453,27.272222237920566,59.08777769143689,-48.02888891636099,186.14777776207941,107.8366667137617,160.2577775501518,-155.81555555948015,-2.31,123.01,2025-05-14 14:33:32.895
1747200812.905,22.729259277573995,36.604074096967494,-10.22333325091703,27.269259277573994,59.104073973343034,-48.02370373575449,186.150740722426,107.82777783272198,160.3007404751771,-155.8148148193935,-2.31,123.01,2025-05-14 14:33:32.905
1747200812.915,22.726296317227423,36.600370396534274,-10.236666572476604,27.26629631722742,59.120370255249185,-48.01851855514799,186.15370368277257,107.81888895168227,160.3437034002024,-155.81407407930686,-2.31,123.01,2025-05-14 14:33:32.915
1747200812.925,22.72333335688085,36.59666669610106,-10.249999894036181,27.26333335688085,59.136666537155335,-48.01333337454149,186.15666664311914,107.81000007064254,160.3866663252277,-155.8133333392202,-2.31,123.01,2025-05-14 14:33:32.925
1747200812.935,22.72037039653428,36.59296299566785,-10.263333215595756,27.260370396534277,59.15296281906148,-48.008148193934986,186.1596296034657,107.80111118960282,160.429629250253,-155.81259259913358,-2.31,123.01,2025-05-14 14:33:32.935
1747200812.945,22.717407436187706,36.589259295234626,-10.27666653715533,27.257407436187705,59.16925910096763,-48.00296301332848,186.1625925638123,107.79222230856311,160.4725921752783,-155.81185185904693,-2.31,123.01,2025-05-14 14:33:32.945
1747200812.955,22.714444475841134,36.58555559480141,-10.289999858714907,27.254444475841133,59.18555538287377,-47.99777783272198,186.16555552415886,107.78333342752339,160.5155551003036,-155.8111111189603,-2.31,123.01,2025-05-14 14:33:32.955
1747200812.965,22.71148151549456,36.5818518943682,-10.303333180274482,27.25148151549456,59.20185166477992,-47.99259265211548,186.16851848450543,107.77444454648368,160.5585180253289,-155.81037037887364,-2.31,123.01,2025-05-14 14:33:32.965
1747200812.97,22.71,36.58,-10.31,27.25,59.21,-47.99,186.17,107.77,160.58,-155.81,-2.31,123.01,2025-05-14 14:33:32.970
1747200812.98,22.70530201567803,36.57328859382575,-10.332147640375005,27.24395973444318,59.236845624696976,-47.98060403135606,186.17402684370452,107.75456376579923,160.65046976482958,-155.80865771876515,-2.31,123.00932885938258,2025-05-14 14:33:32.980
1747200812.99,22.700604031356058,36.56657718765151,-10.354295280750012,27.23791946888636,59.26369124939395,-47.971208062712115,186.1780536874091,107.73912753159847,160.72093952965915,-155.8073154375303,-2.31,123.00865771876515,2025-05-14 14:33:32.990
1747200813.0,22.69590604703409,36.559865781477264,-10.376442921125017,27.23187920332954,59.29053687409093,-47.96181209406818,186.18208053111363,107.7236912973977,160.7914092944887,-155.80597315629547,-2.31,123.00798657814774,2025-05-14 14:33:33.000
1747200813.01,22.691208062712118,36.55315437530302,-10.398590561500022,27.22583893777272,59.31738249878791,-47.952416125424236,186.18610737481816,107.70825506319696,160.86187905931826,-155.8046308750606,-2.31,123.00731543753031,2025-05-14 14:33:33.010
1747200813.02,22.686510078390146,36.546442969128776,-10.420738201875027,27.2197986722159,59.34422812348488,-47.94302015678029,186.19013421852273,107.6928188289962,160.93234882414782,-155.80328859382576,-2.31,123.00664429691288,2025-05-14 14:33:33.020
1747200813.03,22.681812094068174,36.539731562954536,-10.442885842250034,27.213758406659082,59.37107374818186,-47.93362418813635,186.19416106222727,107.67738259479543,161.0028185889774,-155.8019463125909,-2.31,123.00597315629545,2025-05-14 14:33:33.030
1747200813.04,22.677114109746206,36.53302015678029,-10.465033482625039,27.207718141102262,59.39791937287883,-47.92422821949241,186.1981879059318,107.66194636059467,161.07328835380693,-155.80060403135604,-2.31,123.00530201567803,2025-05-14 14:33:33.040
1747200813.05,22.672416125424235,36.52630875060604,-10.487181123000044,27.201677875545442,59.42476499757581,-47.91483225084847,186.20221474963637,107.6465101263939,161.1437581186365,-155.79926175012122,-2.31,123.00463087506061,2025-05-14 14:33:33.050
1747200813.06,22.667718141102263,36.5195973444318,-10.509328763375049,27.195637609988623,59.45161062227279,-47.905436282204526,186.2062415933409,107.63107389219314,161.21422788346607,-155.79791946888636,-2.31,123.00395973444319,2025-05-14 14:33:33.060
1747200813.07,22.66302015678029,36.512885938257554,-10.531476403750055,27.189597344431803,59.47845624696976,-47.89604031356058,186.21026843704544,107.6156376579924,161.28469764829563,-155.7965771876515,-2.31,123.00328859382576,2025-05-14 14:33:33.070
1747200813.08,22.65832217245832,36.506174532083314,-10.55362404412506,27.183557078874983,59.50530187166674,-47.88664434491664,186.21429528075,107.60020142379163,161.3551674131252,-155.79523490641665,-2.31,123.00261745320833,2025-05-14 14:33:33.080
1747200813.09,22.65362418813635,36.49946312590907,-10.575771684500065,27.177516813318164,59.53214749636371,-47.8772483762727,186.21832212445455,107.58476518959087,161.42563717795474,-155.7938926251818,-2.31,123.0019463125909,2025-05-14 14:33:33.090
1747200813.1,22.64892620381438,36.49275171973483,-10.59791932487507,27.171476547761344,59.55899312106069,-47.86785240762876,186.22234896815908,107.5693289553901,161.4961069427843,-155.79255034394697,-2.31,123.00127517197349,2025-05-14 14:33:33.100
1747200813.11,22.64422821949241,36.48604031356058,-10.620066965250077,27.165436282204524,59.58583874575767,-47.85845643898482,186.22637581186365,107.55389272118934,161.56657670761388,-155.79120806271212,-2.31,123.00060403135606,2025-05-14 14:33:33.110
1747200813.119,22.64,36.48,-10.64,27.16,59.61,-47.85,186.23,107.54,161.63,-155.79,-2.31,123.0,2025-05-14 14:33:33.119
1747200813.129,22.636078435039117,36.474117652558675,-10.660588216044637,27.154117652558675,59.63549017224574,-47.841176478838015,186.23392156496087,107.52529413139669,161.696666604335,-155.78803921751955,-2.31,123.0,2025-05-14 14:33:33.129
1747200813.139,22.632156870078234,36.46823530511735,-10.681176432089272,27.14823530511735,59.66098034449148,-47.83235295767603,186.23784312992177,107.51058826279338,161.76333320867002,-155.78607843503912,-2.31,123.0,2025-05-14 14:33:33.139
1747200813.149,22.62823530511735,36.462352957676025,-10.701764648133908,27.142352957676028,59.68647051673722,-47.82352943651404,186.24176469488265,107.49588239419008,161.82999981300503,-155.78411765255868,-2.31,123.0,2025-05-14 14:33:33.149
1747200813.159,22.62431374015647,36.4564706102347,-10.722352864178543,27.136470610234703,59.711960688982956,-47.81470591535205,186.24568625984352,107.48117652558676,161.89666641734004,-155.78215687007824,-2.31,123.0,2025-05-14 14:33:33.159
1747200813.169,22.620392175195587,36.450588262793374,-10.74294108022318,27.130588262793378,59.737450861228695,-47.805882394190064,186.24960782480443,107.46647065698345,161.96333302167506,-155.7801960875978,-2.31,123.0,2025-05-14 14:33:33.169
1747200813.179,22.616470610234703,36.44470591535205,-10.763529296267814,27.124705915352052,59.76294103347443,-47.79705887302808,186.2535293897653,107.45176478838013,162.02999962601007,-155.77823530511736,-2.31,123.0,2025-05-14 14:33:33.179
1747200813.189,22.61254904527382,36.43882356791073,-10.78411751231245,27.11882356791073,59.78843120572017,-47.78823535186609,186.25745095472618,107.43705891977682,162.09666623034508,-155.77627452263692,-2.31,123.0,2025-05-14 14:33:33.189
1747200813.199,22.608627480312936,36.4329412204694,-10.804705728357085,27.112941220469406,59.81392137796591,-47.779411830704106,186.26137251968706,107.42235305117352,162.1633328346801,-155.7743137401565,-2.31,123.0,2025-05-14 14:33:33.199
1747200813.209,22.60470582185457,36.42705873278185,-10.82529443526351,27.107058732781855,59.8394121579453,-47.77058809917278,186.26529417814544,107.40764683195464,162.23000102847232,-155.77235291092728,-2.31,123.0,2025-05-14 14:33:33.209
1747200813.219,22.60078425689369,36.42117638534053,-10.845882651308147,27.10117638534053,59.864902330191036,-47.76176457801079,186.26921574310632,107.39294096335132,162.29666763280733,-155.77039212844684,-2.31,123.0,2025-05-14 14:33:33.219
1747200813.221,22.6,36.42,-10.85,27.1,59.87,-47.76,186.27,107.39,162.31,-155.77,-2.31,123.0,2025-05-14 14:33:33.221
1747200813.231,22.598787879663615,36.41878787966361,-10.85545454151374,27.098787879663615,59.87666666185012,-47.757575759327224,186.2706060601682,107.38636363899084,162.3275757448776,-155.77,-2.31,123.0,2025-05-14 14:33:33.231
1747200813.241,22.597575759327228,36.41757575932723,-10.860909083027483,27.097575759327228,59.883333323700256,-47.75515151865445,186.2712121203364,107.38272727798167,162.34515148975524,-155.77,-2.31,123.0,2025-05-14 14:33:33.241
1747200813.251,22.59636363899084,36.41636363899084,-10.866363624541224,27.09636363899084,59.88999998555038,-47.75272727798168,186.2718181805046,107.37909091697252,162.36272723463284,-155.77,-2.31,123.0,2025-05-14 14:33:33.251
1747200813.261,22.595151518654454,36.415151518654454,-10.871818166054966,27.095151518654454,59.896666647400515,-47.7503030373089,186.2724242406728,107.37545455596336,162.38030297951045,-155.77,-2.31,123.0,2025-05-14 14:33:33.261
1747200813.271,22.593939398318064,36.413939398318064,-10.877272707568707,27.093939398318064,59.90333330925064,-47.74787879663613,186.273030300841,107.3718181949542,162.39787872438805,-155.77,-2.31,123.0,2025-05-14 14:33:33.271
1747200813.281,22.592727277981677,36.41272727798168,-10.88272724908245,27.092727277981677,59.90999997110077,-47.745454555963356,186.27363636100918,107.36818183394503,162.41545446926568,-155.77,-2.31,123.0,2025-05-14 14:33:33.281
1747200813.291,22.59151515764529,36.41151515764529,-10.88818179059619,27.09151515764529,59.9166666329509,-47.74303031529058,186.27424242117735,107.36454547293587,162.4330302141433,-155.77,-2.31,123.0,2025-05-14 14:33:33.291
1747200813.301,22.590303008409677,36.41030300840968,-10.89363646215646,27.090303008409677,59.923333453746785,-47.74060601681935,186.27484849579517,107.36090902522902,162.45060637805972,-155.77,-2.31,123.0,2025-05-14 14:33:33.301
1747200813.311,22.589090888073287,36.40909088807329,-10.899091003670202,27.089090888073287,59.93000011559691,-47.738181776146575,186.27545455596336,107.35727266421986,162.46818212293732,-155.77,-2.31,123.0,2025-05-14 14:33:33.311
1747200813.321,22.5878787677369,36.407878767736904,-10.904545545183943,27.0878787677369,59.93666677744704,-47.7357575354738,186.27606061613156,107.3536363032107,162.48575786781493,-155.77,-2.31,123.0,2025-05-14 14:33:33.321
1747200813.331,22.586666647400513,36.40666664740051,-10.910000086697684,27.086666647400513,59.94333343929717,-47.73333329480103,186.27666667629975,107.34999994220155,162.50333361269253,-155.77,-2.31,123.0,2025-05-14 14:33:33.331
1747200813.341,22.585454527064126,36.40545452706413,-10.915454628211426,27.085454527064126,59.950000101147296,-47.730909054128254,186.27727273646795,107.34636358119238,162.52090935757016,-155.77,-2.31,123.0,2025-05-14 14:33:33.341
1747200813.351,22.58424240672774,36.40424240672774,-10.920909169725167,27.08424240672774,59.95666676299742,-47.72848481345548,186.27787879663614,107.34272722018322,162.53848510244777,-155.77,-2.31,123.0,2025-05-14 14:33:33.351
1747200813.361,22.583030286391352,36.40303028639135,-10.92636371123891,27.083030286391352,59.963333424847555,-47.72606057278271,186.2784848568043,107.33909085917406,162.55606084732537,-155.77,-2.31,123.0,2025-05-14 14:33:33.361
1747200813.371,22.581818166054966,36.401818166054966,-10.93181825275265,27.081818166054966,59.97000008669768,-47.72363633210993,186.2790909169725,107.33545449816489,162.57363659220297,-155.77,-2.31,123.0,2025-05-14 14:33:33.371
1747200813.381,22.58060604571858,36.400606045718575,-10.937272794266393,27.08060604571858,59.976666748547814,-47.72121209143716,186.2796969771407,107.33181813715574,162.5912123370806,-155.77,-2.31,123.0,2025-05-14 14:33:33.381
1747200813.386,22.58,36.4,-10.94,27.08,59.98,-47.72,186.28,107.33,162.6,-155.77,-2.31,123.0,2025-05-14 14:33:33.386
1747200813.396,22.57108912363529,36.38910892888757,-10.97762370020655,27.069108928887577,60.02653457657126,-47.7041584420183,186.28594058424315,107.30227727353201,162.72376217173206,-155.7680198052523,-2.31,122.99900990262614,2025-05-14 14:33:33.396
1747200813.406,22.56217824727058,36.378217857775155,-11.0152474004131,27.058217857775155,60.07306915314252,-47.68831688403659,186.29188116848627,107.27455454706403,162.84752434346413,-155.76603961050458,-2.31,122.99801980525228,2025-05-14 14:33:33.406
1747200813.416,22.55326737090587,36.36732678666273,-11.052871100619651,27.04732678666273,60.11960372971378,-47.67247532605489,186.29782175272942,107.24683182059604,162.97128651519623,-155.76405941575686,-2.31,122.99702970787843,2025-05-14 14:33:33.416
1747200813.426,22.54435628208911,36.35643545588669,-11.090495697845972,27.03643545588669,60.16613941575686,-47.65663339038064,186.30376247860727,107.21910843316613,163.0950516376512,-155.7620791737976,-2.31,122.99603958689879,2025-05-14 14:33:33.426
1747200813.436,22.5354454057244,36.34554438477427,-11.128119398052522,27.025544384774268,60.21267399232812,-47.64079183239894,186.3097030628504,107.19138570669814,163.2188138093833,-155.76009897904987,-2.31,122.99504948952493,2025-05-14 14:33:33.436
1747200813.446,22.52653452935969,36.334653313661846,-11.165743098259073,27.014653313661846,60.25920856889938,-47.62495027441723,186.31564364709354,107.16366298023016,163.34257598111537,-155.75811878430216,-2.31,122.99405939215107,2025-05-14 14:33:33.446
1747200813.456,22.51762365299498,36.32376224254942,-11.203366798465623,27.003762242549424,60.30574314547064,-47.60910871643553,186.3215842313367,107.13594025376217,163.46633815284744,-155.75613858955444,-2.31,122.99306929477721,2025-05-14 14:33:33.456
1747200813.466,22.508712776630272,36.312871171437,-11.240990498672176,26.992871171437002,60.352277722041904,-47.59326715845382,186.3275248155798,107.10821752729419,163.5901003245795,-155.75415839480672,-2.31,122.99207919740336,2025-05-14 14:33:33.466
1747200813.476,22.499801900265563,36.30198010032458,-11.278614198878726,26.981980100324577,60.398812298613166,-47.57742560047212,186.33346539982296,107.0804948008262,163.71386249631158,-155.752178200059,-2.31,122.9910891000295,2025-05-14 14:33:33.476
1747200813.486,22.490891023900854,36.29108902921216,-11.316237899085277,26.971089029212155,60.44534687518442,-47.56158404249041,186.3394059840661,107.05277207435822,163.83762466804367,-155.7501980053113,-2.31,122.99009900265564,2025-05-14 14:33:33.486
1747200813.487,22.49,36.29,-11.32,26.97,60.45,-47.56,186.34,107.05,163.85,-155.75,-2.31,122.99,2025-05-14 14:33:33.487
1747200813.497,22.488351649215378,36.28780219895384,-11.328791204184641,26.967802198953837,60.46043955496926,-47.55670329843076,186.3410989005231,107.04395604712306,163.87637361255392,-155.74945054973847,-2.30945054973846,122.99,2025-05-14 14:33:33.497
1747200813.507,22.486703298430758,36.285604397907676,-11.337582408369283,26.96560439790768,60.47087910993852,-47.55340659686152,186.34219780104615,107.03791209424611,163.90274722510784,-155.7489010994769,-2.30890109947692,122.99,2025-05-14 14:33:33.507
1747200813.517,22.485054947646137,36.28340659686152,-11.346373612553922,26.963406596861518,60.48131866490778,-47.55010989529228,186.34329670156924,107.03186814136917,163.92912083766177,-155.74835164921538,-2.3083516492153797,122.99,2025-05-14 14:33:33.517
1747200813.527,22.483406596861517,36.28120879581536,-11.355164816738563,26.96120879581536,60.49175821987705,-47.54681319372304,186.34439560209233,107.02582418849224,163.9554944502157,-155.74780219895385,-2.3078021989538398,122.99,2025-05-14 14:33:33.527
1747200813.537,22.481758246076897,36.2790109947692,-11.363956020923204,26.959010994769198,60.50219777484631,-47.5435164921538,186.3454945026154,107.0197802356153,163.98186806276962,-155.7472527486923,-2.3072527486923,122.99,2025-05-14 14:33:33.537
1747200813.547,22.48010989529228,36.27681319372304,-11.372747225107846,26.956813193723036,60.51263732981557,-47.54021979058456,186.34659340313848,107.01373628273835,164.00824167532355,-155.74670329843076,-2.30670329843076,122.99,2025-05-14 14:33:33.547
1747200813.557,22.47846154450766,36.27461539267688,-11.381538429292487,26.954615392676878,60.52307688478483,-47.53692308901532,186.34769230366157,107.00769232986141,164.03461528787747,-155.74615384816923,-2.3061538481692194,122.99,2025-05-14 14:33:33.557
1747200813.567,22.47681319372304,36.27241759163072,-11.390329633477128,26.952417591630716,60.53351643975409,-47.53362638744608,186.34879120418464,107.00164837698448,164.0609889004314,-155.74560439790767,-2.3056043979076795,122.99,2025-05-14 14:33:33.567
1747200813.577,22.47516484293842,36.270219790584555,-11.399120837661767,26.95021979058456,60.54395599472335,-47.530329685876836,186.34989010470773,106.99560442410753,164.0873625129853,-155.74505494764614,-2.3050549476461395,122.99,2025-05-14 14:33:33.577
1747200813.587,22.4735164921538,36.2680219895384,-11.407912041846409,26.948021989538397,60.554395549692615,-47.527032984307596,186.35098900523082,106.98956047123059,164.11373612553922,-155.7445054973846,-2.3045054973845995,122.99,2025-05-14 14:33:33.587
1747200813.597,22.47186814136918,36.26582418849224,-11.41670324603105,26.94582418849224,60.564835104661874,-47.523736282738355,186.3520879057539,106.98351651835365,164.14010973809314,-155.74395604712308,-2.303956047123059,122.99,2025-05-14 14:33:33.597
1747200813.607,22.470219751284777,36.26362633504637,-11.425494659814532,26.943626335046368,60.57527490852976,-47.52043950256955,186.35318683247684,106.97747242137751,164.1664839794436,-155.7434065837616,-2.303406583761592,122.99,2025-05-14 14:33:33.607
1747200813.617,22.468571400500156,36.26142853400021,-11.434285863999172,26.941428534000206,60.585714463499016,-47.51714280100031,186.3542857329999,106.97142846850056,164.19285759199752,-155.74285713350005,-2.302857133500052,122.99,2025-05-14 14:33:33.617
1747200813.627,22.466923049715536,36.259230732954045,-11.443077068183813,26.939230732954048,60.596154018468276,-47.51384609943107,186.355384633523,106.96538451562363,164.21923120455145,-155.74230768323852,-2.3023076832385114,122.99,2025-05-14 14:33:33.627
1747200813.637,22.465274698930916,36.25703293190789,-11.451868272368454,26.937032931907886,60.60659357343754,-47.51054939786183,186.35648353404608,106.95934056274669,164.24560481710537,-155.741758232977,-2.3017582329769715,122.99,2025-05-14 14:33:33.637
1747200813.647,22.463626348146295,36.25483513086173,-11.460659476553095,26.934835130861725,60.6170331284068,-47.50725269629259,186.35758243456914,106.95329660986974,164.2719784296593,-155.74120878271543,-2.3012087827154315,122.99,2025-05-14 14:33:33.647
1747200813.657,22.461977997361675,36.25263732981556,-11.469450680737737,26.932637329815567,60.62747268337606,-47.50395599472335,186.35868133509223,106.9472526569928,164.29835204221322,-155.7406593324539,-2.3006593324538915,122.99,2025-05-14 14:33:33.657
1747200813.667,22.460329646577055,36.250439528769405,-11.478241884922376,26.930439528769405,60.63791223834532,-47.50065929315411,186.35978023561532,106.94120870411587,164.32472565476715,-155.74010988219237,-2.300109882192351,122.99,2025-05-14 14:33:33.667
1747200813.669,22.46,36.25,-11.48,26.93,60.64,-47.5,186.36,106.94,164.33,-155.74,-2.3,122.99,2025-05-14 14:33:33.669
1747200813.679,22.453000016689277,36.241000021457644,-11.512999921321981,26.922000019073458,60.67999990463271,-47.48600003337855,186.36399999046327,106.91500005960455,164.43599974727667,-155.73800000476837,-2.3,122.98900000238417,2025-05-14 14:33:33.679
1747200813.689,22.446000033378553,36.23200004291528,-11.545999842643964,26.914000038146916,60.71999980926541,-47.472000066757104,186.36799998092656,106.89000011920912,164.54199949455335,-155.73600000953672,-2.3,122.98800000476837,2025-05-14 14:33:33.689
1747200813.699,22.43900005006783,36.223000064372926,-11.578999763965944,26.90600005722038,60.75999971389811,-47.458000100135656,186.3719999713898,106.86500017881367,164.64799924183,-155.7340000143051,-2.3,122.98700000715255,2025-05-14 14:33:33.699
1747200813.709,22.43199989986434,36.21399987125415,-11.612000472068111,26.897999885559248,60.80000057220377,-47.44399979972868,186.37600005722038,106.83999964237265,164.75400151634,-155.73199997138983,-2.3,122.9859999856949,2025-05-14 14:33:33.709
1747200813.719,22.424999916553617,36.20499989271179,-11.645000393390093,26.889999904632706,60.84000047683648,-47.42999983310723,186.38000004768367,106.8149997019772,164.86000126361665,-155.72999997615818,-2.3,122.98499998807908,2025-05-14 14:33:33.719
1747200813.729,22.417999933242893,36.195999914169434,-11.678000314712074,26.881999923706164,60.88000038146918,-47.415999866485784,186.38400003814692,106.78999976158175,164.96600101089334,-155.72799998092654,-2.3,122.98399999046327,2025-05-14 14:33:33.729
1747200813.739,22.410999949932172,36.18699993562707,-11.711000236034057,26.873999942779623,60.92000028610188,-47.40199989986434,186.3880000286102,106.76499982118632,165.07200075817,-155.7259999856949,-2.3,122.98299999284745,2025-05-14 14:33:33.739
1747200813.749,22.40399996662145,36.177999957084715,-11.744000157356037,26.865999961853085,60.96000019073459,-47.387999933242895,186.39200001907346,106.73999988079088,165.17800050544665,-155.72399999046328,-2.3,122.98199999523163,2025-05-14 14:33:33.749
1747200813.759,22.396999983310725,36.16899997854235,-11.77700007867802,26.857999980926543,61.0000000953673,-47.37399996662145,186.39600000953675,106.71499994039544,165.28400025272333,-155.72199999523164,-2.3,122.98099999761583,2025-05-14 14:33:33.759
1747200813.769,22.39,36.16,-11.81,26.85,61.04,-47.36,186.4,106.69,165.39,-155.72,-2.3,122.98,2025-05-14 14:33:33.769
1747200813.769,22.39,36.16,-11.81,26.85,61.04,-47.36,186.4,106.69,165.39,-155.72,-2.3,122.98,2025-05-14 14:33:33.769
1747200813.779,22.38519230548799,36.154230766585584,-11.83019231695044,26.84423076658559,61.06403847256004,-47.35134614987838,186.4028846167072,106.67557691646397,165.45442310646092,-155.72,-2.3,122.98,2025-05-14 14:33:33.779
1747200813.789,22.38038461097598,36.14846153317117,-11.850384633900878,26.83846153317118,61.08807694512009,-47.34269229975677,186.40576923341442,106.66115383292795,165.51884621292183,-155.72,-2.3,122.98,2025-05-14 14:33:33.789
1747200813.799,22.375576916463974,36.14269229975677,-11.870576950851316,26.83269229975677,61.11211541768014,-47.33403844963515,186.40865385012162,106.64673074939192,165.58326931938277,-155.72,-2.3,122.98,2025-05-14 14:33:33.799
1747200813.809,22.370769221951964,36.136923066342355,-11.890769267801755,26.826923066342356,61.13615389024018,-47.325384599513534,186.41153846682883,106.63230766585589,165.64769242584367,-155.72,-2.3,122.98,2025-05-14 14:33:33.809
1747200813.819,22.365961527439953,36.13115383292794,-11.910961584752194,26.821153832927944,61.16019236280023,-47.316730749391915,186.41442308353604,106.61788458231986,165.7121155323046,-155.72,-2.3,122.98,2025-05-14 14:33:33.819
1747200813.829,22.361153832927943,36.12538459951353,-11.931153901702633,26.815384599513536,61.184230835360275,-47.308076899270304,186.41730770024324,106.60346149878384,165.77653863876554,-155.72,-2.3,122.98,2025-05-14 14:33:33.829
1747200813.839,22.356346138415937,36.119615366099126,-11.95134621865307,26.809615366099123,61.20826930792032,-47.299423049148686,186.42019231695045,106.58903841524781,165.84096174522645,-155.72,-2.3,122.98,2025-05-14 14:33:33.839
1747200813.849,22.351538443903927,36.11384613268471,-11.971538535603509,26.80384613268471,61.23230778048037,-47.29076919902707,186.42307693365765,106.57461533171178,165.9053848516874,-155.72,-2.3,122.98,2025-05-14 14:33:33.849
1747200813.859,22.346730749391917,36.1080768992703,-11.991730852553948,26.7980768992703,61.25634625304041,-47.28211534890546,186.42596155036486,106.56019224817575,165.96980795814832,-155.72,-2.3,122.98,2025-05-14 14:33:33.859
1747200813.869,22.341923054879906,36.10230766585589,-12.011923169504387,26.79230766585589,61.28038472560046,-47.27346149878384,186.42884616707207,106.54576916463974,166.03423106460923,-155.72,-2.3,122.98,2025-05-14 14:33:33.869
1747200813.873,22.34,36.1,-12.02,26.79,61.29,-47.27,186.43,106.54,166.06,-155.72,-2.3,122.98,2025-05-14 14:33:33.873
1747200813.883,22.339401198374187,36.098802396748376,-12.023592809754886,26.78880239674837,61.29479041300652,-47.26880239674838,186.43,106.53700599187093,166.07137723089048,-155.7194011983742,-2.3,122.97940119837419,2025-05-14 14:33:33.883
1747200813.893,22.33880239674837,36.09760479349674,-12.02718561950977,26.78760479349674,61.29958082601303,-47.267604793496744,186.43,106.53401198374186,166.08275446178095,-155.71880239674837,-2.3,122.97880239674838,2025-05-14 14:33:33.893
1747200813.903,22.338203580846,36.096407161692,-12.030778514923998,26.786407161692,61.304371353232,-47.266407161692,186.43,106.53101790423001,166.094131963926,-155.718203580846,-2.3,122.978203580846,2025-05-14 14:33:33.903
1747200813.913,22.337604779220186,36.095209558440374,-12.034371324678885,26.78520955844037,61.30916176623851,-47.265209558440375,186.43,106.52802389610093,166.10550919481648,-155.71760477922018,-2.3,122.97760477922019,2025-05-14 14:33:33.913
1747200813.923,22.33700597759437,36.09401195518874,-12.03796413443377,26.784011955188742,61.31395217924503,-47.26401195518874,186.43,106.52502988797185,166.11688642570695,-155.71700597759437,-2.3,122.97700597759437,2025-05-14 14:33:33.923
1747200813.933,22.336407175968557,36.092814351937115,-12.041556944188656,26.782814351937112,61.31874259225154,-47.262814351937116,186.43,106.52203587984279,166.12826365659743,-155.71640717596856,-2.3,122.97640717596856,2025-05-14 14:33:33.933
1747200813.943,22.335808374342744,36.09161674868549,-12.045149753943543,26.781616748685487,61.32353300525806,-47.26161674868549,186.43,106.51904187171371,166.13964088748787,-155.71580837434274,-2.3,122.97580837434275,2025-05-14 14:33:33.943
1747200813.953,22.335209572716927,36.090419145433856,-12.048742563698427,26.780419145433857,61.32832341826457,-47.26041914543386,186.43,106.51604786358465,166.15101811837835,-155.71520957271693,-2.3,122.97520957271693,2025-05-14 14:33:33.953
1747200813.963,22.334610771091114,36.08922154218223,-12.052335373453314,26.779221542182228,61.333113831271085,-47.25922154218223,186.43,106.51305385545557,166.16239534926882,-155.71461077109112,-2.3,122.97461077109112,2025-05-14 14:33:33.963
1747200813.973,22.334011969465298,36.0880239389306,-12.055928183208199,26.7780239389306,61.337904244277595,-47.2580239389306,186.43,106.5100598473265,166.1737725801593,-155.7140119694653,-2.3,122.9740119694653,2025-05-14 14:33:33.973
1747200813.983,22.333413167839485,36.08682633567897,-12.059520992963085,26.776826335678972,61.34269465728411,-47.25682633567897,186.43,106.50706583919742,166.18514981104977,-155.7134131678395,-2.3,122.97341316783948,2025-05-14 14:33:33.983
1747200813.993,22.33281436621367,36.085628732427345,-12.063113802717972,26.775628732427343,61.347485070290624,-47.25562873242735,186.43,106.50407183106836,166.19652704194024,-155.71281436621368,-2.3,122.97281436621367,2025-05-14 14:33:33.993
1747200814.003,22.332215564587855,36.08443112917571,-12.066706612472856,26.774431129175714,61.35227548329714,-47.254431129175714,186.43,106.50107782293928,166.20790427283072,-155.71221556458786,-2.3,122.97221556458786,2025-05-14 14:33:34.003
1747200814.013,22.331616762962042,36.083233525924086,-12.070299422227743,26.773233525924084,61.35706589630365,-47.25323352592409,186.43,106.49808381481022,166.2192815037212,-155.71161676296205,-2.3,122.97161676296204,2025-05-14 14:33:34.013
1747200814.023,22.331017961336226,36.08203592267245,-12.073892231982628,26.77203592267246,61.36185630931017,-47.252035922672455,186.43,106.49508980668114,166.23065873461167,-155.71101796133624,-2.3,122.97101796133623,2025-05-14 14:33:34.023
1747200814.033,22.330419159710413,36.08083831942083,-12.077485041737514,26.77083831942083,61.36664672231668,-47.25083831942083,186.43,106.49209579855207,166.24203596550214,-155.71041915971043,-2.3,122.97041915971042,2025-05-14 14:33:34.033
1747200814.04,22.33,36.08,-12.08,26.77,61.37,-47.25,186.43,106.49,166.25,-155.71,-2.3,122.97,2025-05-14 14:33:34.040
1747200814.05,22.321588801914476,36.0687850692193,-12.118317680167383,26.75971964678436,61.417663455817966,-47.233177603828956,186.43373831026022,106.46009351791814,166.37616797128285,-155.70906542243495,-2.3,122.97,2025-05-14 14:33:34.050
1747200814.06,22.31317760382895,36.05757013843861,-12.156635360334766,26.74943929356872,61.46532691163593,-47.216355207657905,186.43747662052047,106.43018703583628,166.50233594256568,-155.70813084486988,-2.3,122.97,2025-05-14 14:33:34.060
1747200814.07,22.30476640574343,36.0463552076579,-12.19495304050215,26.739158940353082,61.512990367453895,-47.19953281148686,186.4412149307807,106.40028055375441,166.62850391384853,-155.70719626730482,-2.3,122.97,2025-05-14 14:33:34.070
1747200814.08,22.296355207657907,36.03514027687721,-12.233270720669532,26.72887858713744,61.560653823271856,-47.18271041531582,186.44495324104093,106.37037407167256,166.7546718851314,-155.70626168973976,-2.3,122.97,2025-05-14 14:33:34.080
1747200814.09,22.28794400957238,36.02392534609651,-12.271588400836915,26.718598233921803,61.608317279089825,-47.16588801914477,186.44869155130115,106.3404675895907,166.88083985641424,-155.7053271121747,-2.3,122.97,2025-05-14 14:33:34.090
1747200814.1,22.27953281148686,36.012710415315816,-12.309906081004298,26.708317880706165,61.655980734907786,-47.14906562297372,186.4524298615614,106.31056110750885,167.00700782769707,-155.70439253460964,-2.3,122.97,2025-05-14 14:33:34.100
1747200814.11,22.271121613401338,36.00149548453512,-12.348223761171681,26.698037527490524,61.703644190725754,-47.13224322680268,186.45616817182162,106.28065462542698,167.13317579897992,-155.70345795704458,-2.3,122.97,2025-05-14 14:33:34.110
1747200814.12,22.262710415315812,35.990280553754424,-12.386541441339064,26.687757174274886,61.751307646543715,-47.11542083063163,186.45990648208186,106.25074814334512,167.25934377026277,-155.70252337947952,-2.3,122.97,2025-05-14 14:33:34.120
1747200814.13,22.25429901669151,35.97906535558868,-12.424860035072005,26.67747657595629,61.79897223874811,-47.09859803338302,186.46364488147043,106.22084094823649,167.38551474962733,-155.70158877963237,-2.3,122.97,2025-05-14 14:33:34.130
1747200814.14,22.245887818605986,35.967850424807985,-12.463177715239388,26.667196222740653,61.84663569456607,-47.081775637211976,186.46738319173068,106.19093446615463,167.5116827209102,-155.7006542020673,-2.3,122.97,2025-05-14 14:33:34.140
1747200814.147,22.24,35.96,-12.49,26.66,61.88,-47.07,186.47,106.17,167.6,-155.7,-2.3,122.97,2025-05-14 14:33:34.147
1747200814.157,22.23836734773317,35.95836734773317,-12.496530609067307,26.658367347733172,61.887346935200725,-47.06755102159976,186.4704081630667,106.16510204319952,167.6195918272019,-155.7,-2.3,122.97,2025-05-14 14:33:34.157
1747200814.167,22.236734695466346,35.956734695466345,-12.503061218134613,26.656734695466348,61.89469387040144,-47.06510204319952,186.47081632613342,106.16020408639905,167.63918365440384,-155.7,-2.3,122.97,2025-05-14 14:33:34.167
1747200814.177,22.235102043199518,35.955102043199524,-12.509591827201918,26.65510204319952,61.90204080560216,-47.06265306479928,186.47122448920013,106.15530612959856,167.65877548160574,-155.7,-2.3,122.97,2025-05-14 14:33:34.177
1747200814.187,22.233469390932694,35.953469390932696,-12.516122436269224,26.653469390932695,61.90938774080288,-47.06020408639904,186.47163265226683,106.15040817279808,167.67836730880768,-155.7,-2.3,122.97,2025-05-14 14:33:34.187
1747200814.197,22.231836738665866,35.95183673866587,-12.522653045336531,26.651836738665867,61.9167346760036,-47.0577551079988,186.47204081533354,106.1455102159976,167.6979591360096,-155.7,-2.3,122.97,2025-05-14 14:33:34.197
1747200814.207,22.230204086399038,35.95020408639904,-12.529183654403838,26.65020408639904,61.92408161120432,-47.05530612959856,186.47244897840022,106.14061225919713,167.71755096321152,-155.7,-2.3,122.97,2025-05-14 14:33:34.207
1747200814.217,22.228571434132213,35.94857143413221,-12.535714263471142,26.648571434132215,61.93142854640504,-47.052857151198324,186.47285714146693,106.13571430239665,167.73714279041343,-155.7,-2.3,122.97,2025-05-14 14:33:34.217
1747200814.227,22.226938781865385,35.94693878186539,-12.542244872538449,26.646938781865387,61.93877548160576,-47.05040817279808,186.47326530453364,106.13081634559616,167.75673461761534,-155.7,-2.3,122.97,2025-05-14 14:33:34.227
1747200814.237,22.22530612959856,35.94530612959856,-12.548775481605755,26.645306129598563,61.946122416806475,-47.04795919439784,186.47367346760035,106.12591838879568,167.77632644481727,-155.7,-2.3,122.97,2025-05-14 14:33:34.237
1747200814.247,22.223673477331733,35.943673477331735,-12.555306090673062,26.643673477331735,61.9534693520072,-47.0455102159976,186.47408163066706,106.1210204319952,167.79591827201918,-155.7,-2.3,122.97,2025-05-14 14:33:34.247
1747200814.257,22.22204082506491,35.94204082506491,-12.561836699740367,26.64204082506491,61.96081628720791,-47.043061237597364,186.47448979373377,106.11612247519473,167.81551009922111,-155.7,-2.3,122.97,2025-05-14 14:33:34.257
1747200814.267,22.22040817279808,35.94040817279808,-12.568367308807673,26.640408172798082,61.968163222408634,-47.04061225919712,186.47489795680048,106.11122451839424,167.83510192642302,-155.7,-2.3,122.97,2025-05-14 14:33:34.267
1747200814.277,22.218775520531253,35.93877552053126,-12.57489791787498,26.638775520531254,61.97551015760936,-47.03816328079688,186.47530611986718,106.10632656159376,167.85469375362493,-155.7,-2.3,122.97,2025-05-14 14:33:34.277
1747200814.287,22.21714286826443,35.93714286826443,-12.581428526942286,26.63714286826443,61.98285709281007,-47.03571430239664,186.4757142829339,106.10142860479328,167.87428558082686,-155.7,-2.3,122.97,2025-05-14 14:33:34.287
1747200814.297,22.2155102159976,35.9355102159976,-12.58795913600959,26.635510215997602,61.990204028010794,-47.0332653239964,186.4761224460006,106.09653064799281,167.89387740802877,-155.7,-2.3,122.97,2025-05-14 14:33:34.297
1747200814.307,22.213877563730776,35.933877563730775,-12.594489745076897,26.633877563730778,61.99755096321151,-47.030816345596165,186.4765306090673,106.09163269119233,167.9134692352307,-155.7,-2.3,122.97,2025-05-14 14:33:34.307
1747200814.317,22.212244911463948,35.932244911463954,-12.601020354144204,26.63224491146395,62.00489789841223,-47.02836736719592,186.47693877213402,106.08673473439184,167.9330610624326,-155.7,-2.3,122.97,2025-05-14 14:33:34.317
1747200814.327,22.21061225919712,35.930612259197126,-12.60755096321151,26.63061225919712,62.012244833612954,-47.02591838879568,186.4773469352007,106.08183677759136,167.95265288963455,-155.7,-2.3,122.97,2025-05-14 14:33:34.327
1747200814.337,22.208979606930296,35.9289796069303,-12.614081572278815,26.628979606930297,62.01959176881367,-47.02346941039544,186.4777550982674,106.07693882079089,167.97224471683646,-155.7,-2.3,122.97,2025-05-14 14:33:34.337
1747200814.347,22.207346954663468,35.92734695466347,-12.620612181346122,26.62734695466347,62.02693870401439,-47.021020431995204,186.47816326133412,106.07204086399041,167.99183654403836,-155.7,-2.3,122.97,2025-05-14 14:33:34.347
1747200814.357,22.20571426347114,35.92571426347114,-12.62714294611543,26.625714263471142,62.034285814379864,-47.01857139520671,186.4785714341322,106.06714279041343,168.0114288383463,-155.7,-2.3,122.97,2025-05-14 14:33:34.357
1747200814.367,22.204081611204316,35.924081611204315,-12.633673555182735,26.624081611204318,62.04163274958058,-47.016122416806475,186.4789795971989,106.06224483361295,168.03102066554823,-155.7,-2.3,122.97,2025-05-14 14:33:34.367
1747200814.377,22.202448958937488,35.922448958937494,-12.640204164250042,26.62244895893749,62.0489796847813,-47.01367343840623,186.4793877602656,106.05734687681246,168.05061249275013,-155.7,-2.3,122.97,2025-05-14 14:33:34.377
1747200814.387,22.200816306670664,35.920816306670666,-12.646734773317348,26.620816306670665,62.056326619982016,-47.01122446000599,186.47979592333232,106.05244892001198,168.07020431995207,-155.7,-2.3,122.97,2025-05-14 14:33:34.387
1747200814.392,22.2,35.92,-12.65,26.62,62.06,-47.01,186.48,106.05,168.08,-155.7,-2.3,122.97,2025-05-14 14:33:34.392
1747200814.402,22.19019608759779,35.90627452263691,-12.696078388290376,26.60823530511735,62.11784308317303,-46.99039217519558,186.48294117372066,106.01274513287161,168.22999985975378,-155.69803921751955,-2.299019608759779,122.96901960875978,2025-05-14 14:33:34.402
1747200814.412,22.180392175195585,35.89254904527382,-12.74215677658075,26.596470610234704,62.17568616634605,-46.97078435039117,186.4858823474413,105.97549026574322,168.37999971950757,-155.6960784350391,-2.2980392175195585,122.96803921751956,2025-05-14 14:33:34.412
1747200814.422,22.170588262793377,35.87882356791073,-12.788235164871125,26.584705915352053,62.23352924951907,-46.95117652558675,186.48882352116198,105.93823539861484,168.52999957926133,-155.69411765255867,-2.2970588262793377,122.96705882627934,2025-05-14 14:33:34.422
1747200814.432,22.16078435039117,35.86509809054764,-12.8343135531615,26.572941220469406,62.2913723326921,-46.93156870078234,186.49176469488265,105.90098053148644,168.67999943901512,-155.69215687007824,-2.296078435039117,122.96607843503911,2025-05-14 14:33:34.432
1747200814.442,22.150980437988963,35.85137261318455,-12.880391941451876,26.561176525586756,62.34921541586512,-46.911960875977925,186.4947058686033,105.86372566435806,168.82999929876888,-155.6901960875978,-2.2950980437988964,122.96509804379889,2025-05-14 14:33:34.442
1747200814.452,22.141176525586754,35.837647135821456,-12.926470329742251,26.549411830704106,62.40705849903814,-46.89235305117351,186.49764704232396,105.82647079722967,168.97999915852267,-155.68823530511736,-2.2941176525586755,122.96411765255867,2025-05-14 14:33:34.452
1747200814.462,22.13137261318455,35.82392165845837,-12.972548718032625,26.53764713582146,62.46490158221117,-46.8727452263691,186.50058821604463,105.78921593010128,169.12999901827644,-155.68627452263692,-2.2931372613184546,122.96313726131845,2025-05-14 14:33:34.462
1747200814.472,22.12156870078234,35.81019618109528,-13.018627106323,26.52588244093881,62.522744665384195,-46.85313740156468,186.50352938976528,105.7519610629729,169.2799988780302,-155.68431374015648,-2.292156870078234,122.96215687007823,2025-05-14 14:33:34.472
1747200814.482,22.111764554636423,35.796470376490994,-13.06470659320881,26.514117465563707,62.5805891276451,-46.833529109272845,186.50647063360907,105.71470530761842,169.43000231406273,-155.68235291092728,-2.2911764554636425,122.96117645546364,2025-05-14 14:33:34.482
1747200814.492,22.101960642234218,35.782744899127906,-13.110784981499185,26.50235277068106,62.638432210818124,-46.813921284468435,186.5094118073297,105.67745044049002,169.58000217381652,-155.68039212844684,-2.2901960642234216,122.96019606422341,2025-05-14 14:33:34.492
1747200814.494,22.1,35.78,-13.12,26.5,62.65,-46.81,186.51,105.67,169.61,-155.68,-2.29,122.96,2025-05-14 14:33:34.494
1747200814.504,22.098360658087078,35.778360658087074,-13.127103814956003,26.497814210782767,62.65765026226031,-46.807267763478464,186.51,105.66453552695693,169.63131144486803,-155.68,-2.29,122.96,2025-05-14 14:33:34.504
1747200814.514,22.096721316174154,35.776721316174154,-13.134207629912005,26.495628421565538,62.665300524520624,-46.804535526956926,186.51,105.65907105391385,169.65262288973602,-155.68,-2.29,122.96,2025-05-14 14:33:34.514
1747200814.524,22.09508197426123,35.77508197426123,-13.141311444868009,26.493442632348305,62.67295078678093,-46.80180329043538,186.51,105.65360658087076,169.67393433460404,-155.68,-2.29,122.96,2025-05-14 14:33:34.524
1747200814.534,22.093442632348307,35.773442632348306,-13.148415259824013,26.491256843131072,62.68060104904124,-46.79907105391384,186.51,105.64814210782768,169.69524577947206,-155.68,-2.29,122.96,2025-05-14 14:33:34.534
1747200814.544,22.091803290435383,35.77180329043538,-13.155519074780017,26.48907105391384,62.688251311301556,-46.796338817392304,186.51,105.6426776347846,169.71655722434005,-155.68,-2.29,122.96,2025-05-14 14:33:34.544
1747200814.554,22.09016394852246,35.77016394852246,-13.162622889736019,26.48688526469661,62.69590157356187,-46.793606580870765,186.51,105.63721316174153,169.73786866920807,-155.68,-2.29,122.96,2025-05-14 14:33:34.554
1747200814.564,22.088524606609536,35.76852460660953,-13.169726704692023,26.484699475479378,62.703551835822175,-46.79087434434922,186.51,105.63174868869844,169.7591801140761,-155.68,-2.29,122.96,2025-05-14 14:33:34.564
1747200814.574,22.086885264696612,35.76688526469661,-13.176830519648027,26.482513686262145,62.71120209808249,-46.78814210782768,186.51,105.62628421565536,169.78049155894408,-155.68,-2.29,122.96,2025-05-14 14:33:34.574
1747200814.584,22.085245883698693,35.76524588369869,-13.183934503972338,26.48032784493159,62.71885254273944,-46.78540980616449,186.51,105.62081961232897,169.80180351191703,-155.68,-2.29,122.96,2025-05-14 14:33:34.584
1747200814.594,22.08360654178577,35.76360654178577,-13.19103831892834,26.478142055714358,62.726502804999754,-46.78267756964294,186.51,105.61535513928588,169.82311495678502,-155.68,-2.29,122.96,2025-05-14 14:33:34.594
1747200814.604,22.081967199872846,35.76196719987284,-13.198142133884344,26.475956266497125,62.73415306726006,-46.779945333121404,186.51,105.6098906662428,169.84442640165304,-155.68,-2.29,122.96,2025-05-14 14:33:34.604
1747200814.614,22.08032785795992,35.76032785795992,-13.205245948840348,26.473770477279892,62.74180332952037,-46.777213096599866,186.51,105.60442619319973,169.86573784652106,-155.68,-2.29,122.96,2025-05-14 14:33:34.614
1747200814.624,22.078688516046995,35.758688516046995,-13.212349763796352,26.471584688062663,62.749453591780686,-46.77448086007833,186.51,105.59896172015665,169.88704929138905,-155.68,-2.29,122.96,2025-05-14 14:33:34.624
1747200814.634,22.07704917413407,35.757049174134075,-13.219453578752354,26.46939889884543,62.757103854041,-46.77174862355679,186.51,105.59349724711358,169.90836073625707,-155.68,-2.29,122.96,2025-05-14 14:33:34.634
1747200814.644,22.075409832221148,35.75540983222115,-13.226557393708358,26.467213109628197,62.764754116301305,-46.769016387035244,186.51,105.58803277407048,169.92967218112508,-155.68,-2.29,122.96,2025-05-14 14:33:34.644
1747200814.654,22.073770490308224,35.75377049030823,-13.233661208664362,26.465027320410968,62.77240437856162,-46.766284150513705,186.51,105.58256830102741,169.95098362599308,-155.68,-2.29,122.96,2025-05-14 14:33:34.654
1747200814.664,22.0721311483953,35.7521311483953,-13.240765023620364,26.462841531193735,62.78005464082193,-46.76355191399217,186.51,105.57710382798433,169.9722950708611,-155.68,-2.29,122.96,2025-05-14 14:33:34.664
1747200814.674,22.070491806482377,35.75049180648238,-13.247868838576368,26.460655741976502,62.78770490308224,-46.76081967747063,186.51,105.57163935494125,169.9936065157291,-155.68,-2.29,122.96,2025-05-14 14:33:34.674
1747200814.677,22.07,35.75,-13.25,26.46,62.79,-46.76,186.51,105.57,170.0,-155.68,-2.29,122.96,2025-05-14 14:33:34.677
1747200814.687,22.063023259682293,35.73992248620776,-13.284883701588534,26.450697679576393,62.832635635274876,-46.74527132599595,186.51077519336863,105.54209303872916,170.11162784508332,-155.67922480663137,-2.289224806631366,122.95922480663135,2025-05-14 14:33:34.687
1747200814.697,22.056046519364585,35.72984497241551,-13.319767403177067,26.441395359152782,62.875271270549746,-46.730542651991904,186.51155038673727,105.51418607745833,170.2232556901666,-155.67844961326273,-2.2884496132627317,122.95844961326273,2025-05-14 14:33:34.697
1747200814.707,22.04906977904688,35.719767458623274,-13.354651104765601,26.432093038729175,62.91790690582462,-46.71581397798786,186.5123255801059,105.48627911618752,170.33488353524993,-155.6776744198941,-2.2876744198940977,122.95767441989409,2025-05-14 14:33:34.707
1747200814.717,22.042093038729174,35.70968994483103,-13.389534806354135,26.422790718305563,62.9605425410995,-46.70108530398381,186.51310077347452,105.45837215491669,170.44651138033322,-155.67689922652548,-2.2868992265254637,122.95689922652546,2025-05-14 14:33:34.717
1747200814.727,22.035116298411467,35.69961243103879,-13.424418507942669,26.413488397881956,63.00317817637438,-46.68635662997976,186.51387596684316,105.43046519364586,170.55813922541654,-155.67612403315684,-2.2861240331568293,122.95612403315683,2025-05-14 14:33:34.727
1747200814.737,22.02813955809376,35.68953491724654,-13.459302209531202,26.404186077458345,63.045813811649246,-46.671627955975715,186.5146511602118,105.40255823237503,170.66976707049986,-155.6753488397882,-2.2853488397881954,122.95534883978819,2025-05-14 14:33:34.737
1747200814.747,22.02116281777605,35.6794574034543,-13.494185911119736,26.394883757034737,63.08844944692412,-46.65689928197167,186.51542635358044,105.3746512711042,170.78139491558315,-155.67457364641956,-2.2845736464195614,122.95457364641956,2025-05-14 14:33:34.747
1747200814.757,22.014186077458348,35.66937988966205,-13.52906961270827,26.38558143661113,63.131085082199,-46.64217060796762,186.51620154694908,105.34674430983338,170.89302276066647,-155.67379845305092,-2.2837984530509274,122.95379845305092,2025-05-14 14:33:34.757
1747200814.767,22.00720933714064,35.659302375869814,-13.563953314296803,26.37627911618752,63.17372071747387,-46.627441933963574,186.51697674031772,105.31883734856255,171.00465060574976,-155.67302325968228,-2.283023259682293,122.9530232596823,2025-05-14 14:33:34.767
1747200814.777,22.000232596822933,35.64922486207757,-13.598837015885337,26.36697679576391,63.21635635274875,-46.61271325995953,186.51775193368636,105.29093038729172,171.11627845083308,-155.67224806631364,-2.282248066313659,122.95224806631366,2025-05-14 14:33:34.777
1747200814.787,21.993255856505225,35.63914734828533,-13.63372071747387,26.3576744753403,63.258991988023624,-46.59798458595548,186.518527127055,105.2630234260209,171.2279062959164,-155.671472872945,-2.281472872945025,122.95147287294503,2025-05-14 14:33:34.787
1747200814.797,21.986279116187518,35.62906983449308,-13.668604419062405,26.348372154916692,63.3016276232985,-46.583255911951426,186.5193023204236,105.23511646475006,171.3395341409997,-155.6706976795764,-2.2806976795763907,122.9506976795764,2025-05-14 14:33:34.797
1747200814.806,21.98,35.62,-13.7,26.34,63.34,-46.57,186.52,105.21,171.44,-155.67,-2.28,122.95,2025-05-14 14:33:34.806
1747200814.816,21.97794871920273,35.61794871920272,-13.707179482790451,26.33794871920273,63.34923076358773,-46.566923078804095,186.52,105.20333333740886,171.46461536956727,-155.67,-2.28,122.95,2025-05-14 14:33:34.816
1747200814.826,21.975897438405458,35.615897438405455,-13.714358965580903,26.335897438405457,63.35846152717545,-46.56384615760818,186.52,105.19666667481772,171.4892307391345,-155.67,-2.28,122.95,2025-05-14 14:33:34.826
1747200814.836,21.973846157608186,35.61384615760818,-13.721538448371355,26.333846157608185,63.36769229076317,-46.56076923641228,186.52,105.19000001222659,171.51384610870178,-155.67,-2.28,122.95,2025-05-14 14:33:34.836
1747200814.846,21.97179487681091,35.61179487681091,-13.728717931161807,26.33179487681091,63.3769230543509,-46.557692315216364,186.52,105.18333334963546,171.53846147826906,-155.67,-2.28,122.95,2025-05-14 14:33:34.846
1747200814.856,21.96974359601364,35.60974359601364,-13.735897413952259,26.32974359601364,63.38615381793862,-46.55461539402046,186.52,105.17666668704433,171.56307684783633,-155.67,-2.28,122.95,2025-05-14 14:33:34.856
1747200814.866,21.967692315216368,35.60769231521637,-13.743076896742712,26.327692315216368,63.39538458152635,-46.551538472824554,186.52,105.17000002445319,171.58769221740357,-155.67,-2.28,122.95,2025-05-14 14:33:34.866
1747200814.876,21.965641034419097,35.605641034419094,-13.750256379533164,26.325641034419096,63.404615345114074,-46.54846155162864,186.52,105.16333336186206,171.61230758697084,-155.67,-2.28,122.95,2025-05-14 14:33:34.876
1747200814.886,21.963589753621825,35.60358975362182,-13.757435862323616,26.323589753621825,63.4138461087018,-46.545384630432736,186.52,105.15666669927093,171.63692295653811,-155.67,-2.28,122.95,2025-05-14 14:33:34.886
1747200814.896,21.961538472824554,35.60153847282455,-13.764615345114068,26.321538472824553,63.42307687228952,-46.54230770923683,186.52,105.15000003667978,171.66153832610536,-155.67,-2.28,122.95,2025-05-14 14:33:34.896
1747200814.906,21.959487192027282,35.599487192027276,-13.77179482790452,26.31948719202728,63.432307635877244,-46.53923078804092,186.52,105.14333337408866,171.68615369567263,-155.67,-2.28,122.95,2025-05-14 14:33:34.906
1747200814.916,21.957435911230007,35.59743591123001,-13.778974310694972,26.317435911230007,63.44153839946497,-46.53615386684501,186.52,105.13666671149753,171.7107690652399,-155.67,-2.28,122.95,2025-05-14 14:33:34.916
1747200814.926,21.955384581526346,35.59538458152634,-13.786153964657796,26.315384581526345,63.45076938313146,-46.53307687228951,186.52,105.12999988996062,171.73538502168387,-155.67,-2.28,122.95,2025-05-14 14:33:34.926
1747200814.936,21.953333300729074,35.59333330072907,-13.793333447448248,26.313333300729074,63.46000014671918,-46.52999995109361,186.52,105.12333322736949,171.76000039125114,-155.67,-2.28,122.95,2025-05-14 14:33:34.936
1747200814.946,21.951282019931803,35.591282019931796,-13.8005129302387,26.311282019931802,63.469230910306905,-46.5269230298977,186.52,105.11666656477834,171.78461576081838,-155.67,-2.28,122.95,2025-05-14 14:33:34.946
1747200814.956,21.949230739134528,35.58923073913453,-13.807692413029152,26.309230739134527,63.47846167389463,-46.52384610870179,186.52,105.10999990218721,171.80923113038565,-155.67,-2.28,122.95,2025-05-14 14:33:34.956
1747200814.966,21.947179458337256,35.58717945833725,-13.814871895819604,26.307179458337256,63.48769243748235,-46.520769187505884,186.52,105.10333323959608,171.83384649995293,-155.67,-2.28,122.95,2025-05-14 14:33:34.966
1747200814.976,21.945128177539985,35.585128177539985,-13.822051378610055,26.305128177539984,63.496923201070075,-46.51769226630997,186.52,105.09666657700494,171.85846186952017,-155.67,-2.28,122.95,2025-05-14 14:33:34.976
1747200814.986,21.943076896742713,35.58307689674271,-13.829230861400507,26.303076896742713,63.5061539646578,-46.514615345114066,186.52,105.08999991441381,171.88307723908744,-155.67,-2.28,122.95,2025-05-14 14:33:34.986
1747200814.996,21.941025615945442,35.581025615945435,-13.83641034419096,26.30102561594544,63.51538472824552,-46.51153842391816,186.52,105.08333325182268,171.9076926086547,-155.67,-2.28,122.95,2025-05-14 14:33:34.996
1747200815.001,21.94,35.58,-13.84,26.3,63.52,-46.51,186.52,105.08,171.92,-155.67,-2.28,122.95,2025-05-14 14:33:35.001
1747200815.011,21.932857159076075,35.570476212101426,-13.874126906636542,26.291269861092978,63.56126974756047,-46.495714318152146,186.52,105.05222228529584,172.02634896486737,-155.67,-2.2792063510084524,122.95,2025-05-14 14:33:35.011
1747200815.021,21.925714318152146,35.56095242420286,-13.908253813273085,26.282539722185955,63.60253949512094,-46.48142863630429,186.52,105.02444457059167,172.13269792973472,-155.67,-2.278412702016905,122.95,2025-05-14 14:33:35.021
1747200815.031,21.91857147722822,35.55142863630429,-13.942380719909629,26.273809583278933,63.643809242681414,-46.467142954456435,186.52,104.99666685588751,172.2390468946021,-155.67,-2.2776190530253575,122.95,2025-05-14 14:33:35.031
1747200815.041,21.91142863630429,35.54190484840572,-13.976507626546171,26.26507944437191,63.685078990241884,-46.452857272608576,186.52,104.96888914118335,172.34539585946945,-155.67,-2.27682540403381,122.95,2025-05-14 14:33:35.041
1747200815.051,21.904285625081602,35.53238083344213,-14.010635346832348,26.25634909732196,63.72634972175075,-46.4385712501632,186.52,104.94111076420623,172.45174735989613,-155.67,-2.276031736120178,122.95,2025-05-14 14:33:35.051
1747200815.061,21.897142784157676,35.52285704554357,-14.04476225346889,26.247618958414936,63.76761946931122,-46.42428556831535,186.52,104.91333304950207,172.5580963247635,-155.67,-2.2752380871286304,122.95,2025-05-14 14:33:35.061
1747200815.071,21.889999943233747,35.513333257644994,-14.078889160105433,26.238888819507913,63.80888921687169,-46.40999988646749,186.52,104.8855553347979,172.66444528963086,-155.67,-2.274444438137083,122.95,2025-05-14 14:33:35.071
1747200815.081,21.88285710230982,35.50380946974642,-14.113016066741976,26.23015868060089,63.85015896443216,-46.39571420461964,186.52,104.85777762009374,172.77079425449824,-155.67,-2.2736507891455355,122.95,2025-05-14 14:33:35.081
1747200815.091,21.87571426138589,35.494285681847856,-14.14714297337852,26.221428541693868,63.89142871199263,-46.38142852277178,186.52,104.82999990538958,172.87714321936562,-155.67,-2.272857140153988,122.95,2025-05-14 14:33:35.091
1747200815.101,21.868571420461965,35.48476189394928,-14.181269880015062,26.212698402786845,63.9326984595531,-46.367142840923925,186.52,104.80222219068541,172.98349218423297,-155.67,-2.27206349116244,122.95,2025-05-14 14:33:35.101
1747200815.111,21.86142857953804,35.47523810605072,-14.215396786651604,26.203968263879823,63.97396820711357,-46.35285715907607,186.52,104.77444447598126,173.08984114910035,-155.67,-2.271269842170893,122.95,2025-05-14 14:33:35.111
1747200815.121,21.85428573861411,35.465714318152145,-14.249523693288147,26.1952381249728,64.01523795467405,-46.338571477228214,186.52,104.7466667612771,173.1961901139677,-155.67,-2.2704761931793453,122.95,2025-05-14 14:33:35.121
1747200815.127,21.85,35.46,-14.27,26.19,64.04,-46.33,186.52,104.73,173.26,-155.67,-2.27,122.95,2025-05-14 14:33:35.127
1747200815.137,21.84603960115574,35.45504950144468,-14.28782179479916,26.185049501444677,64.06178219364342,-46.323069302022546,186.51900990028895,104.71415840462296,173.31742578324173,-155.67,-2.27,122.94900990028894,2025-05-14 14:33:35.137
1747200815.147,21.842079202311485,35.45009900288935,-14.305643589598322,26.180099002889357,64.08356438728684,-46.31613860404509,186.5180198005779,104.69831680924594,173.37485156648347,-155.67,-2.27,122.94801980057787,2025-05-14 14:33:35.147
1747200815.157,21.838118803467225,35.44514850433403,-14.323465384397483,26.175148504334032,64.10534658093026,-46.30920790606764,186.5170297008668,104.6824752138689,173.4322773497252,-155.67,-2.27,122.9470297008668,2025-05-14 14:33:35.157
