Najongs/2025_ICRA_Multi_View_Robot_Pose_Estimation/dataset/Meca_insertion/vla_dataset_insertion_250514/robot_data_interpolated.csv
timestamp,j1,j2,j3,j4,j5,j6,x,y,z,rx,ry,rz,datetime
1747201050.534,23.47,37.47,-6.84,28.19,54.98,-49.43,185.12,109.88,149.74,-156.09,-2.21,123.08,2025-05-14 14:37:30.534
1747201050.544,23.465614042425926,37.464736850911116,-6.859736809083323,28.184736850911115,55.00412276665739,-49.42166668060926,185.12745612787592,109.86947370182223,149.80271919330923,-156.08780702121297,-2.2104385957574073,123.0795614042426,2025-05-14 14:37:30.544
1747201050.554,23.461228084851854,37.459473701822226,-6.879473618166646,28.17947370182223,55.02824553331479,-49.41333336121853,185.13491225575186,109.85894740364445,149.86543838661845,-156.08561404242593,-2.210877191514814,123.07912280848518,2025-05-14 14:37:30.554
1747201050.564,23.456842127277785,37.45421055273334,-6.899210427249969,28.174210552733342,55.05236829997218,-49.40500004182779,185.14236838362777,109.84842110546668,149.9281575799277,-156.0834210636389,-2.2113157872722216,123.07868421272778,2025-05-14 14:37:30.564
1747201050.574,23.452456169703712,37.44894740364445,-6.918947236333292,28.168947403644456,55.07649106662958,-49.396666722437054,185.14982451150368,109.8378948072889,149.99087677323692,-156.08122808485186,-2.211754383029629,123.07824561697036,2025-05-14 14:37:30.574
1747201050.584,23.448070107560163,37.443684129072196,-6.938684515979261,28.163684129072198,55.1006144084191,-49.388333204364315,185.15728081714772,109.82736825814439,150.05359746188967,-156.07903505378007,-2.2121929892439836,123.07780701075602,2025-05-14 14:37:30.584
1747201050.594,23.44368414998609,37.43842097998331,-6.958421325062584,28.158420979983312,55.12473717507649,-49.37999988497358,185.16473694502363,109.81684195996662,150.1163166551989,-156.07684207499304,-2.212631585001391,123.0773684149986,2025-05-14 14:37:30.594
1747201050.604,23.43929819241202,37.43315783089442,-6.978158134145907,28.153157830894425,55.14885994173389,-49.37166656558284,185.17219307289957,109.80631566178884,150.1790358485081,-156.074649096206,-2.213070180758798,123.0769298192412,2025-05-14 14:37:30.604
1747201050.614,23.43491223483795,37.42789468180554,-6.997894943229231,28.14789468180554,55.17298270839128,-49.363333246192106,185.1796492007755,109.79578936361108,150.24175504181733,-156.07245611741897,-2.213508776516205,123.07649122348379,2025-05-14 14:37:30.614
1747201050.624,23.430526277263876,37.42263153271665,-7.017631752312554,28.142631532716653,55.19710547504867,-49.35499992680137,185.1871053286514,109.7852630654333,150.30447423512655,-156.07026313863193,-2.2139473722736125,123.07605262772638,2025-05-14 14:37:30.624
1747201050.634,23.426140319689804,37.41736838362777,-7.037368561395877,28.137368383627766,55.22122824170607,-49.34666660741063,185.19456145652734,109.77473676725553,150.3671934284358,-156.0680701598449,-2.2143859680310194,123.07561403196898,2025-05-14 14:37:30.634
1747201050.644,23.421754362115735,37.41210523453888,-7.0571053704792,28.13210523453888,55.245351008363464,-49.338333288019896,185.20201758440325,109.76421046907775,150.42991262174502,-156.06587718105786,-2.2148245637884267,123.07517543621157,2025-05-14 14:37:30.644
1747201050.654,23.417368404541662,37.406842085449995,-7.076842179562523,28.126842085449994,55.26947377502086,-49.32999996862916,185.20947371227916,109.75368417089999,150.49263181505424,-156.06368420227082,-2.215263159545834,123.07473684045416,2025-05-14 14:37:30.654
1747201050.664,23.41298244696759,37.401578936361105,-7.096578988645846,28.121578936361107,55.293596541678255,-49.32166664923842,185.2169298401551,109.74315787272221,150.55535100836346,-156.06149122348378,-2.215701755303241,123.07429824469675,2025-05-14 14:37:30.664
1747201050.674,23.408596489393517,37.39631578727222,-7.116315797729169,28.11631578727222,55.317719308335654,-49.31333332984769,185.22438596803102,109.73263157454444,150.61807020167268,-156.05929824469675,-2.2161403510606483,123.07385964893935,2025-05-14 14:37:30.674
1747201050.684,23.404210531819448,37.39105263818334,-7.136052606812492,28.111052638183335,55.341842074993046,-49.30500001045695,185.23184209590693,109.72210527636668,150.68078939498193,-156.0571052659097,-2.2165789468180557,123.07342105318195,2025-05-14 14:37:30.684
1747201050.694,23.399824574245375,37.38578948909445,-7.155789415895815,28.105789489094448,55.36596484165044,-49.296666691066214,185.23929822378287,109.7115789781889,150.74350858829115,-156.05491228712268,-2.2170175425754626,123.07298245742453,2025-05-14 14:37:30.694
1747201050.704,23.395438616671303,37.38052634000557,-7.175526224979138,28.100526340005565,55.39008760830784,-49.28833337167548,185.24675435165878,109.70105268001113,150.80622778160037,-156.05271930833564,-2.21745613833287,123.07254386166713,2025-05-14 14:37:30.704
1747201050.714,23.39105265909723,37.37526319091668,-7.195263034062461,28.09526319091668,55.41421037496523,-49.28000005228474,185.2542104795347,109.69052638183335,150.8689469749096,-156.0505263295486,-2.2178947340902773,123.07210526590971,2025-05-14 14:37:30.714
1747201050.724,23.38666670152316,37.370000041827794,-7.214999843145785,28.090000041827793,55.43833314162263,-49.271666732894005,185.26166660741063,109.68000008365559,150.9316661682188,-156.04833335076157,-2.218333329847684,123.07166667015231,2025-05-14 14:37:30.724
1747201050.734,23.38228074394909,37.364736892738904,-7.234736652229108,28.084736892738906,55.46245590828002,-49.26333341350327,185.26912273528654,109.6694737854778,150.99438536152803,-156.04614037197453,-2.2187719256050915,123.07122807439491,2025-05-14 14:37:30.734
1747201050.744,23.377894786375016,37.35947374365002,-7.254473461312431,28.07947374365002,55.48657867493742,-49.25500009411253,185.27657886316246,109.65894748730004,151.05710455483728,-156.0439473931875,-2.219210521362499,123.0707894786375,2025-05-14 14:37:30.744
1747201050.754,23.373508828800944,37.35421059456113,-7.274210270395754,28.074210594561134,55.51070144159481,-49.246666774721795,185.2840349910384,109.64842118912226,151.1198237481465,-156.04175441440046,-2.2196491171199058,123.07035088288009,2025-05-14 14:37:30.754
1747201050.762,23.37,37.35,-7.29,28.07,55.53,-49.24,185.29,109.64,151.17,-156.04,-2.22,123.07,2025-05-14 14:37:30.762
1747201050.772,23.36724770822807,37.34724770822807,-7.301009167087727,28.06724770822807,55.54376145885966,-49.23541284704678,185.29366972236258,109.63357798586549,151.2057797930351,-156.0381651388187,-2.22,123.07,2025-05-14 14:37:30.772
1747201050.782,23.364495416456137,37.34449541645614,-7.3120183341754545,28.064495416456136,55.55752291771932,-49.23082569409356,185.29733944472514,109.62715597173099,151.24155958607022,-156.03633027763743,-2.22,123.07,2025-05-14 14:37:30.782
1747201050.792,23.361743124684207,37.34174312468421,-7.323027501263182,28.061743124684206,55.57128437657898,-49.22623854114034,185.30100916708773,109.62073395759647,151.27733937910534,-156.03449541645614,-2.22,123.07,2025-05-14 14:37:30.792
1747201050.802,23.358990832912273,37.33899083291227,-7.334036668350908,28.058990832912272,55.585045835438635,-49.22165138818712,185.30467888945032,109.61431194346197,151.31311917214043,-156.03266055527484,-2.22,123.07,2025-05-14 14:37:30.802
1747201050.812,23.356238541140343,37.33623854114034,-7.345045835438635,28.056238541140342,55.5988072942983,-49.2170642352339,185.30834861181287,109.60788992932746,151.34889896517555,-156.03082569409355,-2.22,123.07,2025-05-14 14:37:30.812
1747201050.822,23.35348624936841,37.33348624936841,-7.356055002526363,28.053486249368408,55.61256875315795,-49.212477082280685,185.31201833417546,109.60146791519296,151.38467875821067,-156.02899083291229,-2.22,123.07,2025-05-14 14:37:30.822
1747201050.832,23.35073395759648,37.33073395759648,-7.36706416961409,28.050733957596478,55.62633021201761,-49.207889929327465,185.31568805653802,109.59504590105844,151.4204585512458,-156.027155971731,-2.22,123.07,2025-05-14 14:37:30.832
1747201050.842,23.347981665824545,37.327981665824545,-7.378073336701817,28.047981665824544,55.64009167087727,-49.203302776374244,185.3193577789006,109.58862388692394,151.4562383442809,-156.0253211105497,-2.22,123.07,2025-05-14 14:37:30.842
1747201050.852,23.345229374052614,37.32522937405261,-7.3890825037895445,28.045229374052614,55.65385312973693,-49.19871562342102,185.3230275012632,109.58220187278943,151.49201813731602,-156.0234862493684,-2.22,123.07,2025-05-14 14:37:30.852
1747201050.862,23.34247708228068,37.322477082280685,-7.400091670877272,28.04247708228068,55.66761458859659,-49.1941284704678,185.32669722362576,109.57577985865493,151.52779793035114,-156.02165138818714,-2.22,123.07,2025-05-14 14:37:30.862
1747201050.871,23.34,37.32,-7.41,28.04,55.68,-49.19,185.33,109.57,151.56,-156.02,-2.22,123.07,2025-05-14 14:37:30.871
1747201050.881,23.334,37.312,-7.437,28.032,55.712,-49.178999999999995,185.34,109.55499999999999,151.646,-156.01700000000002,-2.221,123.06899999999999,2025-05-14 14:37:30.881
1747201050.891,23.328,37.304,-7.464,28.024,55.744,-49.168,185.35000000000002,109.53999999999999,151.732,-156.014,-2.222,123.068,2025-05-14 14:37:30.891
1747201050.901,23.322,37.296,-7.491,28.016,55.775999999999996,-49.157,185.36,109.52499999999999,151.81799999999998,-156.01100000000002,-2.2230000000000003,123.067,2025-05-14 14:37:30.901
1747201050.911,23.316,37.288000000000004,-7.518,28.008,55.808,-49.146,185.37,109.50999999999999,151.904,-156.008,-2.224,123.066,2025-05-14 14:37:30.911
1747201050.921,23.310000000000002,37.28,-7.545,28.0,55.84,-49.135,185.38,109.495,151.98999999999998,-156.00500000000002,-2.225,123.065,2025-05-14 14:37:30.921
1747201050.931,23.304000000000002,37.272,-7.572,27.992,55.872,-49.123999999999995,185.39000000000001,109.48,152.076,-156.002,-2.226,123.064,2025-05-14 14:37:30.931
1747201050.941,23.298000000000002,37.264,-7.599,27.984,55.903999999999996,-49.113,185.4,109.465,152.16199999999998,-155.99900000000002,-2.227,123.063,2025-05-14 14:37:30.941
1747201050.951,23.292,37.256,-7.6259999999999994,27.976,55.936,-49.102,185.41,109.45,152.248,-155.996,-2.228,123.062,2025-05-14 14:37:30.951
1747201050.961,23.286,37.248000000000005,-7.653,27.968,55.968,-49.091,185.42000000000002,109.435,152.33399999999997,-155.99300000000002,-2.229,123.061,2025-05-14 14:37:30.961
1747201050.971,23.28,37.24,-7.68,27.96,56.0,-49.08,185.43,109.42,152.42,-155.99,-2.23,123.06,2025-05-14 14:37:30.971
1747201050.981,23.276039610504576,37.23504951313072,-7.697821752729419,27.956039610504575,56.02178214222484,-49.073069318383006,185.43594058424316,109.41009902626143,152.47643555030982,-155.98900990262615,-2.23,123.06,2025-05-14 14:37:30.981
1747201050.991,23.272079221009147,37.230099026261435,-7.7156435054588375,27.95207922100915,56.04356428444969,-49.066138636766006,185.44188116848628,109.40019805252287,152.53287110061964,-155.9880198052523,-2.23,123.06,2025-05-14 14:37:30.991
1747201051.001,23.26811883151372,37.22514853939215,-7.733465258188256,27.94811883151372,56.06534642667454,-49.05920795514901,185.44782175272942,109.3902970787843,152.58930665092947,-155.98702970787843,-2.23,123.06,2025-05-14 14:37:31.001
1747201051.011,23.264158442018296,37.22019805252287,-7.751287010917674,27.944158442018296,56.08712856889938,-49.05227727353201,185.45376233697257,109.38039610504573,152.6457422012393,-155.98603961050458,-2.23,123.06,2025-05-14 14:37:31.011
1747201051.021,23.260198052522867,37.215247565653584,-7.769108763647093,27.94019805252287,56.108910711124224,-49.04534659191502,185.4597029212157,109.37049513130717,152.70217775154913,-155.98504951313072,-2.23,123.06,2025-05-14 14:37:31.021
1747201051.031,23.25623766302744,37.2102970787843,-7.786930516376512,27.936237663027445,56.13069285334907,-49.03841591029802,185.46564350545884,109.3605941575686,152.75861330185896,-155.98405941575686,-2.23,123.06,2025-05-14 14:37:31.031
1747201051.041,23.252277273532016,37.20534659191502,-7.804752269105931,27.932277273532016,56.15247499557392,-49.03148522868103,185.471584089702,109.35069318383003,152.8150488521688,-155.983069318383,-2.23,123.06,2025-05-14 14:37:31.041
1747201051.051,23.248316789613455,37.20039598701682,-7.822574446739451,27.928316789613458,56.17425765712599,-49.02455438182354,185.4775248155798,109.34079197403364,152.87148574800827,-155.98207919740335,-2.23,123.06,2025-05-14 14:37:31.051
1747201051.061,23.24435640011803,37.195445500147535,-7.84039619946887,27.92435640011803,56.19603979935084,-49.01762370020655,185.48346539982296,109.33089100029507,152.9279212983181,-155.9810891000295,-2.23,123.06,2025-05-14 14:37:31.061
1747201051.071,23.2403960106226,37.19049501327825,-7.858217952198289,27.920396010622603,56.217821941575686,-49.01069301858955,185.4894059840661,109.3209900265565,152.98435684862793,-155.98009900265563,-2.23,123.06,2025-05-14 14:37:31.071
1747201051.072,23.24,37.19,-7.86,27.92,56.22,-49.01,185.49,109.32,152.99,-155.98,-2.23,123.06,2025-05-14 14:37:31.072
1747201051.082,23.238830410498224,37.188245615747334,-7.86701753701065,27.917660820996453,56.22877192126331,-49.007076026245564,185.49233917900355,109.31590643674379,153.01222220053373,-155.9788304104982,-2.23,123.05941520524911,2025-05-14 14:37:31.082
1747201051.092,23.23766082099645,37.18649123149467,-7.874035074021299,27.9153216419929,56.23754384252662,-49.00415205249112,185.49467835800712,109.31181287348757,153.03444440106745,-155.97766082099645,-2.23,123.05883041049823,2025-05-14 14:37:31.092
1747201051.102,23.236491231494675,37.18473684724201,-7.881052611031948,27.91298246298935,56.24631576378994,-49.00122807873669,185.49701753701066,109.30771931023136,153.05666660160117,-155.97649123149466,-2.23,123.05824561574734,2025-05-14 14:37:31.102
1747201051.112,23.2353216419929,37.18298246298935,-7.888070148042598,27.910643283985802,56.25508768505325,-48.99830410498225,185.4993567160142,109.30362574697514,153.0788888021349,-155.9753216419929,-2.23,123.05766082099645,2025-05-14 14:37:31.112
1747201051.122,23.234152052491122,37.18122807873669,-7.895087685053247,27.908304104982253,56.26385960631656,-48.99538013122781,185.50169589501775,109.29953218371894,153.10111100266863,-155.97415205249112,-2.23,123.05707602624557,2025-05-14 14:37:31.122
1747201051.132,23.232982462989348,37.179473694484024,-7.902105222063897,27.9059649259787,56.27263152757987,-48.99245615747338,185.50403507402132,109.29543862046272,153.12333320320235,-155.97298246298934,-2.23,123.05649123149468,2025-05-14 14:37:31.132
1747201051.142,23.231812873487574,37.17771931023136,-7.909122759074546,27.903625746975152,56.28140344884318,-48.989532183718936,185.50637425302486,109.29134505720651,153.14555540373607,-155.97181287348758,-2.23,123.05590643674378,2025-05-14 14:37:31.142
1747201051.152,23.2306432839858,37.1759649259787,-7.916140296085195,27.901286567971603,56.29017537010649,-48.9866082099645,185.5087134320284,109.2872514939503,153.1677776042698,-155.9706432839858,-2.23,123.0553216419929,2025-05-14 14:37:31.152
1747201051.162,23.229473694484025,37.17421054172603,-7.9231578330958445,27.898947388968054,56.29894729136981,-48.98368423621007,185.51105261103194,109.28315793069409,153.1899998048035,-155.96947369448404,-2.23,123.05473684724201,2025-05-14 14:37:31.162
1747201051.172,23.22830410498225,37.17245615747338,-7.930175370106494,27.8966082099645,56.30771921263312,-48.980760262455625,185.5133917900355,109.27906436743788,153.21222200533722,-155.96830410498225,-2.23,123.05415205249112,2025-05-14 14:37:31.172
1747201051.182,23.227134515480476,37.17070177322071,-7.937192907117144,27.894269030960952,56.31649113389643,-48.97783628870119,185.51573096903905,109.27497080418166,153.23444420587097,-155.96713451548047,-2.23,123.05356725774024,2025-05-14 14:37:31.182
1747201051.192,23.2259649259787,37.16894738896805,-7.944210444127792,27.891929851957403,56.32526305515974,-48.97491231494676,185.5180701480426,109.27087724092546,153.2566664064047,-155.9659649259787,-2.23,123.05298246298935,2025-05-14 14:37:31.192
1747201051.202,23.224795336476927,37.16719300471539,-7.951227981138442,27.88959067295385,56.33403497642305,-48.971988341192315,185.52040932704614,109.26678367766924,153.2788886069384,-155.96479533647693,-2.23,123.05239766823846,2025-05-14 14:37:31.202
1747201051.212,23.22362574697515,37.16543862046272,-7.958245518149091,27.887251493950302,56.34280689768636,-48.96906436743788,185.5227485060497,109.26269011441303,153.30111080747213,-155.96362574697517,-2.23,123.05181287348758,2025-05-14 14:37:31.212
1747201051.222,23.222456157473374,37.16368423621006,-7.965263055159741,27.884912314946753,56.351578818949676,-48.96614039368344,185.52508768505325,109.25859655115681,153.32333300800585,-155.96245615747338,-2.23,123.05122807873668,2025-05-14 14:37:31.222
1747201051.232,23.221286540086385,37.16192981012958,-7.97228075948167,27.882573080172776,56.36035094935208,-48.96321635021597,185.52742691982723,109.25450289030236,153.34555573835863,-155.9612865400864,-2.23,123.0506432700432,2025-05-14 14:37:31.232
1747201051.242,23.22011695058461,37.160175425876915,-7.97929829649232,27.880233901169227,56.3691228706154,-48.96029237646153,185.52976609883078,109.25040932704614,153.36777793889235,-155.96011695058462,-2.23,123.0500584752923,2025-05-14 14:37:31.242
1747201051.243,23.22,37.16,-7.98,27.88,56.37,-48.96,185.53,109.25,153.37,-155.96,-2.23,123.05,2025-05-14 14:37:31.243
1747201051.253,23.21302325968229,37.15069767957639,-8.012558121482632,27.871472872945024,56.40953486180034,-48.946046519364586,185.54007751379226,109.23062016578415,153.47387591139696,-155.95689922652548,-2.230775193368634,123.04922480663136,2025-05-14 14:37:31.253
1747201051.263,23.206046519364584,37.14139535915278,-8.045116242965264,27.86294574589005,56.44906972360067,-48.93209303872917,185.55015502758448,109.21124033156829,153.57775182279394,-155.95379845305092,-2.2315503867372684,123.04844961326273,2025-05-14 14:37:31.263
1747201051.273,23.19906977904688,37.13209303872917,-8.077674364447894,27.854418618835073,56.48860458540101,-48.91813955809376,185.56023254137673,109.19186049735244,153.6816277341909,-155.9506976795764,-2.2323255801059023,123.0476744198941,2025-05-14 14:37:31.273
1747201051.283,23.192093038729173,37.12279071830556,-8.110232485930526,27.8458914917801,56.528139447201355,-48.90418607745835,185.57031005516896,109.1724806631366,153.78550364558788,-155.94759690610186,-2.2331007734745363,123.04689922652547,2025-05-14 14:37:31.283
1747201051.293,23.185116298411465,37.11348839788195,-8.142790607413158,27.837364364725126,56.56767430900169,-48.89023259682293,185.5803875689612,109.15310082892074,153.88937955698484,-155.9444961326273,-2.2338759668431707,123.04612403315683,2025-05-14 14:37:31.293
1747201051.303,23.178139558093758,37.104186077458344,-8.17534872889579,27.82883723767015,56.60720917080203,-48.87627911618752,185.59046508275347,109.13372099470489,153.99325546838182,-155.94139535915278,-2.2346511602118047,123.04534883978819,2025-05-14 14:37:31.303
1747201051.313,23.17116281777605,37.09488375703474,-8.207906850378421,27.820310110615175,56.64674403260237,-48.862325635552104,185.6005425965457,109.11434116048903,154.09713137977877,-155.93829458567825,-2.2354263535804386,123.04457364641956,2025-05-14 14:37:31.313
1747201051.323,23.164186077458346,37.08558143661113,-8.240464971861051,27.8117829835602,56.686278894402705,-48.848372154916696,185.61062011033795,109.09496132627318,154.20100729117576,-155.9351938122037,-2.2362015469490726,123.04379845305093,2025-05-14 14:37:31.323
1747201051.333,23.15720933714064,37.076279116187514,-8.273023093343683,27.803255856505224,56.725813756203046,-48.83441867428128,185.62069762413017,109.07558149205732,154.3048832025727,-155.93209303872916,-2.236976740317707,123.0430232596823,2025-05-14 14:37:31.333
1747201051.343,23.15023259682293,37.06697679576391,-8.305581214826315,27.79472872945025,56.76534861800339,-48.820465193645866,185.63077513792243,109.05620165784148,154.40875911396967,-155.92899226525464,-2.237751933686341,123.04224806631366,2025-05-14 14:37:31.343
1747201051.353,23.143255856505224,37.0576744753403,-8.338139336308947,27.786201602395277,56.80488347980372,-48.80651171301045,185.64085265171468,109.03682182362563,154.51263502536665,-155.92589149178008,-2.238527127054975,123.04147287294504,2025-05-14 14:37:31.353
1747201051.363,23.136279116187517,37.04837215491669,-8.370697457791579,27.7776744753403,56.84441834160406,-48.792558232375036,185.6509301655069,109.01744198940978,154.6165109367636,-155.92279071830555,-2.2393023204236093,123.0406976795764,2025-05-14 14:37:31.363
1747201051.372,23.13,37.04,-8.4,27.77,56.88,-48.78,185.66,109.0,154.71,-155.92,-2.24,123.04,2025-05-14 14:37:31.372
1747201051.382,23.1268253980268,37.0368253980268,-8.411904757399496,27.7668253980268,56.894285708879394,-48.7752380970402,185.6631746019732,108.99285714556031,154.7480952236784,-155.91920634950668,-2.24,123.04,2025-05-14 14:37:31.382
1747201051.392,23.123650796053603,37.0336507960536,-8.423809514798991,27.763650796053604,56.90857141775879,-48.7704761940804,185.6663492039464,108.9857142911206,154.78619044735677,-155.9184126990134,-2.24,123.04,2025-05-14 14:37:31.392
1747201051.402,23.120476194080403,37.0304761940804,-8.435714272198485,27.760476194080404,56.922857126638185,-48.76571429112061,185.6695238059196,108.97857143668091,154.82428567103517,-155.9176190485201,-2.24,123.04,2025-05-14 14:37:31.402
1747201051.412,23.117301592107204,37.02730159210721,-8.44761902959798,27.757301592107204,56.93714283551758,-48.76095238816081,185.6726984078928,108.97142858224122,154.86238089471354,-155.9168253980268,-2.24,123.04,2025-05-14 14:37:31.412
1747201051.422,23.114126990134007,37.02412699013401,-8.459523786997476,27.754126990134008,56.951428544396975,-48.75619048520101,185.675873009866,108.96428572780151,154.90047611839194,-155.91603174753348,-2.24,123.04,2025-05-14 14:37:31.422
1747201051.432,23.110952388160808,37.02095238816081,-8.471428544396971,27.75095238816081,56.96571425327637,-48.75142858224121,185.6790476118392,108.95714287336182,154.9385713420703,-155.9152380970402,-2.24,123.04,2025-05-14 14:37:31.432
1747201051.442,23.107777786187608,37.01777778618761,-8.483333301796467,27.74777778618761,56.97999996215576,-48.74666667928141,185.6822222138124,108.95000001892213,154.9766665657487,-155.9144444465469,-2.24,123.04,2025-05-14 14:37:31.442
1747201051.452,23.104603184214408,37.01460318421441,-8.495238059195962,27.74460318421441,56.99428567103516,-48.74190477632162,185.6853968157856,108.94285716448242,155.01476178942707,-155.9136507960536,-2.24,123.04,2025-05-14 14:37:31.452
1747201051.462,23.101428582241212,37.01142858224121,-8.507142816595458,27.741428582241213,57.00857137991455,-48.73714287336182,185.68857141775877,108.93571431004273,155.05285701310547,-155.9128571455603,-2.24,123.04,2025-05-14 14:37:31.462
1747201051.472,23.098253980268012,37.008253980268016,-8.519047573994952,27.738253980268013,57.02285708879394,-48.73238097040202,185.69174601973197,108.92857145560302,155.09095223678383,-155.912063495067,-2.24,123.04,2025-05-14 14:37:31.472
1747201051.482,23.095079302606333,37.00507930260633,-8.530952615226253,27.735079302606334,57.0371431382715,-48.7276189539095,185.69492069739366,108.92142843086424,155.129048368724,-155.91126982565157,-2.24,123.04,2025-05-14 14:37:31.482
1747201051.492,23.091904700633133,37.00190470063313,-8.542857372625747,27.731904700633134,57.0514288471509,-48.7228570509497,185.69809529936686,108.91428557642455,155.1671435924024,-155.91047617515827,-2.24,123.04,2025-05-14 14:37:31.492
1747201051.498,23.09,37.0,-8.55,27.73,57.06,-48.72,185.7,108.91,155.19,-155.91,-2.24,123.04,2025-05-14 14:37:31.498
1747201051.508,23.08533679390143,36.994300525879524,-8.571761628460003,27.724300525879524,57.08694296856953,-48.71067358780286,185.70621760813142,108.89652851571523,155.25942995746763,-155.90792746395618,-2.240518134010953,123.03948186598906,2025-05-14 14:37:31.508
1747201051.518,23.080673587802856,36.98860105175905,-8.593523256920005,27.718601051759048,57.11388593713905,-48.70134717560571,185.71243521626286,108.88305703143047,155.32885991493524,-155.90585492791237,-2.241036268021905,123.0389637319781,2025-05-14 14:37:31.518
1747201051.528,23.07601027052468,36.98290144175239,-8.615285404218154,27.71290144175239,57.14082954807962,-48.69202054104936,185.71865297263375,108.8695852259602,155.39829152774362,-155.9037823424554,-2.2415544143861466,123.03844558561386,2025-05-14 14:37:31.528
1747201051.538,23.07134706442611,36.97720196763191,-8.637047032678156,27.707201967631914,57.167772516649144,-48.68269412885222,185.72487058076518,108.85611374167543,155.46772148521126,-155.9017098064116,-2.242072548397099,123.03792745160291,2025-05-14 14:37:31.538
1747201051.548,23.066683858327536,36.97150249351144,-8.658808661138158,27.701502493511434,57.19471548521867,-48.67336771665507,185.7310881888966,108.84264225739066,155.5371514426789,-155.8996372703678,-2.2425906824080517,123.03740931759195,2025-05-14 14:37:31.548
1747201051.558,23.062020652228966,36.96580301939096,-8.68057028959816,27.695803019390958,57.2216584537882,-48.66404130445793,185.73730579702803,108.8291707731059,155.6065814001465,-155.897564734324,-2.243108816419004,123.036891183581,2025-05-14 14:37:31.558
1747201051.568,23.057357446130393,36.960103545270485,-8.702331918058162,27.690103545270482,57.24860142235772,-48.654714892260785,185.74352340515946,108.81569928882114,155.67601135761413,-155.89549219828018,-2.2436269504299564,123.03637304957005,2025-05-14 14:37:31.568
1747201051.578,23.052694240031823,36.95440407115,-8.724093546518164,27.684404071150006,57.27554439092725,-48.645388480063644,185.7497410132909,108.80222780453637,155.74544131508176,-155.89341966223637,-2.244145084440909,123.0358549155591,2025-05-14 14:37:31.578
1747201051.588,23.04803103393325,36.948704597029526,-8.745855174978166,27.67870459702953,57.30248735949678,-48.6360620678665,185.75595862142234,108.78875632025161,155.8148712725494,-155.89134712619256,-2.244663218451861,123.03533678154814,2025-05-14 14:37:31.588
1747201051.598,23.04336782783468,36.94300512290905,-8.767616803438168,27.673005122909053,57.3294303280663,-48.62673565566936,185.76217622955375,108.77528483596684,155.884301230017,-155.88927459014874,-2.2451813524628137,123.0348186475372,2025-05-14 14:37:31.598
1747201051.608,23.038704621736105,36.93730564878857,-8.78937843189817,27.667305648788574,57.35637329663583,-48.61740924347221,185.76839383768518,108.7618133516821,155.95373118748464,-155.88720205410493,-2.245699486473766,123.03430051352623,2025-05-14 14:37:31.608
1747201051.618,23.034041415637535,36.9316061746681,-8.811140060358172,27.661606174668098,57.38331626520535,-48.60808283127507,185.77461144581662,108.74834186739733,156.02316114495227,-155.88512951806112,-2.2462176204847184,123.03378237951529,2025-05-14 14:37:31.618
1747201051.628,23.02937820953896,36.92590670054762,-8.832901688818174,27.65590670054762,57.41025923377488,-48.59875641907792,185.78082905394805,108.73487038311256,156.09259110241987,-155.8830569820173,-2.246735754495671,123.03326424550433,2025-05-14 14:37:31.628
1747201051.638,23.02471500344039,36.920207226427145,-8.854663317278176,27.650207226427145,57.43720220234441,-48.58943000688078,185.78704666207946,108.7213988988278,156.1620210598875,-155.8809844459735,-2.247253888506623,123.03274611149338,2025-05-14 14:37:31.638
1747201051.648,23.020051797341818,36.91450775230667,-8.876424945738178,27.64450775230667,57.46414517091393,-48.580103594683635,185.7932642702109,108.70792741454304,156.23145101735514,-155.8789119099297,-2.2477720225175757,123.03222797748242,2025-05-14 14:37:31.648
1747201051.658,23.015388591243248,36.90880827818619,-8.89818657419818,27.638808278186193,57.49108813948346,-48.570777182486495,185.79948187834233,108.69445593025827,156.30088097482277,-155.8768393738859,-2.2482901565285283,123.03170984347148,2025-05-14 14:37:31.658
1747201051.668,23.010725385144674,36.90310880406572,-8.919948202658182,27.633108804065717,57.51803110805299,-48.56145077028935,185.80569948647377,108.68098444597351,156.37031093229038,-155.8747668378421,-2.2488082905394804,123.03119170946051,2025-05-14 14:37:31.668
1747201051.678,23.006062179046104,36.89740932994524,-8.941709831118184,27.627409329945237,57.54497407662251,-48.55212435809221,185.81191709460518,108.66751296168874,156.439740889758,-155.87269430179828,-2.249326424550433,123.03067357544957,2025-05-14 14:37:31.678
1747201051.688,23.00139897294753,36.891709855824764,-8.963471459578185,27.62170985582476,57.57191704519204,-48.54279794589506,185.81813470273661,108.654041477404,156.50917084722565,-155.87062176575446,-2.2498445585613855,123.03015544143861,2025-05-14 14:37:31.688
1747201051.691,23.0,36.89,-8.97,27.62,57.58,-48.54,185.82,108.65,156.53,-155.87,-2.25,123.03,2025-05-14 14:37:31.691
1747201051.701,22.99619048051553,36.885238100644415,-8.98714283768012,27.61523810064441,57.60095235716459,-48.533333340902175,185.8247618993556,108.63952382141771,156.5842856526537,-155.8690476201289,-2.25,123.03,2025-05-14 14:37:31.701
1747201051.711,22.99238096103106,36.88047620128882,-9.00428567536024,27.610476201288822,57.621904714329176,-48.52666668180435,185.82952379871116,108.62904764283542,156.63857130530744,-155.86809524025776,-2.25,123.03,2025-05-14 14:37:31.711
1747201051.721,22.988571441546586,36.875714301933236,-9.021428513040359,27.605714301933233,57.64285707149377,-48.520000022706526,185.83428569806676,108.61857146425312,156.69285695796114,-155.86714286038665,-2.25,123.03,2025-05-14 14:37:31.721
1747201051.731,22.984761922062116,36.87095240257764,-9.03857135072048,27.600952402577647,57.66380942865836,-48.5133333636087,185.83904759742236,108.60809528567083,156.74714261061484,-155.86619048051554,-2.25,123.03,2025-05-14 14:37:31.731
1747201051.741,22.980952402577646,36.86619050322206,-9.055714188400598,27.596190503222058,57.68476178582295,-48.50666670451088,185.84380949677794,108.59761910708853,156.80142826326855,-155.86523810064443,-2.25,123.03,2025-05-14 14:37:31.741
1747201051.751,22.977142883093176,36.86142860386647,-9.072857026080717,27.59142860386647,57.70571414298754,-48.50000004541305,185.84857139613354,108.58714292850624,156.85571391592228,-155.8642857207733,-2.25,123.03,2025-05-14 14:37:31.751
1747201051.761,22.973333363608702,36.85666670451088,-9.089999863760838,27.58666670451088,57.726666500152135,-48.49333338631523,185.8533332954891,108.57666674992394,156.90999956857598,-155.8633333409022,-2.25,123.03,2025-05-14 14:37:31.761
1747201051.771,22.969523844124232,36.85190480515529,-9.107142701440957,27.58190480515529,57.74761885731672,-48.486666727217404,185.8580951948447,108.56619057134165,156.9642852212297,-155.86238096103108,-2.25,123.03,2025-05-14 14:37:31.771
1747201051.781,22.965714324639762,36.84714290579971,-9.124285539121075,27.5771429057997,57.76857121448131,-48.48000006811958,185.8628570942003,108.55571439275936,157.0185708738834,-155.86142858115994,-2.25,123.03,2025-05-14 14:37:31.781
1747201051.791,22.961904805155292,36.842381006444114,-9.141428376801196,27.57238100644411,57.7895235716459,-48.473333409021755,185.86761899355588,108.54523821417705,157.07285652653712,-155.86047620128883,-2.25,123.03,2025-05-14 14:37:31.791
1747201051.796,22.96,36.84,-9.15,27.57,57.8,-48.47,185.87,108.54,157.1,-155.86,-2.25,123.03,2025-05-14 14:37:31.796
1747201051.806,22.956335081736388,36.83476440248055,-9.168848151070012,27.564764402480552,57.822513069333624,-48.462146603720825,185.8747120377675,108.52795812570528,157.16020937147366,-155.8584293207442,-2.25,123.02947644024806,2025-05-14 14:37:31.806
1747201051.816,22.952670163472774,36.82952880496111,-9.187696302140026,27.559528804961104,57.84502613866725,-48.45429320744166,185.879424075535,108.51591625141054,157.2204187429473,-155.85685864148834,-2.25,123.0289528804961,2025-05-14 14:37:31.816
1747201051.826,22.94900524520916,36.824293207441656,-9.206544453210038,27.554293207441656,57.86753920800088,-48.446439811162485,185.8841361133025,108.50387437711582,157.28062811442095,-155.85528796223252,-2.25,123.02842932074417,2025-05-14 14:37:31.826
1747201051.836,22.945340326945548,36.81905760992221,-9.225392604280051,27.549057609922208,57.890052277334505,-48.43858641488331,185.88884815107002,108.49183250282108,157.3408374858946,-155.85371728297667,-2.25,123.02790576099223,2025-05-14 14:37:31.836
1747201051.846,22.941675408681935,36.81382201240276,-9.244240755350063,27.54382201240276,57.91256534666813,-48.43073301860414,185.8935601888375,108.47979062852636,157.40104685736824,-155.85214660372085,-2.25,123.02738220124027,2025-05-14 14:37:31.846
1747201051.856,22.938010490418318,36.808586414883315,-9.263088906420077,27.538586414883312,57.93507841600175,-48.42287962232497,185.89827222660503,108.46774875423162,157.4612562288419,-155.850575924465,-2.25,123.02685864148833,2025-05-14 14:37:31.856
1747201051.866,22.934345572154704,36.803350817363864,-9.281937057490088,27.533350817363864,57.95759148533538,-48.415026226045796,185.90298426437252,108.4557068799369,157.52146560031557,-155.84900524520918,-2.25,123.02633508173639,2025-05-14 14:37:31.866
1747201051.876,22.93068065389109,36.79811521984442,-9.300785208560102,27.528115219844416,57.980104554669005,-48.40717282976662,185.90769630214004,108.44366500564216,157.5816749717892,-155.84743456595334,-2.25,123.02581152198444,2025-05-14 14:37:31.876
1747201051.886,22.927015735627478,36.79287962232497,-9.319633359630114,27.522879622324968,58.00261762400263,-48.39931943348745,185.91240833990753,108.43162313134744,157.64188434326286,-155.84586388669751,-2.25,123.0252879622325,2025-05-14 14:37:31.886
1747201051.896,22.923350817363865,36.78764402480552,-9.338481510700127,27.51764402480552,58.02513069333626,-48.39146603720828,185.91712037767505,108.4195812570527,157.70209371473652,-155.84429320744167,-2.25,123.02476440248056,2025-05-14 14:37:31.896
1747201051.906,22.91968589910025,36.78240842728607,-9.35732966177014,27.512408427286072,58.047643762669885,-48.38361264092911,185.92183241544254,108.40753938275797,157.76230308621015,-155.84272252818585,-2.25,123.0242408427286,2025-05-14 14:37:31.906
1747201051.916,22.916020980836638,36.77717282976663,-9.376177812840153,27.507172829766624,58.07015683200351,-48.375759244649934,185.92654445321006,108.39549750846324,157.8225124576838,-155.84115184893,-2.25,123.02371728297666,2025-05-14 14:37:31.916
1747201051.926,22.91235597519448,36.77193710742069,-9.395026413285533,27.501937107420684,58.09267043809105,-48.367905661131026,185.9312566033214,108.38345534706758,157.8827232646621,-155.83958113222621,-2.25,123.02319371074206,2025-05-14 14:37:31.926
1747201051.936,22.908691056930866,36.76670150990124,-9.413874564355545,27.496701509901236,58.115183507424675,-48.36005226485186,185.9359686410889,108.37141347277284,157.94293263613577,-155.8380104529704,-2.25,123.02267015099012,2025-05-14 14:37:31.936
1747201051.946,22.905026138667253,36.761465912381794,-9.432722715425559,27.491465912381788,58.1376965767583,-48.352198868572685,185.9406806788564,108.35937159847812,158.00314200760943,-155.83643977371455,-2.25,123.02214659123818,2025-05-14 14:37:31.946
1747201051.956,22.90136122040364,36.75623031486234,-9.45157086649557,27.48623031486234,58.16020964609193,-48.34434547229351,185.9453927166239,108.34732972418338,158.0633513790831,-155.83486909445872,-2.25,123.02162303148623,2025-05-14 14:37:31.956
1747201051.966,22.897696302140027,36.7509947173429,-9.470419017565584,27.48099471734289,58.182722715425555,-48.33649207601434,185.9501047543914,108.33528784988866,158.12356075055672,-155.83329841520288,-2.25,123.02109947173429,2025-05-14 14:37:31.966
1747201051.976,22.894031383876413,36.74575911982345,-9.489267168635596,27.475759119823444,58.20523578475918,-48.32863867973517,185.9548167921589,108.32324597559392,158.18377012203038,-155.83172773594706,-2.25,123.02057591198233,2025-05-14 14:37:31.976
1747201051.986,22.8903664656128,36.740523522304,-9.50811531970561,27.470523522303996,58.22774885409281,-48.320785283456,185.9595288299264,108.3112041012992,158.24397949350404,-155.8301570566912,-2.25,123.0200523522304,2025-05-14 14:37:31.986
1747201051.987,22.89,36.74,-9.51,27.47,58.23,-48.32,185.96,108.31,158.25,-155.83,-2.25,123.02,2025-05-14 14:37:31.987
1747201051.997,22.886039610504575,36.73504951313072,-9.527821752729418,27.466039610504573,58.25178214222484,-48.31207922100915,185.9649504868693,108.29811883151372,158.3074256476837,-155.8280198052523,-2.25,123.01900990262614,2025-05-14 14:37:31.997
1747201052.007,22.88207922100915,36.730099026261435,-9.545643505458838,27.462079221009148,58.27356428444969,-48.3041584420183,185.96990097373856,108.28623766302745,158.36485129536737,-155.82603961050458,-2.25,123.01801980525228,2025-05-14 14:37:32.007
1747201052.017,22.87811883151372,36.72514853939215,-9.563465258188256,27.45811883151372,58.295346426674534,-48.29623766302744,185.97485146060785,108.27435649454117,158.42227694305106,-155.82405941575686,-2.25,123.01702970787844,2025-05-14 14:37:32.017
1747201052.027,22.874158442018295,36.72019805252287,-9.581287010917675,27.454158442018294,58.31712856889938,-48.28831688403659,185.97980194747714,108.26247532605488,158.47970259073475,-155.82207922100915,-2.25,123.01603961050458,2025-05-14 14:37:32.027
1747201052.037,22.87019805252287,36.715247565653584,-9.599108763647093,27.450198052522868,58.33891071112423,-48.28039610504574,185.9847524343464,108.2505941575686,158.53712823841843,-155.82009902626143,-2.25,123.01504951313072,2025-05-14 14:37:32.037
1747201052.047,22.866237663027444,36.7102970787843,-9.616930516376511,27.446237663027443,58.36069285334907,-48.27247532605489,185.9897029212157,108.23871298908233,158.5945538861021,-155.81811883151371,-2.25,123.01405941575686,2025-05-14 14:37:32.047
1747201052.057,22.862277273532015,36.70534659191502,-9.634752269105931,27.442277273532014,58.382474995573915,-48.26455454706403,185.994653408085,108.22683182059605,158.65197953378578,-155.81613863676603,-2.25,123.013069318383,2025-05-14 14:37:32.057
1747201052.067,22.85831688403659,36.70039610504573,-9.652574021835349,27.43831688403659,58.404257137798766,-48.25663376807318,185.99960389495425,108.21495065210976,158.70940518146946,-155.8141584420183,-2.25,123.01207922100915,2025-05-14 14:37:32.067
1747201052.077,22.854356494541165,36.69544561817645,-9.670395774564767,27.434356494541163,58.42603928002361,-48.24871298908233,186.00455438182354,108.20306948362348,158.76683082915315,-155.8121782472706,-2.25,123.0110891236353,2025-05-14 14:37:32.077
1747201052.087,22.85039610504574,36.690495131307166,-9.688217527294187,27.430396105045737,58.44782142224845,-48.24079221009148,186.00950486869283,108.19118831513721,158.82425647683684,-155.81019805252288,-2.25,123.01009902626144,2025-05-14 14:37:32.087
1747201052.088,22.85,36.69,-9.69,27.43,58.45,-48.24,186.01,108.19,158.83,-155.81,-2.25,123.01,2025-05-14 14:37:32.088
1747201052.098,22.84926470614016,36.68926470614016,-9.692205881579524,27.42926470614016,58.45294117543937,-48.23926470614016,186.01,108.18852941228032,158.8366176447386,-155.81,-2.25,123.01,2025-05-14 14:37:32.098
1747201052.108,22.848529412280318,36.68852941228032,-9.694411763159048,27.428529412280316,58.45588235087873,-48.23852941228032,186.01,108.18705882456064,158.84323528947715,-155.81,-2.25,123.01,2025-05-14 14:37:32.108
1747201052.118,22.847794118420477,36.68779411842048,-9.696617644738572,27.427794118420476,58.4588235263181,-48.237794118420474,186.01,108.18558823684096,158.84985293421573,-155.81,-2.25,123.01,2025-05-14 14:37:32.118
1747201052.128,22.847058824560637,36.68705882456063,-9.698823526318096,27.427058824560635,58.46176470175747,-48.237058824560634,186.01,108.18411764912126,158.8564705789543,-155.81,-2.25,123.01,2025-05-14 14:37:32.128
1747201052.138,22.846323530700793,36.68632353070079,-9.70102940789762,27.426323530700795,58.46470587719683,-48.236323530700794,186.01,108.18264706140158,158.86308822369287,-155.81,-2.25,123.01,2025-05-14 14:37:32.138
1747201052.148,22.845588236840953,36.68558823684095,-9.703235289477144,27.42558823684095,58.467647052636195,-48.235588236840954,186.01,108.1811764736819,158.86970586843142,-155.81,-2.25,123.01,2025-05-14 14:37:32.148
1747201052.158,22.84485294298111,36.68485294298111,-9.705441171056668,27.42485294298111,58.47058822807556,-48.23485294298111,186.01,108.17970588596222,158.87632351317,-155.81,-2.25,123.01,2025-05-14 14:37:32.158
1747201052.168,22.84411764912127,36.68411764912127,-9.707647052636192,27.42411764912127,58.473529403514924,-48.234117649121266,186.01,108.17823529824254,158.88294115790856,-155.81,-2.25,123.01,2025-05-14 14:37:32.168
1747201052.178,22.84338235526143,36.68338235526143,-9.709852934215716,27.423382355261428,58.47647057895429,-48.233382355261426,186.01,108.17676471052286,158.88955880264714,-155.81,-2.25,123.01,2025-05-14 14:37:32.178
1747201052.188,22.842647061401586,36.68264706140159,-9.71205881579524,27.422647061401587,58.47941175439366,-48.232647061401586,186.01,108.17529412280318,158.89617644738573,-155.81,-2.25,123.01,2025-05-14 14:37:32.188
1747201052.198,22.841911767541745,36.68191176754174,-9.714264697374764,27.421911767541747,58.48235292983302,-48.231911767541746,186.01,108.17382353508349,158.90279409212428,-155.81,-2.25,123.01,2025-05-14 14:37:32.198
1747201052.208,22.841176473681905,36.6811764736819,-9.716470578954288,27.421176473681907,58.48529410527239,-48.2311764736819,186.01,108.1723529473638,158.90941173686286,-155.81,-2.25,123.01,2025-05-14 14:37:32.208
1747201052.218,22.84044117982206,36.68044117982206,-9.718676460533812,27.420441179822063,58.48823528071175,-48.23044117982206,186.01,108.17088235964412,158.91602938160142,-155.81,-2.25,123.01,2025-05-14 14:37:32.218
1747201052.224,22.84,36.68,-9.72,27.42,58.49,-48.23,186.01,108.17,158.92,-155.81,-2.25,123.01,2025-05-14 14:37:32.224
1747201052.234,22.83207922100915,36.669108928887574,-9.758613797580407,27.40910892888758,58.53752467394512,-48.214158442018295,186.0189108763647,108.14425746827973,159.04376217173206,-155.80702970787843,-2.2509900973738564,123.00900990262615,2025-05-14 14:37:32.234
1747201052.244,22.824158442018295,36.658217857775156,-9.797227595160814,27.398217857775155,58.585049347890234,-48.198316884036586,186.0278217527294,108.11851493655946,159.16752434346412,-155.80405941575685,-2.251980194747713,123.00801980525229,2025-05-14 14:37:32.244
1747201052.254,22.816237663027444,36.64732678666273,-9.835841392741221,27.387326786662733,58.63257402183535,-48.182475326054885,186.03673262909413,108.09277240483918,159.29128651519622,-155.80108912363528,-2.2529702921215695,123.00702970787843,2025-05-14 14:37:32.254
1747201052.264,22.80831688403659,36.63643571555031,-9.87445519032163,27.37643571555031,58.680098695780465,-48.166633768073176,186.04564350545883,108.06702987311891,159.4150486869283,-155.79811883151373,-2.2539603894954263,123.00603961050457,2025-05-14 14:37:32.264
1747201052.274,22.80039610504574,36.62554464443789,-9.913068987902037,27.365544644437886,58.727623369725585,-48.150792210091474,186.05455438182355,108.04128734139864,159.53881085866036,-155.79514853939216,-2.2549504868692827,123.00504951313071,2025-05-14 14:37:32.274
1747201052.284,22.792475326054884,36.61465357332546,-9.951682785482443,27.354653573325464,58.7751480436707,-48.134950652109765,186.06346525818824,108.01554480967837,159.66257303039242,-155.79217824727058,-2.2559405842431395,123.00405941575686,2025-05-14 14:37:32.284
1747201052.294,22.784554547064033,36.603762502213044,-9.99029658306285,27.343762502213043,58.822672717615816,-48.11910909412806,186.07237613455297,107.98980227795809,159.78633520212452,-155.789207955149,-2.256930681616996,123.00306931838301,2025-05-14 14:37:32.294
1747201052.304,22.77663376807318,36.59287143110062,-10.028910380643257,27.332871431100617,58.87019739156093,-48.103267536146355,186.08128701091766,107.96405974623782,159.9100973738566,-155.78623766302744,-2.2579207789908526,123.00207922100915,2025-05-14 14:37:32.304
1747201052.314,22.768712989082328,36.5819803599882,-10.067524178223664,27.321980359988196,58.91772206550605,-48.08742597816465,186.0901978872824,107.93831721451755,160.03385954558865,-155.78326737090586,-2.258910876364709,123.0010891236353,2025-05-14 14:37:32.314
1747201052.324,22.760792210091473,36.571089288875775,-10.10613797580407,27.311089288875774,58.96524673945117,-48.071584420182944,186.09910876364708,107.91257468279728,160.15762171732072,-155.78029707878432,-2.259900973738566,123.00009902626144,2025-05-14 14:37:32.324
1747201052.325,22.76,36.57,-10.11,27.31,58.97,-48.07,186.1,107.91,160.17,-155.78,-2.26,123.0,2025-05-14 14:37:32.325
1747201052.335,22.756039610504576,36.56504951313072,-10.127821752729417,27.306039610504573,58.99178214222484,-48.06207922100915,186.10396038949543,107.89712873413986,160.22643555030982,-155.77900990262614,-2.26,123.0,2025-05-14 14:37:32.335
1747201052.345,22.752079221009147,36.56009902626143,-10.145643505458837,27.302079221009148,59.013564284449686,-48.0541584420183,186.10792077899086,107.88425746827973,160.28287110061964,-155.77801980525228,-2.26,123.0,2025-05-14 14:37:32.345
1747201052.355,22.74811883151372,36.55514853939215,-10.163465258188255,27.29811883151372,59.035346426674536,-48.04623766302744,186.11188116848626,107.87138620241959,160.33930665092947,-155.77702970787843,-2.26,123.0,2025-05-14 14:37:32.355
1747201052.365,22.744158442018296,36.550198052522866,-10.181287010917675,27.294158442018293,59.05712856889938,-48.03831688403659,186.1158415579817,107.85851493655946,160.3957422012393,-155.77603961050457,-2.26,123.0,2025-05-14 14:37:32.365
1747201052.375,22.740198052522867,36.54524756565359,-10.199108763647093,27.290198052522868,59.07891071112422,-48.03039610504574,186.11980194747713,107.84564367069932,160.45217775154913,-155.7750495131307,-2.26,123.0,2025-05-14 14:37:32.375
1747201052.385,22.736237663027442,36.540297078784306,-10.216930516376511,27.286237663027443,59.10069285334907,-48.02247532605489,186.12376233697256,107.83277240483919,160.50861330185896,-155.77405941575688,-2.26,123.0,2025-05-14 14:37:32.385
1747201052.395,22.732277273532016,36.53534659191502,-10.23475226910593,27.282277273532014,59.12247499557392,-48.01455454706403,186.12772272646797,107.81990113897905,160.5650488521688,-155.77306931838302,-2.26,123.0,2025-05-14 14:37:32.395
1747201052.405,22.728316884036587,36.53039610504574,-10.252574021835349,27.278316884036588,59.14425713779876,-48.00663376807318,186.1316831159634,107.80702987311892,160.62148440247861,-155.77207922100916,-2.26,123.0,2025-05-14 14:37:32.405
1747201052.415,22.724356494541162,36.525445618176455,-10.270395774564767,27.274356494541163,59.166039280023604,-47.99871298908233,186.13564350545883,107.79415860725878,160.67791995278844,-155.7710891236353,-2.26,123.0,2025-05-14 14:37:32.415
1747201052.425,22.720396105045737,36.52049513130717,-10.288217527294186,27.270396105045737,59.18782142224845,-47.99079221009148,186.13960389495426,107.78128734139864,160.73435550309827,-155.77009902626145,-2.26,123.0,2025-05-14 14:37:32.425
1747201052.426,22.72,36.52,-10.29,27.27,59.19,-47.99,186.14,107.78,160.74,-155.77,-2.26,123.0,2025-05-14 14:37:32.426
1747201052.436,22.718260867762424,36.51826086776243,-10.297826095069079,27.267391301643638,59.19956522730665,-47.98652173552485,186.14173913223755,107.77478260328728,160.76521741744483,-155.77,-2.26,123.0,2025-05-14 14:37:32.436
1747201052.446,22.716521735524854,36.516521735524854,-10.305652190138158,27.26478260328728,59.2091304546133,-47.98304347104971,186.14347826447514,107.76956520657455,160.79043483488962,-155.77,-2.26,123.0,2025-05-14 14:37:32.446
1747201052.456,22.71478260328728,36.51478260328728,-10.313478285207237,27.26217390493092,59.218695681919954,-47.97956520657456,186.1452173967127,107.76434780986185,160.81565225233444,-155.77,-2.26,123.0,2025-05-14 14:37:32.456
1747201052.466,22.713043471049705,36.51304347104971,-10.321304380276317,27.25956520657456,59.228260909226606,-47.976086942099414,186.14695652895028,107.75913041314912,160.84086966977924,-155.77,-2.26,123.0,2025-05-14 14:37:32.466
1747201052.476,22.711304338812134,36.51130433881214,-10.329130475345396,27.2569565082182,59.23782613653326,-47.97260867762427,186.14869566118784,107.7539130164364,160.86608708722406,-155.77,-2.26,123.0,2025-05-14 14:37:32.476
1747201052.486,22.70956520657456,36.509565206574564,-10.336956570414475,27.25434780986184,59.24739136383991,-47.969130413149124,186.15043479342543,107.74869561972368,160.89130450466888,-155.77,-2.26,123.0,2025-05-14 14:37:32.486
1747201052.496,22.707826074336985,36.50782607433699,-10.344782665483555,27.25173911150548,59.25695659114656,-47.965652148673975,186.152173925663,107.74347822301097,160.91652192211367,-155.77,-2.26,123.0,2025-05-14 14:37:32.496
1747201052.506,22.706086942099414,36.506086942099415,-10.352608760552634,27.24913041314912,59.26652181845322,-47.96217388419883,186.15391305790058,107.73826082629824,160.9417393395585,-155.77,-2.26,123.0,2025-05-14 14:37:32.506
1747201052.516,22.70434780986184,36.50434780986184,-10.360434855621714,27.24652171479276,59.27608704575987,-47.958695619723684,186.15565219013814,107.73304342958552,160.96695675700332,-155.77,-2.26,123.0,2025-05-14 14:37:32.516
1747201052.526,22.702608677624266,36.502608677624266,-10.368260950690793,27.2439130164364,59.285652273066525,-47.955217355248536,186.15739132237573,107.7278260328728,160.9921741744481,-155.77,-2.26,123.0,2025-05-14 14:37:32.526
1747201052.536,22.700869545386695,36.50086954538669,-10.376087045759874,27.24130431808004,59.29521750037318,-47.951739090773394,186.1591304546133,107.72260863616009,161.01739159189293,-155.77,-2.26,123.0,2025-05-14 14:37:32.536
1747201052.541,22.7,36.5,-10.38,27.24,59.3,-47.95,186.16,107.72,161.03,-155.77,-2.26,123.0,2025-05-14 14:37:32.541
1747201052.551,22.694444324604575,36.49285698877731,-10.406191041149858,27.23285698877731,59.33174671654528,-47.93968231712279,186.16476200748178,107.70174563798646,161.11333513093138,-155.76841266417276,-2.26,122.99920633208637,2025-05-14 14:37:32.551
1747201052.561,22.688888781663742,36.485714147853386,-10.432381457870926,27.22571414785338,59.36349267620718,-47.92936488023267,186.16952390143106,107.68349171118086,161.19666827504386,-155.76682536618964,-2.26,122.99841268309481,2025-05-14 14:37:32.561
1747201052.571,22.68333323872291,36.47857130692945,-10.458571874591993,27.218571306929455,59.39523863586908,-47.91904744334255,186.17428579538037,107.66523778437528,161.28000141915635,-155.76523806820654,-2.26,122.99761903410327,2025-05-14 14:37:32.571
1747201052.581,22.677777695782076,36.47142846600553,-10.48476229131306,27.21142846600553,59.42698459553098,-47.90873000645243,186.17904768932965,107.64698385756968,161.36333456326884,-155.76365077022345,-2.26,122.99682538511172,2025-05-14 14:37:32.581
1747201052.591,22.672222152841243,36.4642856250816,-10.510952708034129,27.2042856250816,59.45873055519288,-47.89841256956232,186.18380958327893,107.6287299307641,161.44666770738132,-155.76206347224036,-2.26,122.99603173612017,2025-05-14 14:37:32.591
1747201052.601,22.666666609900414,36.457142784157675,-10.537143124755197,27.197142784157673,59.490476514854784,-47.8880951326722,186.1885714772282,107.6104760039585,161.5300008514938,-155.76047617425726,-2.26,122.99523808712863,2025-05-14 14:37:32.601
1747201052.611,22.66111106695958,36.44999994323374,-10.563333541476265,27.189999943233744,59.52222247451668,-47.87777769578208,186.1933333711775,107.59222207715291,161.6133339956063,-155.75888887627417,-2.26,122.99444443813708,2025-05-14 14:37:32.611
1747201052.621,22.655555524018748,36.442857102309816,-10.589523958197331,27.182857102309818,59.553968434178586,-47.86746025889196,186.1980952651268,107.57396815034731,161.69666713971878,-155.75730157829108,-2.26,122.99365078914553,2025-05-14 14:37:32.621
1747201052.631,22.649999981077915,36.43571426138589,-10.615714374918399,27.175714261385888,59.58571439384048,-47.85714282200185,186.20285715907607,107.55571422354171,161.78000028383127,-155.75571428030798,-2.26,122.99285714015399,2025-05-14 14:37:32.631
1747201052.641,22.644444438137082,36.428571420461964,-10.641904791639467,27.168571420461962,59.61746035350239,-47.84682538511173,186.20761905302535,107.53746029673613,161.86333342794376,-155.7541269823249,-2.26,122.99206349116244,2025-05-14 14:37:32.641
1747201052.651,22.63888889519625,36.42142857953803,-10.668095208360535,27.161428579538036,59.649206313164285,-47.83650794822161,186.21238094697463,107.51920636993053,161.94666657205624,-155.7525396843418,-2.26,122.9912698421709,2025-05-14 14:37:32.651
1747201052.661,22.633333352255416,36.414285738614105,-10.694285625081601,27.154285738614107,59.68095227282619,-47.82619051133149,186.2171428409239,107.50095244312494,162.02999971616873,-155.7509523863587,-2.26,122.99047619317935,2025-05-14 14:37:32.661
1747201052.667,22.63,36.41,-10.71,27.15,59.7,-47.82,186.22,107.49,162.08,-155.75,-2.26,122.99,2025-05-14 14:37:32.667
1747201052.677,22.626039601155743,36.40504950144467,-10.727821794799162,27.146039601155742,59.72178219364342,-47.81207920231149,186.22297029913318,107.47712870375615,162.1364356835307,-155.74900990028894,-2.26,122.99,2025-05-14 14:37:32.677
1747201052.687,22.622079202311483,36.400099002889355,-10.745643589598323,27.142079202311482,59.743564387286845,-47.80415840462297,186.2259405982664,107.46425740751232,162.19287136706137,-155.74801980057788,-2.26,122.99,2025-05-14 14:37:32.687
1747201052.697,22.618118803467226,36.39514850433403,-10.763465384397485,27.138118803467226,59.76534658093026,-47.796237606934454,186.22891089739957,107.45138611126848,162.24930705059205,-155.74702970086682,-2.26,122.99,2025-05-14 14:37:32.697
1747201052.707,22.614158404622966,36.39019800577871,-10.781287179196648,27.134158404622966,59.78712877457368,-47.788316809245934,186.23188119653278,107.43851481502465,162.30574273412273,-155.74603960115576,-2.26,122.99,2025-05-14 14:37:32.707
1747201052.717,22.61019800577871,36.38524750722338,-10.799108973995809,27.13019800577871,59.8089109682171,-47.78039601155742,186.23485149566596,107.4256435187808,162.3621784176534,-155.74504950144467,-2.26,122.99,2025-05-14 14:37:32.717
1747201052.727,22.60623760693445,36.380297008668066,-10.81693076879497,27.12623760693445,59.83069316186052,-47.7724752138689,186.23782179479917,107.41277222253696,162.4186141011841,-155.7440594017336,-2.26,122.99,2025-05-14 14:37:32.727
1747201052.737,22.602277208090193,36.37534651011274,-10.834752563594131,27.122277208090193,59.85247535550394,-47.76455441618039,186.24079209393236,107.39990092629313,162.47504978471474,-155.74306930202255,-2.26,122.99,2025-05-14 14:37:32.737
1747201052.747,22.598316809245933,36.37039601155742,-10.852574358393293,27.118316809245933,59.87425754914736,-47.75663361849187,186.24376239306554,107.38702963004928,162.53148546824542,-155.7420792023115,-2.26,122.99,2025-05-14 14:37:32.747
1747201052.757,22.594356410401677,36.36544551300209,-10.870396153192454,27.114356410401676,59.89603974279078,-47.748712820803355,186.24673269219875,107.37415833380545,162.5879211517761,-155.74108910260043,-2.26,122.99,2025-05-14 14:37:32.757
1747201052.767,22.59039601155742,36.36049501444678,-10.888217947991615,27.11039601155742,59.9178219364342,-47.74079202311484,186.24970299133193,107.36128703756161,162.64435683530678,-155.74009900288937,-2.26,122.99,2025-05-14 14:37:32.767
1747201052.768,22.59,36.36,-10.89,27.11,59.92,-47.74,186.25,107.36,162.65,-155.74,-2.26,122.99,2025-05-14 14:37:32.768
1747201052.778,22.58850742922619,36.357761143839284,-10.896716568482146,27.107761143839284,59.928209139255955,-47.73701485845238,186.2507462853869,107.35552228767857,162.67164227622024,-155.7392537146131,-2.26,122.99,2025-05-14 14:37:32.778
1747201052.788,22.587014894037225,36.35552234105584,-10.903432976832487,27.10552234105584,59.936418082795264,-47.73402978807445,186.25149255298138,107.35104468211168,162.69328403646023,-155.7385074470186,-2.26,122.99,2025-05-14 14:37:32.788
1747201052.798,22.585522358848262,36.35328353827239,-10.910149385182827,27.10328353827239,59.944627026334565,-47.73104471769653,186.25223882057585,107.34656707654479,162.71492579670021,-155.73776117942413,-2.26,122.99,2025-05-14 14:37:32.798
1747201052.808,22.584029823659296,36.35104473548894,-10.916865793533166,27.101044735488944,59.952835969873874,-47.728059647318595,186.25298508817036,107.34208947097788,162.7365675569402,-155.73701491182965,-2.26,122.99,2025-05-14 14:37:32.808
1747201052.818,22.58253728847033,36.348805932705496,-10.923582201883507,27.098805932705496,59.961044913413176,-47.72507457694066,186.25373135576484,107.33761186541099,162.7582093171802,-155.73626864423517,-2.26,122.99,2025-05-14 14:37:32.818
1747201052.828,22.58104475328137,36.34656712992205,-10.930298610233846,27.09656712992205,59.96925385695248,-47.72208950656274,186.25447762335932,107.3331342598441,162.77985107742018,-155.7355223766407,-2.26,122.99,2025-05-14 14:37:32.828
1747201052.838,22.579552218092402,36.344328327138605,-10.937015018584185,27.094328327138605,59.977462800491786,-47.71910443618481,186.2552238909538,107.32865665427721,162.80149283766016,-155.7347761090462,-2.26,122.99,2025-05-14 14:37:32.838
1747201052.848,22.57805968290344,36.34208952435516,-10.943731426934526,27.092089524355156,59.98567174403109,-47.71611936580688,186.25597015854828,107.32417904871032,162.82313459790015,-155.73402984145173,-2.26,122.99,2025-05-14 14:37:32.848
1747201052.858,22.576567147714474,36.33985072157171,-10.950447835284866,27.08985072157171,59.993880687570396,-47.71313429542895,186.25671642614276,107.31970144314342,162.8447763581401,-155.73328357385722,-2.26,122.99,2025-05-14 14:37:32.858
1747201052.868,22.57507461252551,36.33761191878826,-10.957164243635207,27.087611918788262,60.0020896311097,-47.71014922505102,186.25746269373724,107.31522383757653,162.8664181183801,-155.73253730626274,-2.26,122.99,2025-05-14 14:37:32.868
1747201052.878,22.573582077336546,36.33537311600482,-10.963880651985546,27.085373116004817,60.010298574649,-47.707164154673094,186.25820896133172,107.31074623200963,162.88805987862008,-155.73179103866826,-2.26,122.99,2025-05-14 14:37:32.878
1747201052.888,22.57208954214758,36.33313431322137,-10.970597060335885,27.083134313221368,60.01850751818831,-47.70417908429516,186.2589552289262,107.30626862644274,162.90970163886007,-155.73104477107378,-2.26,122.99,2025-05-14 14:37:32.888
1747201052.898,22.570597006958618,36.33089551043793,-10.977313468686226,27.080895510437923,60.02671646172761,-47.70119401391724,186.25970149652068,107.30179102087585,162.93134339910006,-155.7302985034793,-2.26,122.99,2025-05-14 14:37:32.898
1747201052.902,22.57,36.33,-10.98,27.08,60.03,-47.7,186.26,107.3,162.94,-155.73,-2.26,122.99,2025-05-14 14:37:32.902
1747201052.912,22.562079221009146,36.32108912363529,-11.012673213337267,27.07108912363529,60.06960389495426,-47.68712873413987,186.26495048686928,107.27623766302744,163.04396022425493,-155.72900990262613,-2.26,122.98900990262614,2025-05-14 14:37:32.912
1747201052.922,22.554158442018295,36.31217824727058,-11.045346426674536,27.06217824727058,60.10920778990853,-47.674257468279734,186.26990097373857,107.25247532605488,163.1479204485099,-155.72801980525227,-2.26,122.98801980525228,2025-05-14 14:37:32.922
1747201052.932,22.54623766302744,36.30326737090587,-11.078019640011803,27.05326737090587,60.14881168486279,-47.66138620241959,186.27485146060783,107.22871298908233,163.25188067276483,-155.72702970787842,-2.26,122.98702970787843,2025-05-14 14:37:32.932
1747201052.942,22.53831688403659,36.29435649454116,-11.110692853349072,27.044356494541162,60.188415579817054,-47.64851493655946,186.27980194747713,107.20495065210977,163.35584089701976,-155.72603961050456,-2.26,122.98603961050458,2025-05-14 14:37:32.942
1747201052.952,22.530396105045735,36.28544561817645,-11.143366066686339,27.035445618176453,60.22801947477132,-47.635643670699324,186.28475243434642,107.1811883151372,163.45980112127472,-155.7250495131307,-2.26,122.98504951313072,2025-05-14 14:37:32.952
1747201052.962,22.52247532605488,36.276534741811744,-11.176039280023605,27.02653474181174,60.267623369725584,-47.62277240483919,186.2897029212157,107.15742597816465,163.56376134552966,-155.72405941575687,-2.26,122.98405941575686,2025-05-14 14:37:32.962
1747201052.972,22.51455454706403,36.267623865447035,-11.208712493360874,27.01762386544703,60.307227264679845,-47.60990113897905,186.29465340808497,107.13366364119209,163.6677215697846,-155.723069318383,-2.26,122.983069318383,2025-05-14 14:37:32.972
1747201052.982,22.50663357922691,36.258712776630276,-11.241386485688995,27.008712776630272,60.346832103865445,-47.597029566243734,186.29960401298317,107.10990073768073,163.7716842726468,-155.72207919740336,-2.26,122.98207919740337,2025-05-14 14:37:32.982
1747201052.992,22.498712800236056,36.24980190026557,-11.274059699026262,26.999801900265563,60.386435998819714,-47.58415830038359,186.30455449985246,107.08613840070818,163.87564449690174,-155.7210891000295,-2.26,122.98108910002951,2025-05-14 14:37:32.992
1747201053.002,22.490792021245202,36.24089102390086,-11.306732912363529,26.990891023900854,60.426039893773975,-47.57128703452346,186.30950498672175,107.06237606373561,163.9796047211567,-155.72009900265564,-2.26,122.98009900265565,2025-05-14 14:37:33.002
1747201053.003,22.49,36.24,-11.31,26.99,60.43,-47.57,186.31,107.06,163.99,-155.72,-2.26,122.98,2025-05-14 14:37:33.003
1747201053.013,22.487169812593905,36.23622641679188,-11.324150937030472,26.986226416791872,60.44698112443657,-47.56339622938578,186.31188679160405,107.04962264617765,164.0352829984975,-155.71905660419796,-2.26,122.98,2025-05-14 14:37:33.013
1747201053.023,22.48433962518781,36.23245283358375,-11.338301874060946,26.982452833583746,60.46396224887313,-47.55679245877156,186.31377358320813,107.0392452923553,164.08056599699503,-155.71811320839595,-2.26,122.98,2025-05-14 14:37:33.023
1747201053.033,22.481509437781714,36.22867925037563,-11.352452811091418,26.97867925037562,60.4809433733097,-47.55018868815734,186.31566037481218,107.02886793853297,164.12584899549253,-155.7171698125939,-2.26,122.98,2025-05-14 14:37:33.033
1747201053.043,22.47867925037562,36.2249056671675,-11.366603748121891,26.974905667167494,60.49792449774627,-47.543584917543114,186.31754716641626,107.01849058471062,164.17113199399006,-155.71622641679187,-2.26,122.98,2025-05-14 14:37:33.043
1747201053.053,22.475849062969527,36.221132083959375,-11.380754685152363,26.97113208395937,60.51490562218284,-47.536981146928895,186.3194339580203,107.00811323088827,164.21641499248756,-155.71528302098986,-2.26,122.98,2025-05-14 14:37:33.053
1747201053.063,22.473018875563433,36.217358500751246,-11.394905622182836,26.967358500751242,60.5318867466194,-47.530377376314675,186.3213207496244,106.99773587706592,164.26169799098508,-155.71433962518782,-2.26,122.98,2025-05-14 14:37:33.063
1747201053.073,22.47018868815734,36.21358491754312,-11.409056559213308,26.963584917543116,60.54886787105597,-47.523773605700455,186.32320754122844,106.98735852324357,164.30698098948258,-155.71339622938578,-2.26,122.98,2025-05-14 14:37:33.073
1747201053.083,22.467358500751246,36.209811334334994,-11.423207496243782,26.95981133433499,60.56584899549254,-47.517169835086236,186.32509433283252,106.97698116942124,164.3522639879801,-155.71245283358374,-2.26,122.98,2025-05-14 14:37:33.083
1747201053.093,22.46452831334515,36.20603775112687,-11.437358433274253,26.956037751126864,60.582830119929106,-47.510566064472016,186.32698112443657,106.96660381559889,164.3975469864776,-155.71150943778173,-2.26,122.98,2025-05-14 14:37:33.093
1747201053.103,22.461698125939055,36.20226416791874,-11.451509370304727,26.952264167918738,60.59981124436567,-47.503962293857796,186.32886791604065,106.95622646177654,164.44282998497513,-155.7105660419797,-2.26,122.98,2025-05-14 14:37:33.103
1747201053.109,22.46,36.2,-11.46,26.95,60.61,-47.5,186.33,106.95,164.47,-155.71,-2.26,122.98,2025-05-14 14:37:33.109
1747201053.119,22.456575349176724,36.195205488847414,-11.476438323951736,26.945890419012066,60.63054790493967,-47.493150698353446,186.33273972065862,106.93835618720085,164.52273962267847,-155.70931506983536,-2.26,122.97931506983535,2025-05-14 14:37:33.119
1747201053.129,22.453150698353443,36.190410977694825,-11.49287664790347,26.941780838024133,60.65109580987934,-47.486301396706885,186.33547944131726,106.92671237440172,164.57547924535697,-155.7086301396707,-2.26,122.9786301396707,2025-05-14 14:37:33.129
1747201053.139,22.449726047530167,36.185616466542236,-11.509314971855206,26.937671257036197,60.671643714819005,-47.47945209506033,186.33821916197587,106.91506856160257,164.62821886803545,-155.70794520950605,-2.26,122.97794520950603,2025-05-14 14:37:33.139
1747201053.149,22.44630139670689,36.180821955389646,-11.52575329580694,26.933561676048264,60.692191619758674,-47.47260279341378,186.3409588826345,106.90342474880342,164.68095849071395,-155.70726027934137,-2.26,122.97726027934138,2025-05-14 14:37:33.149
1747201053.159,22.44287674588361,36.17602744423706,-11.542191619758675,26.92945209506033,60.71273952469834,-47.46575349176722,186.34369860329312,106.89178093600428,164.73369811339242,-155.70657534917672,-2.26,122.97657534917673,2025-05-14 14:37:33.159
1747201053.169,22.439452095060332,36.17123293308447,-11.558629943710411,26.925342514072398,60.73328742963801,-47.45890419012066,186.34643832395173,106.88013712320513,164.7864377360709,-155.70589041901206,-2.26,122.97589041901207,2025-05-14 14:37:33.169
1747201053.179,22.436027444237055,36.16643842193188,-11.575068267662145,26.921232933084465,60.75383533457768,-47.45205488847411,186.34917804461037,106.86849331040598,164.8391773587494,-155.7052054888474,-2.26,122.97520548884741,2025-05-14 14:37:33.179
1747201053.189,22.432602793413775,36.16164391077929,-11.59150659161388,26.91712335209653,60.77438323951735,-47.44520558682755,186.35191776526898,106.85684949760683,164.89191698142787,-155.70452055868276,-2.26,122.97452055868276,2025-05-14 14:37:33.189
1747201053.199,22.429178142590498,36.1568493996267,-11.607944915565614,26.913013771108595,60.79493114445702,-47.438356285180994,186.35465748592762,106.8452056848077,164.94465660410634,-155.7038356285181,-2.26,122.9738356285181,2025-05-14 14:37:33.199
1747201053.209,22.425753410117103,36.15205477416394,-11.624383631437908,26.908904092140524,60.815479539297385,-47.431506820234205,186.35739727190634,106.83356159439815,164.99739748419663,-155.70315068202342,-2.26,122.97315068202342,2025-05-14 14:37:33.209
1747201053.219,22.422328759293826,36.147260263011354,-11.640821955389642,26.90479451115259,60.836027444237054,-47.42465751858765,186.36013699256495,106.821917781599,165.0501371068751,-155.70246575185877,-2.26,122.97246575185876,2025-05-14 14:37:33.219
1747201053.229,22.418904108470546,36.142465751858765,-11.657260279341378,26.900684930164655,60.85657534917672,-47.41780821694109,186.36287671322356,106.81027396879986,165.1028767295536,-155.70178082169411,-2.26,122.97178082169411,2025-05-14 14:37:33.229
1747201053.239,22.41547945764727,36.137671240706176,-11.673698603293111,26.89657534917672,60.877123254116384,-47.410958915294536,186.3656164338822,106.79863015600071,165.15561635223207,-155.70109589152943,-2.26,122.97109589152946,2025-05-14 14:37:33.239
1747201053.249,22.412054806823992,36.13287672955359,-11.690136927244847,26.89246576818879,60.89767115905605,-47.40410961364798,186.3683561545408,106.78698634320156,165.20835597491057,-155.70041096136478,-2.26,122.97041096136479,2025-05-14 14:37:33.249
1747201053.255,22.41,36.13,-11.7,26.89,60.91,-47.4,186.37,106.78,165.24,-155.7,-2.26,122.97,2025-05-14 14:37:33.255
1747201053.265,22.404059401733612,36.12306930202255,-11.726732692198741,26.883069302022548,60.94168319075406,-47.38910890317829,186.3729702991332,106.75920790606764,165.32514857515156,-155.69900990028893,-2.26,122.97,2025-05-14 14:37:33.265
1747201053.275,22.398118803467227,36.1161386040451,-11.753465384397485,26.876138604045096,60.97336638150813,-47.37821780635658,186.3759405982664,106.73841581213529,165.4102971503031,-155.69801980057787,-2.26,122.97,2025-05-14 14:37:33.275
1747201053.285,22.39217820520084,36.109207906067645,-11.780198076596227,26.869207906067647,61.005049572262195,-47.36732670953487,186.37891089739958,106.71762371820293,165.49544572545466,-155.6970297008668,-2.26,122.97,2025-05-14 14:37:33.285
1747201053.295,22.38623760693445,36.10227720809019,-11.806930768794969,26.862277208090195,61.03673276301625,-47.356435612713156,186.3818811965328,106.69683162427057,165.5805943006062,-155.69603960115575,-2.26,122.97,2025-05-14 14:37:33.295
1747201053.305,22.380297008668066,36.09534651011274,-11.833663460993712,26.855346510112742,61.06841595377032,-47.34554451589145,186.38485149566597,106.67603953033822,165.66574287575776,-155.69504950144466,-2.26,122.97,2025-05-14 14:37:33.305
1747201053.315,22.374356410401678,36.088415812135295,-11.860396153192454,26.84841581213529,61.100099144524386,-47.33465341906974,186.38782179479918,106.65524743640587,165.7508914509093,-155.6940594017336,-2.26,122.97,2025-05-14 14:37:33.315
1747201053.325,22.36841581213529,36.08148511415784,-11.887128845391196,26.841485114157837,61.13178233527845,-47.32376232224803,186.39079209393236,106.63445534247352,165.83604002606086,-155.69306930202254,-2.26,122.97,2025-05-14 14:37:33.325
1747201053.335,22.362475213868905,36.07455441618039,-11.913861537589938,26.834554416180385,61.16346552603252,-47.31287122542632,186.39376239306554,106.61366324854116,165.9211886012124,-155.69207920231148,-2.26,122.97,2025-05-14 14:37:33.335
1747201053.345,22.356534615602516,36.06762371820294,-11.940594229788681,26.827623718202936,61.19514871678658,-47.30198012860461,186.39673269219875,106.5928711546088,166.00633717636393,-155.69108910260042,-2.26,122.97,2025-05-14 14:37:33.345
1747201053.355,22.350594017336128,36.060693020225486,-11.967326921987423,26.820693020225484,61.22683190754065,-47.2910890317829,186.39970299133194,106.57207906067644,166.09148575151548,-155.69009900288935,-2.26,122.97,2025-05-14 14:37:33.355
1747201053.356,22.35,36.06,-11.97,26.82,61.23,-47.29,186.4,106.57,166.1,-155.69,-2.26,122.97,2025-05-14 14:37:33.356
1747201053.366,22.34705882627934,36.05705882627934,-11.98176469488265,26.816078435039117,61.24470586860331,-47.2850980437989,186.40098039124024,106.56117647883801,166.13725486712838,-155.68901960875976,-2.26,122.97,2025-05-14 14:37:33.366
1747201053.376,22.344117652558676,36.05411765255868,-11.993529389765298,26.812156870078233,61.25941173720662,-47.280196087597794,186.40196078248044,106.55235295767602,166.17450973425676,-155.68803921751956,-2.26,122.97,2025-05-14 14:37:33.376
1747201053.386,22.341176478838015,36.051176478838016,-12.005294084647947,26.80823530511735,61.274117605809934,-47.27529413139669,186.40294117372068,106.54352943651404,166.21176460138517,-155.68705882627933,-2.26,122.97,2025-05-14 14:37:33.386
1747201053.396,22.33823530511735,36.04823530511735,-12.017058779530597,26.80431374015647,61.28882347441324,-47.27039217519558,186.40392156496088,106.53470591535205,166.24901946851355,-155.68607843503912,-2.26,122.97,2025-05-14 14:37:33.396
1747201053.406,22.33529413139669,36.04529413139669,-12.028823474413246,26.800392175195586,61.30352934301656,-47.26549021899448,186.40490195620112,106.52588239419006,166.28627433564193,-155.6850980437989,-2.26,122.97,2025-05-14 14:37:33.406
1747201053.416,22.332352957676026,36.04235295767603,-12.040588169295894,26.796470610234703,61.318235211619864,-47.26058826279338,186.40588234744132,106.51705887302808,166.32352920277032,-155.68411765255868,-2.26,122.97,2025-05-14 14:37:33.416
1747201053.426,22.32941171383225,36.03941171383225,-12.052353144670994,26.792548951776336,61.332941430838744,-47.25568618972042,186.4068627620559,106.50823514149675,166.3607849581248,-155.6831372379441,-2.26,122.97,2025-05-14 14:37:33.426
1747201053.436,22.32647054011159,36.036470540111594,-12.064117839553644,26.788627386815453,61.34764729944205,-47.25078423351932,186.40784315329614,106.49941162033477,166.3980398252532,-155.68215684670386,-2.26,122.97,2025-05-14 14:37:33.436
1747201053.446,22.32352936639093,36.03352936639093,-12.075882534436293,26.78470582185457,61.36235316804537,-47.245882277318216,186.40882354453635,106.49058809917278,166.43529469238158,-155.68117645546366,-2.26,122.97,2025-05-14 14:37:33.446
1747201053.456,22.320588192670265,36.030588192670265,-12.087647229318941,26.78078425689369,61.37705903664868,-47.24098032111711,186.40980393577658,106.4817645780108,166.47254955950996,-155.68019606422342,-2.26,122.97,2025-05-14 14:37:33.456
1747201053.458,22.32,36.03,-12.09,26.78,61.38,-47.24,186.41,106.48,166.48,-155.68,-2.26,122.97,2025-05-14 14:37:33.458
1747201053.468,22.315098043798898,36.02313726131845,-12.113529389765297,26.774117652558676,61.408431345966406,-47.2301960875978,186.41196078248043,106.46235295767603,166.55450973425675,-155.68,-2.26,122.96901960875978,2025-05-14 14:37:33.468
1747201053.478,22.31019608759779,36.01627452263691,-12.137058779530596,26.76823530511735,61.4368626919328,-47.220392175195585,186.41392156496087,106.44470591535206,166.62901946851355,-155.68,-2.26,122.96803921751956,2025-05-14 14:37:33.478
1747201053.488,22.30529413139669,36.009411783955365,-12.160588169295893,26.762352957676026,61.465294037899206,-47.21058826279338,186.4158823474413,106.42705887302809,166.7035292027703,-155.68,-2.26,122.96705882627934,2025-05-14 14:37:33.488
1747201053.498,22.300392175195586,36.00254904527382,-12.184117559061193,26.756470610234704,61.49372538386561,-47.200784350391174,186.41784312992178,106.4094118307041,166.7780389370271,-155.68,-2.26,122.96607843503911,2025-05-14 14:37:33.498
1747201053.508,22.29549021899448,35.995686306592276,-12.20764694882649,26.75058826279338,61.52215672983201,-47.19098043798896,186.41980391240222,106.39176478838013,166.85254867128387,-155.68,-2.26,122.96509804379889,2025-05-14 14:37:33.508
1747201053.518,22.290588262793378,35.98882356791073,-12.231176338591787,26.744705915352053,61.55058807579841,-47.18117652558676,186.42176469488265,106.37411774605616,166.92705840554066,-155.68,-2.26,122.96411765255867,2025-05-14 14:37:33.518
1747201053.528,22.28568618972042,35.98196066560859,-12.254706289341987,26.738823427664503,61.57902009962157,-47.17137237944084,186.42372552411183,106.35647028299351,167.00156991624962,-155.68,-2.26,122.96313723794408,2025-05-14 14:37:33.528
1747201053.538,22.280784233519316,35.97509792692704,-12.278235679107286,26.732941080223178,61.60745144558797,-47.161568467038634,186.42568630659227,106.33882324066954,167.07607965050641,-155.68,-2.26,122.96215684670386,2025-05-14 14:37:33.538
1747201053.548,22.27588227731821,35.968235188245494,-12.301765068872584,26.727058732781853,61.63588279155437,-47.15176455463642,186.4276470890727,106.32117619834555,167.15058938476318,-155.68,-2.26,122.96117645546364,2025-05-14 14:37:33.548
1747201053.558,22.270980321117108,35.96137244956395,-12.325294458637883,26.721176385340527,61.664314137520776,-47.14196064223422,186.42960787155317,106.30352915602158,167.22509911901997,-155.68,-2.26,122.96019606422341,2025-05-14 14:37:33.558
1747201053.56,22.27,35.96,-12.33,26.72,61.67,-47.14,186.43,106.3,167.24,-155.68,-2.26,122.96,2025-05-14 14:37:33.560
1747201053.57,22.26600000953673,35.955000011920916,-12.347999957084717,26.71500001192091,61.69199994754799,-47.13300001668928,186.43199999523165,106.28600003337856,167.29699986410162,-155.67900000238419,-2.26,122.96,2025-05-14 14:37:33.570
1747201053.58,22.262000019073458,35.950000023841824,-12.365999914169434,26.710000023841822,61.713999895095974,-47.12600003337855,186.43399999046326,106.2720000667571,167.3539997282032,-155.67800000476836,-2.26,122.96,2025-05-14 14:37:33.580
1747201053.59,22.258000028610187,35.94500003576273,-12.38399987125415,26.705000035762737,61.73599984264396,-47.11900005006783,186.4359999856949,106.25800010013566,167.41099959230482,-155.67700000715254,-2.26,122.96,2025-05-14 14:37:33.590
1747201053.6,22.254000038146916,35.94000004768365,-12.401999828338868,26.70000004768365,61.75799979019195,-47.112000066757105,186.43799998092655,106.2440001335142,167.46799945640643,-155.67600000953672,-2.26,122.96,2025-05-14 14:37:33.600
1747201053.61,22.25000004768365,35.93500005960456,-12.419999785423586,26.69500005960456,61.77999973773994,-47.105000083446384,186.43999997615816,106.23000016689276,167.52499932050802,-155.6750000119209,-2.26,122.96,2025-05-14 14:37:33.610
1747201053.62,22.246000057220378,35.93000007152547,-12.437999742508303,26.69000007152547,61.801999685287925,-47.09800010013566,186.4419999713898,106.21600020027131,167.58199918460963,-155.67400001430508,-2.26,122.96,2025-05-14 14:37:33.620
1747201053.63,22.241999971389813,35.92499996423726,-12.456000128745849,26.684999964237264,61.82400015735604,-47.09099994993217,186.4440000143051,106.20199989986433,167.6390004076952,-155.67299999284745,-2.26,122.96,2025-05-14 14:37:33.630
1747201053.64,22.237999980926542,35.919999976158174,-12.474000085830566,26.67999997615818,61.84600010490403,-47.08399996662145,186.44600000953673,106.18799993324289,167.6960002717968,-155.67199999523163,-2.26,122.96,2025-05-14 14:37:33.640
1747201053.65,22.23399999046327,35.91499998807909,-12.492000042915283,26.67499998807909,61.86800005245201,-47.07699998331072,186.44800000476835,106.17399996662144,167.7530001358984,-155.6709999976158,-2.26,122.96,2025-05-14 14:37:33.650
1747201053.66,22.23,35.91,-12.51,26.67,61.89,-47.07,186.45,106.16,167.81,-155.67,-2.26,122.96,2025-05-14 14:37:33.660
1747201053.66,22.23,35.91,-12.51,26.67,61.89,-47.07,186.45,106.16,167.81,-155.67,-2.26,122.96,2025-05-14 14:37:33.660
1747201053.67,22.2284126990134,35.9076190485201,-12.519523805919595,26.667619048520102,61.90190475739949,-47.0660317475335,186.45,106.152063495067,167.8409523692387,-155.67,-2.26,122.96,2025-05-14 14:37:33.670
1747201053.68,22.2268253980268,35.9052380970402,-12.529047611839193,26.665238097040202,61.91380951479899,-47.062063495067,186.45,106.144126990134,167.87190473847738,-155.67,-2.26,122.96,2025-05-14 14:37:33.680
1747201053.69,22.2252380970402,35.902857145560304,-12.538571417758789,26.662857145560306,61.92571427219848,-47.05809524260051,186.45,106.13619048520101,167.90285710771607,-155.67,-2.26,122.96,2025-05-14 14:37:33.690
1747201053.7,22.223650796053604,35.900476194080404,-12.548095223678384,26.660476194080406,61.93761902959798,-47.05412699013401,186.45,106.12825398026801,167.93380947695474,-155.67,-2.26,122.96,2025-05-14 14:37:33.700
1747201053.71,22.222063495067005,35.898095242600505,-12.55761902959798,26.658095242600506,61.949523786997474,-47.05015873766751,186.45,106.12031747533501,167.96476184619343,-155.67,-2.26,122.96,2025-05-14 14:37:33.710
1747201053.72,22.220476194080405,35.895714291120605,-12.567142835517577,26.655714291120606,61.96142854439697,-47.04619048520101,186.45,106.11238097040201,167.99571421543212,-155.67,-2.26,122.96,2025-05-14 14:37:33.720
1747201053.73,22.218888893093805,35.893333339640705,-12.576666641437173,26.653333339640707,61.973333301796465,-47.04222223273451,186.45,106.10444446546902,168.0266665846708,-155.67,-2.26,122.96,2025-05-14 14:37:33.730
1747201053.74,22.217301592107205,35.890952388160805,-12.586190447356769,26.65095238816081,61.985238059195964,-47.03825398026802,186.45,106.09650796053603,168.0576189539095,-155.67,-2.26,122.96,2025-05-14 14:37:33.740
1747201053.75,22.215714291120605,35.88857143668091,-12.595714253276366,26.64857143668091,61.997142816595456,-47.03428572780152,186.45,106.08857145560303,168.0885713231482,-155.67,-2.26,122.96,2025-05-14 14:37:33.750
1747201053.76,22.21412699013401,35.88619048520101,-12.605238059195962,26.64619048520101,62.00904757399495,-47.03031747533502,186.45,106.08063495067003,168.11952369238688,-155.67,-2.26,122.96,2025-05-14 14:37:33.760
1747201053.77,22.21253968914741,35.88380953372111,-12.614761865115558,26.64380953372111,62.02095233139445,-47.02634922286852,186.45,106.07269844573703,168.15047606162554,-155.67,-2.26,122.96,2025-05-14 14:37:33.770
1747201053.78,22.21095238816081,35.88142858224121,-12.624285671035155,26.64142858224121,62.03285708879394,-47.022380970402025,186.45,106.06476194080405,168.18142843086423,-155.67,-2.26,122.96,2025-05-14 14:37:33.780
1747201053.786,22.21,35.88,-12.63,26.64,62.04,-47.02,186.45,106.06,168.2,-155.67,-2.26,122.96,2025-05-14 14:37:33.786
1747201053.796,22.204117652558676,35.872156870078236,-12.65647056348596,26.633137261318456,62.072352910927286,-47.00823530511735,186.45196078248043,106.03941178395536,168.28431364665897,-155.66901960875975,-2.26,122.95901960875977,2025-05-14 14:37:33.796
1747201053.806,22.19823530511735,35.86431374015647,-12.68294112697192,26.62627452263691,62.104705821854566,-46.9964706102347,186.45392156496086,106.01882356791073,168.36862729331796,-155.66803921751955,-2.26,122.95803921751956,2025-05-14 14:37:33.806
1747201053.816,22.192352957676025,35.8564706102347,-12.70941169045788,26.619411783955364,62.13705873278185,-46.98470591535205,186.4558823474413,105.99823535186609,168.45294093997694,-155.66705882627932,-2.26,122.95705882627934,2025-05-14 14:37:33.816
1747201053.826,22.186470610234704,35.848627480312935,-12.735882253943842,26.61254904527382,62.16941164370914,-46.97294122046941,186.45784312992177,105.97764713582146,168.53725458663592,-155.6660784350391,-2.26,122.95607843503912,2025-05-14 14:37:33.826
1747201053.836,22.18058826279338,35.84078435039117,-12.762352817429802,26.605686306592276,62.20176455463642,-46.96117652558676,186.4598039124022,105.95705891977681,168.6215682332949,-155.66509804379888,-2.26,122.9550980437989,2025-05-14 14:37:33.836
1747201053.846,22.174705915352053,35.8329412204694,-12.788823380915762,26.598823567910728,62.234117465563706,-46.94941183070411,186.46176469488265,105.93647070373218,168.7058818799539,-155.66411765255867,-2.26,122.95411765255868,2025-05-14 14:37:33.846
1747201053.856,22.168823567910728,35.825098090547634,-12.815293944401722,26.591960829229183,62.26647037649099,-46.93764713582146,186.46372547736308,105.91588248768754,168.79019552661288,-155.66313726131844,-2.26,122.95313726131846,2025-05-14 14:37:33.856
1747201053.866,22.162941220469403,35.81725496062587,-12.841764507887682,26.58509809054764,62.29882328741827,-46.92588244093881,186.46568625984352,105.89529427164291,168.87450917327186,-155.66215687007823,-2.26,122.95215687007824,2025-05-14 14:37:33.866
1747201053.876,22.157058873028078,35.80941183070411,-12.868235071373642,26.578235351866095,62.33117619834556,-46.91411774605616,186.46764704232396,105.87470605559827,168.95882281993087,-155.661176478838,-2.26,122.95117647883802,2025-05-14 14:37:33.876
1747201053.886,22.151176525586752,35.80156870078234,-12.894705634859601,26.571372613184547,62.36352910927285,-46.902353051173506,186.46960782480443,105.85411783955364,169.04313646658986,-155.6601960875978,-2.26,122.95019608759779,2025-05-14 14:37:33.886
1747201053.888,22.15,35.8,-12.9,26.57,62.37,-46.9,186.47,105.85,169.06,-155.66,-2.26,122.95,2025-05-14 14:37:33.888
1747201053.898,22.145049513130715,35.795049513130714,-12.92079204485099,26.564059415756862,62.394752434346415,-46.89207922100915,186.47099009737386,105.83316834464443,169.12534642667453,-155.66,-2.2590099026261434,122.95,2025-05-14 14:37:33.898
1747201053.908,22.14009902626143,35.79009902626143,-12.941584089701976,26.55811883151372,62.419504868692826,-46.8841584420183,186.47198019474772,105.81633668928887,169.19069285334908,-155.66,-2.2580198052522866,122.95,2025-05-14 14:37:33.908
1747201053.918,22.13514853939215,35.78514853939215,-12.962376134552965,26.552178247270582,62.444257303039244,-46.87623766302744,186.47297029212157,105.79950503393331,169.2560392800236,-155.66,-2.2570297078784303,122.95,2025-05-14 14:37:33.918
1747201053.928,22.130198052522868,35.78019805252286,-12.983168179403954,26.546237663027444,62.469009737385655,-46.86831688403659,186.47396038949543,105.78267337857775,169.32138570669815,-155.66,-2.2560396105045735,122.95,2025-05-14 14:37:33.928
1747201053.938,22.125247565653584,35.775247565653586,-13.003960224254943,26.540297078784302,62.49376217173207,-46.86039610504574,186.4749504868693,105.7658417232222,169.38673213337267,-155.66,-2.255049513130717,122.95,2025-05-14 14:37:33.938
1747201053.948,22.1202970787843,35.7702970787843,-13.024752269105932,26.534356494541164,62.51851460607849,-46.852475326054886,186.47594058424312,105.74901006786664,169.4520785600472,-155.66,-2.2540594157568603,122.95,2025-05-14 14:37:33.948
1747201053.958,22.11534659191502,35.76534659191502,-13.045544313956919,26.528415910298023,62.5432670404249,-46.84455454706403,186.47693068161698,105.73217841251108,169.51742498672175,-155.66,-2.253069318383004,122.95,2025-05-14 14:37:33.958
1747201053.968,22.110396105045737,35.760396105045736,-13.066336358807908,26.522475326054884,62.56801947477132,-46.83663376807318,186.47792077899084,105.7153467571555,169.58277141339627,-155.66,-2.252079221009147,122.95,2025-05-14 14:37:33.968
1747201053.978,22.105445618176454,35.75544561817645,-13.087128403658896,26.516534741811746,62.59277190911773,-46.82871298908233,186.4789108763647,105.69851510179994,169.64811784007082,-155.66,-2.251089123635291,122.95,2025-05-14 14:37:33.978
1747201053.988,22.10049513130717,35.75049513130717,-13.107920448509883,26.510594157568605,62.61752434346415,-46.820792210091476,186.47990097373855,105.68168344644438,169.71346426674535,-155.66,-2.250099026261434,122.95,2025-05-14 14:37:33.988
1747201053.989,22.1,35.75,-13.11,26.51,62.62,-46.82,186.48,105.68,169.72,-155.66,-2.25,122.95,2025-05-14 14:37:33.989
1747201053.999,22.09727273022833,35.74590909534249,-13.123636348858353,26.50636364030444,62.63681816359197,-46.81409091549472,186.48045454496193,105.66909092091332,169.76363631634672,-155.65954545503806,-2.25,122.95,2025-05-14 14:37:33.999
1747201054.009,22.094545460456658,35.74181819068499,-13.137272697716709,26.50272728060888,62.65363632718394,-46.808181830989426,186.48090908992387,105.65818184182663,169.80727263269347,-155.65909091007612,-2.25,122.95,2025-05-14 14:37:34.009
1747201054.019,22.09181819068499,35.73772728602748,-13.150909046575062,26.499090920913318,62.67045449077591,-46.80227274648414,186.48136363488584,105.64727276273996,169.8509089490402,-155.65863636511415,-2.25,122.95,2025-05-14 14:37:34.019
1747201054.029,22.089090920913318,35.733636381369976,-13.164545395433418,26.495454561217755,62.68727265436788,-46.79636366197885,186.48181817984778,105.63636368365327,169.89454526538694,-155.6581818201522,-2.25,122.95,2025-05-14 14:37:34.029
1747201054.039,22.086363651141646,35.72954547671247,-13.178181744291772,26.491818201522197,62.70409081795985,-46.79045457747357,186.48227272480972,105.62545460456658,169.93818158173366,-155.65772727519027,-2.25,122.95,2025-05-14 14:37:34.039
1747201054.049,22.083636381369974,35.725454572054964,-13.191818093150127,26.488181841826634,62.72090898155182,-46.78454549296828,186.48272726977166,105.6145455254799,169.9818178980804,-155.65727273022833,-2.25,122.95,2025-05-14 14:37:34.049
1747201054.059,22.080909111598306,35.721363667397455,-13.205454442008481,26.48454548213107,62.73772714514379,-46.778636408462994,186.4831818147336,105.60363644639322,170.02545421442713,-155.6568181852664,-2.25,122.95,2025-05-14 14:37:34.059
1747201054.069,22.078181841826634,35.717272762739945,-13.219090790866835,26.480909122435513,62.754545308735764,-46.7727273239577,186.48363635969557,105.59272736730654,170.06909053077388,-155.65636364030445,-2.25,122.95,2025-05-14 14:37:34.069
1747201054.079,22.075454572054962,35.71318185808244,-13.23272713972519,26.47727276273995,62.771363472327735,-46.76681823945242,186.4840909046575,105.58181828821985,170.1127268471206,-155.65590909534248,-2.25,122.95,2025-05-14 14:37:34.079
1747201054.089,22.07272730228329,35.70909095342493,-13.246363488583544,26.473636403044388,62.788181635919706,-46.76090915494713,186.48454544961945,105.57090920913316,170.15636316346735,-155.65545455038054,-2.25,122.95,2025-05-14 14:37:34.089
1747201054.099,22.070000032511622,35.70500004876743,-13.2599998374419,26.47000004334883,62.80499979951168,-46.755000070441845,186.4849999945814,105.56000013004649,170.19999947981407,-155.6550000054186,-2.25,122.95,2025-05-14 14:37:34.099
1747201054.109,22.06727276273995,35.70090914410992,-13.273636186300253,26.466363683653267,62.82181796310365,-46.749090985936554,186.48545453954335,105.5490910509598,170.24363579616082,-155.65454546045666,-2.25,122.95,2025-05-14 14:37:34.109
1747201054.119,22.06454549296828,35.69681823945241,-13.287272535158607,26.462727323957704,62.83863612669562,-46.74318190143127,186.4859090845053,105.53818197187312,170.28727211250754,-155.65409091549472,-2.25,122.95,2025-05-14 14:37:34.119
1747201054.129,22.061818223196607,35.69272733479491,-13.300908884016962,26.459090964262145,62.85545429028759,-46.73727281692598,186.48636362946723,105.52727289278643,170.3309084288543,-155.65363637053278,-2.25,122.95,2025-05-14 14:37:34.129
1747201054.139,22.059090953424935,35.6886364301374,-13.314545232875316,26.455454604566583,62.87227245387956,-46.7313637324207,186.48681817442917,105.51636381369974,170.374544745201,-155.6531818255708,-2.25,122.95,2025-05-14 14:37:34.139
1747201054.149,22.056363683653267,35.6845455254799,-13.328181581733672,26.45181824487102,62.88909061747153,-46.725454647915406,186.48727271939111,105.50545473461307,170.41818106154776,-155.65272728060887,-2.25,122.95,2025-05-14 14:37:34.149
1747201054.159,22.053636413881595,35.68045462082239,-13.341817930592025,26.448181885175458,62.9059087810635,-46.71954556341012,186.48772726435308,105.49454565552638,170.46181737789448,-155.65227273564693,-2.25,122.95,2025-05-14 14:37:34.159
1747201054.169,22.050909144109923,35.676363716164886,-13.355454279450381,26.4445455254799,62.92272694465547,-46.71363647890483,186.48818180931502,105.4836365764397,170.50545369424123,-155.651818190685,-2.25,122.95,2025-05-14 14:37:34.169
1747201054.179,22.04818187433825,35.672272811507376,-13.369090628308735,26.440909165784337,62.939545108247444,-46.70772739439955,186.48863635427696,105.472727497353,170.54909001058795,-155.65136364572305,-2.25,122.95,2025-05-14 14:37:34.179
1747201054.189,22.045454604566583,35.66818190684987,-13.382726977167088,26.437272806088775,62.956363271839415,-46.70181830989426,186.4890908992389,105.46181841826633,170.5927263269347,-155.6509091007611,-2.25,122.95,2025-05-14 14:37:34.189
1747201054.199,22.04272733479491,35.664091002192364,-13.396363326025444,26.433636446393216,62.973181435431385,-46.695909225388974,186.48954544420084,105.45090933917965,170.63636264328142,-155.65045455579914,-2.25,122.95,2025-05-14 14:37:34.199
1747201054.209,22.04,35.66,-13.41,26.43,62.99,-46.69,186.49,105.44,170.68,-155.65,-2.25,122.95,2025-05-14 14:37:34.209
1747201054.209,22.04,35.66,-13.41,26.43,62.99,-46.69,186.49,105.44,170.68,-155.65,-2.25,122.95,2025-05-14 14:37:34.209
1747201054.219,22.03380531104153,35.652920355476034,-13.436548666964866,26.422920355476034,63.02274335592334,-46.67938053321405,186.4908849555655,105.41787611086261,170.76407077872207,-155.65,-2.25,122.9491150444345,2025-05-14 14:37:34.219
1747201054.229,22.027610622083063,35.645840710952065,-13.463097333929731,26.41584071095207,63.05548671184667,-46.668761066428104,186.491769911131,105.39575222172522,170.84814155744417,-155.65,-2.25,122.94823008886901,2025-05-14 14:37:34.229
1747201054.239,22.021415933124594,35.6387610664281,-13.489646000894599,26.408761066428106,63.088230067770006,-46.65814159964216,186.49265486669648,105.37362833258783,170.93221233616623,-155.65,-2.25,122.94734513330351,2025-05-14 14:37:34.239
1747201054.249,22.015221244166124,35.63168142190414,-13.516194667859464,26.401681421904144,63.12097342369334,-46.64752213285621,186.493539822262,105.35150444345044,171.0162831148883,-155.65,-2.25,122.94646017773802,2025-05-14 14:37:34.249
1747201054.259,22.009026555207654,35.62460177738018,-13.54274333482433,26.394601777380178,63.15371677961667,-46.63690266607027,186.49442477782748,105.32938055431306,171.1003538936104,-155.65,-2.25,122.94557522217252,2025-05-14 14:37:34.259
1747201054.269,22.00283186624919,35.61752213285621,-13.569292001789195,26.387522132856216,63.18646013554001,-46.62628319928432,186.495309733393,105.30725666517567,171.18442467233245,-155.65,-2.25,122.94469026660703,2025-05-14 14:37:34.269
1747201054.279,21.99663717729072,35.61044248833225,-13.595840668754063,26.38044248833225,63.21920349146334,-46.615663732498376,186.49619468895847,105.28513277603828,171.26849545105452,-155.65,-2.25,122.94380531104153,2025-05-14 14:37:34.279
1747201054.289,21.99044248833225,35.603362843808284,-13.622389335718928,26.373362843808287,63.25194684738668,-46.60504426571243,186.49707964452398,105.26300888690089,171.3525662297766,-155.65,-2.25,122.94292035547603,2025-05-14 14:37:34.289
1747201054.299,21.98424779937378,35.59628319928432,-13.648938002683794,26.36628319928432,63.284690203310014,-46.59442479892648,186.49796460008946,105.2408849977635,171.43663700849868,-155.65,-2.25,122.94203539991054,2025-05-14 14:37:34.299
1747201054.309,21.978053110415313,35.58920355476035,-13.67548666964866,26.35920355476036,63.31743355923334,-46.583805332140535,186.49884955565494,105.21876110862611,171.52070778722074,-155.65,-2.25,122.94115044434504,2025-05-14 14:37:34.309
1747201054.319,21.971858421456844,35.58212391023639,-13.702035336613527,26.352123910236394,63.35017691515668,-46.57318586535459,186.49973451122045,105.19663721948872,171.60477856594284,-155.65,-2.25,122.94026548877954,2025-05-14 14:37:34.319
1747201054.322,21.97,35.58,-13.71,26.35,63.36,-46.57,186.5,105.19,171.63,-155.65,-2.25,122.94,2025-05-14 14:37:34.322
1747201054.332,21.96840000152588,35.57760000228882,-13.719599990844728,26.347600002288818,63.371199989318846,-46.5660000038147,186.5,105.1820000076294,171.6603999710083,-155.65,-2.25,122.94,2025-05-14 14:37:34.332
1747201054.342,21.966800003051755,35.57520000457763,-13.729199981689455,26.345200004577638,63.38239997863769,-46.56200000762939,186.5,105.17400001525878,171.69079994201658,-155.65,-2.25,122.94,2025-05-14 14:37:34.342
1747201054.352,21.965200004577635,35.57280000686645,-13.73879997253418,26.342800006866455,63.39359996795654,-46.55800001144409,186.5,105.16600002288818,171.7211999130249,-155.65,-2.25,122.94,2025-05-14 14:37:34.352
1747201054.362,21.963600006103515,35.57040000915527,-13.748399963378906,26.340400009155275,63.404799957275394,-46.554000015258794,186.5,105.15800003051758,171.7515998840332,-155.65,-2.25,122.94,2025-05-14 14:37:34.362
1747201054.372,21.962000007629392,35.56800001144409,-13.757999954223633,26.33800001144409,63.41599994659424,-46.55000001907349,186.5,105.15000003814697,171.7819998550415,-155.65,-2.25,122.94,2025-05-14 14:37:34.372
1747201054.382,21.960400009155272,35.565600013732904,-13.76759994506836,26.33560001373291,63.42719993591309,-46.54600002288819,186.5,105.14200004577637,171.81239982604978,-155.65,-2.25,122.94,2025-05-14 14:37:34.382
1747201054.392,21.958800010681152,35.563200016021725,-13.777199935913087,26.333200016021728,63.438399925231934,-46.54200002670288,186.5,105.13400005340576,171.8427997970581,-155.65,-2.25,122.94,2025-05-14 14:37:34.392
1747201054.402,21.957200012207032,35.560800018310545,-13.786799926757812,26.330800018310548,63.44959991455078,-46.53800003051758,186.5,105.12600006103516,171.8731997680664,-155.65,-2.25,122.94,2025-05-14 14:37:34.402
1747201054.412,21.95560001373291,35.558400020599365,-13.796399917602539,26.328400020599364,63.46079990386963,-46.53400003433228,186.5,105.11800006866456,171.9035997390747,-155.65,-2.25,122.94,2025-05-14 14:37:34.412
1747201054.422,21.95400001525879,35.55600002288818,-13.805999908447266,26.326000022888184,63.471999893188475,-46.53000003814697,186.5,105.11000007629394,171.933999710083,-155.65,-2.25,122.94,2025-05-14 14:37:34.422
1747201054.432,21.95240001678467,35.553600025177,-13.815599899291993,26.323600025177,63.48319988250732,-46.52600004196167,186.5,105.10200008392334,171.9643996810913,-155.65,-2.25,122.94,2025-05-14 14:37:34.432
1747201054.442,21.950800018310545,35.55120002746582,-13.82519989013672,26.32120002746582,63.494399871826175,-46.52200004577637,186.5,105.09400009155274,171.9947996520996,-155.65,-2.25,122.94,2025-05-14 14:37:34.442
1747201054.447,21.95,35.55,-13.83,26.32,63.5,-46.52,186.5,105.09,172.01,-155.65,-2.25,122.94,2025-05-14 14:37:34.447
1747201054.457,21.94459459981925,35.543243249774065,-13.854324300813362,26.313243249774068,63.52972970099411,-46.509864874661105,186.5,105.0697297493222,172.08702695257563,-155.65,-2.2493243249774064,122.94,2025-05-14 14:37:34.457
1747201054.467,21.939189199638506,35.53648649954813,-13.878648601626724,26.306486499548132,63.55945940198822,-46.4997297493222,186.5,105.0494594986444,172.1640539051513,-155.65,-2.2486486499548133,122.94,2025-05-14 14:37:34.467
1747201054.477,21.933783799457757,35.52972974932219,-13.902972902440085,26.2997297493222,63.589189102982324,-46.4895946239833,186.5,105.0291892479666,172.24108085772693,-155.65,-2.2479729749322197,122.94,2025-05-14 14:37:34.477
1747201054.487,21.928378399277012,35.52297299909626,-13.927297203253447,26.292972999096264,63.618918803976435,-46.479459498644395,186.5,105.0089189972888,172.31810781030256,-155.65,-2.2472972999096266,122.94,2025-05-14 14:37:34.487
1747201054.497,21.922972999096263,35.51621624887033,-13.951621504066809,26.286216248870332,63.648648504970545,-46.4693243733055,186.5,104.98864874661099,172.39513476287823,-155.65,-2.246621624887033,122.94,2025-05-14 14:37:34.497
1747201054.507,21.917567598915518,35.5094594986444,-13.97594580488017,26.279459498644396,63.67837820596465,-46.4591892479666,186.5,104.9683784959332,172.47216171545386,-155.65,-2.24594594986444,122.94,2025-05-14 14:37:34.507
1747201054.517,21.91216219873477,35.502702748418464,-14.000270105693533,26.272702748418464,63.70810790695876,-46.44905412262769,186.5,104.9481082452554,172.54918866802953,-155.65,-2.2452702748418463,122.94,2025-05-14 14:37:34.517
1747201054.527,21.906756798554024,35.49594599819253,-14.024594406506894,26.265945998192528,63.73783760795287,-46.438918997288795,186.5,104.92783799457759,172.62621562060517,-155.65,-2.244594599819253,122.94,2025-05-14 14:37:34.527
1747201054.537,21.901351398373276,35.48918924796659,-14.048918707320256,26.259189247966596,63.76756730894698,-46.428783871949896,186.5,104.90756774389979,172.7032425731808,-155.65,-2.2439189247966596,122.94,2025-05-14 14:37:34.537
1747201054.547,21.89594599819253,35.48243249774066,-14.073243008133618,26.25243249774066,63.79729700994109,-46.41864874661099,186.5,104.887297493222,172.78026952575647,-155.65,-2.2432432497740664,122.94,2025-05-14 14:37:34.547
1747201054.557,21.890540598011782,35.47567574751473,-14.09756730894698,26.245675747514728,63.82702671093519,-46.40851362127209,186.5,104.8670272425442,172.8572964783321,-155.65,-2.242567574751473,122.94,2025-05-14 14:37:34.557
1747201054.567,21.885135197831037,35.468918997288796,-14.12189160976034,26.238918997288792,63.856756411929304,-46.39837849593319,186.5,104.84675699186639,172.93432343090774,-155.65,-2.2418918997288797,122.94,2025-05-14 14:37:34.567
1747201054.577,21.87972979765029,35.462162247062864,-14.146215910573702,26.23216224706286,63.886486112923414,-46.38824337059429,186.5,104.82648674118859,173.0113503834834,-155.65,-2.241216224706286,122.94,2025-05-14 14:37:34.577
1747201054.587,21.874324397469543,35.45540549683693,-14.170540211387063,26.225405496836924,63.91621581391752,-46.37810824525539,186.5,104.80621649051079,173.08837733605904,-155.65,-2.240540549683693,122.94,2025-05-14 14:37:34.587
1747201054.595,21.87,35.45,-14.19,26.22,63.94,-46.37,186.5,104.79,173.15,-155.65,-2.24,122.94,2025-05-14 14:37:34.595
1747201054.605,21.867478993111906,35.446638657482545,-14.202605034440477,26.216638657482537,63.95596637695794,-46.364117650594444,186.49915966437064,104.77907563681826,173.19033611020953,-155.65,-2.24,122.94,2025-05-14 14:37:34.605
1747201054.615,21.86495798622381,35.44327731496508,-14.215210068880955,26.213277314965076,63.97193275391587,-46.358235301188884,186.49831932874127,104.7681512736365,173.23067222041905,-155.65,-2.24,122.94,2025-05-14 14:37:34.615
1747201054.625,21.862436979335715,35.43991597244762,-14.227815103321433,26.209915972447618,63.987899130873814,-46.35235295178333,186.4974789931119,104.75722691045476,173.27100833062858,-155.65,-2.24,122.94,2025-05-14 14:37:34.625
