Najongs/2025_ICRA_Multi_View_Robot_Pose_Estimation/dataset/Fr5/Fr5_7th_250526/matched_index.csv
img.path,img.serial,img.view,img.ts,joint.path,joint.ts,abs_dt,joint.0,joint.1,joint.2,joint.3,joint.4,joint.5
/home/najo/NAS/DIP/datasets/Fr5_intertek_dataset/Fr5_intertek_7th_250526/right/zed_34850673_left_1748249364.797.jpg,34850673,left,1748249364.797,/home/najo/NAS/DIP/datasets/Fr5_intertek_dataset/Fr5_intertek_7th_250526/joint/joint_34850673_1748249364.797.json,1748249364.797,0.0,10.14984433013614,-74.59521000928218,75.4047174737005,-90.80798460705445,-90.0,100.1548480043317
/home/najo/NAS/DIP/datasets/Fr5_intertek_dataset/Fr5_intertek_7th_250526/right/zed_34850673_right_1748249364.797.jpg,34850673,right,1748249364.797,/home/najo/NAS/DIP/datasets/Fr5_intertek_dataset/Fr5_intertek_7th_250526/joint/joint_34850673_1748249364.797.json,1748249364.797,0.0,10.14984433013614,-74.59521000928218,75.4047174737005,-90.80798460705445,-90.0,100.1548480043317
/home/najo/NAS/DIP/datasets/Fr5_intertek_dataset/Fr5_intertek_7th_250526/left/zed_38007749_right_1748249364.809.jpg,38007749,right,1748249364.809,/home/najo/NAS/DIP/datasets/Fr5_intertek_dataset/Fr5_intertek_7th_250526/joint/joint_38007749_1748249364.809.json,1748249364.809,0.0,10.20379699102722,-74.5949924582302,75.4044999226485,-90.80776705600248,-90.00043510210396,100.2085831141708
/home/najo/NAS/DIP/datasets/Fr5_intertek_dataset/Fr5_intertek_7th_250526/left/zed_38007749_left_1748249364.809.jpg,38007749,left,1748249364.809,/home/najo/NAS/DIP/datasets/Fr5_intertek_dataset/Fr5_intertek_7th_250526/joint/joint_38007749_1748249364.809.json,1748249364.809,0.0,10.20379699102722,-74.5949924582302,75.4044999226485,-90.80776705600248,-90.00043510210396,100.2085831141708
/home/najo/NAS/DIP/datasets/Fr5_intertek_dataset/Fr5_intertek_7th_250526/top/zed_30779426_left_1748249364.821.jpg,30779426,left,1748249364.821,/home/najo/NAS/DIP/datasets/Fr5_intertek_dataset/Fr5_intertek_7th_250526/joint/joint_30779426_1748249364.821.json,1748249364.821,0.0,10.40350885674505,-74.5936871519183,75.40275951423267,-90.8075495049505,-90.0,100.4093827351485
/home/najo/NAS/DIP/datasets/Fr5_intertek_dataset/Fr5_intertek_7th_250526/top/zed_30779426_right_1748249364.821.jpg,30779426,right,1748249364.821,/home/najo/NAS/DIP/datasets/Fr5_intertek_dataset/Fr5_intertek_7th_250526/joint/joint_30779426_1748249364.821.json,1748249364.821,0.0,10.40350885674505,-74.5936871519183,75.40275951423267,-90.8075495049505,-90.0,100.4093827351485
/home/najo/NAS/DIP/datasets/Fr5_intertek_dataset/Fr5_intertek_7th_250526/right/zed_34850673_left_1748249364.955.jpg,34850673,left,1748249364.955,/home/najo/NAS/DIP/datasets/Fr5_intertek_dataset/Fr5_intertek_7th_250526/joint/joint_34850673_1748249364.955.json,1748249364.955,0.0,12.71912225402227,-74.58041653774752,75.38448522586634,-90.80385113706683,-89.99934734684406,102.7169467435024
/home/najo/NAS/DIP/datasets/Fr5_intertek_dataset/Fr5_intertek_7th_250526/right/zed_34850673_right_1748249364.955.jpg,34850673,right,1748249364.955,/home/najo/NAS/DIP/datasets/Fr5_intertek_dataset/Fr5_intertek_7th_250526/joint/joint_34850673_1748249364.955.json,1748249364.955,0.0,12.71912225402227,-74.58041653774752,75.38448522586634,-90.80385113706683,-89.99934734684406,102.7169467435024
/home/najo/NAS/DIP/datasets/Fr5_intertek_dataset/Fr5_intertek_7th_250526/left/zed_38007749_right_1748249364.960.jpg,38007749,right,1748249364.96,/home/najo/NAS/DIP/datasets/Fr5_intertek_dataset/Fr5_intertek_7th_250526/joint/joint_38007749_1748249364.960.json,1748249364.96,0.0,12.70084796565594,-74.5806340887995,75.38448522586634,-90.80385113706683,-89.99912979579207,102.698454904084
/home/najo/NAS/DIP/datasets/Fr5_intertek_dataset/Fr5_intertek_7th_250526/left/zed_38007749_left_1748249364.960.jpg,38007749,left,1748249364.96,/home/najo/NAS/DIP/datasets/Fr5_intertek_dataset/Fr5_intertek_7th_250526/joint/joint_38007749_1748249364.960.json,1748249364.96,0.0,12.70084796565594,-74.5806340887995,75.38448522586634,-90.80385113706683,-89.99912979579207,102.698454904084
/home/najo/NAS/DIP/datasets/Fr5_intertek_dataset/Fr5_intertek_7th_250526/top/zed_30779426_right_1748249364.969.jpg,30779426,right,1748249364.969,/home/najo/NAS/DIP/datasets/Fr5_intertek_dataset/Fr5_intertek_7th_250526/joint/joint_30779426_1748249364.969.json,1748249364.969,0.0,12.87945737933168,-74.58019898669555,75.38296236850248,-90.80341603496286,-89.99956489789604,102.8796749303836
/home/najo/NAS/DIP/datasets/Fr5_intertek_dataset/Fr5_intertek_7th_250526/top/zed_30779426_left_1748249364.969.jpg,30779426,left,1748249364.969,/home/najo/NAS/DIP/datasets/Fr5_intertek_dataset/Fr5_intertek_7th_250526/joint/joint_30779426_1748249364.969.json,1748249364.969,0.0,12.87945737933168,-74.58019898669555,75.38296236850248,-90.80341603496286,-89.99956489789604,102.8796749303836
/home/najo/NAS/DIP/datasets/Fr5_intertek_dataset/Fr5_intertek_7th_250526/left/zed_38007749_left_1748249365.095.jpg,38007749,left,1748249365.095,/home/najo/NAS/DIP/datasets/Fr5_intertek_dataset/Fr5_intertek_7th_250526/joint/joint_38007749_1748249365.095.json,1748249365.095,0.0,15.1918075108292,-74.5651879641089,75.36425297803218,-90.7997176670792,-90.00021755105197,105.192895266089
/home/najo/NAS/DIP/datasets/Fr5_intertek_dataset/Fr5_intertek_7th_250526/left/zed_38007749_right_1748249365.095.jpg,38007749,right,1748249365.095,/home/najo/NAS/DIP/datasets/Fr5_intertek_dataset/Fr5_intertek_7th_250526/joint/joint_38007749_1748249365.095.json,1748249365.095,0.0,15.1918075108292,-74.5651879641089,75.36425297803218,-90.7997176670792,-90.00021755105197,105.192895266089
/home/najo/NAS/DIP/datasets/Fr5_intertek_dataset/Fr5_intertek_7th_250526/right/zed_34850673_left_1748249365.100.jpg,34850673,left,1748249365.1,/home/najo/NAS/DIP/datasets/Fr5_intertek_dataset/Fr5_intertek_7th_250526/joint/joint_38007749_1748249365.095.json,1748249365.095,0.004999876022338867,15.1918075108292,-74.5651879641089,75.36425297803218,-90.7997176670792,-90.00021755105197,105.192895266089
/home/najo/NAS/DIP/datasets/Fr5_intertek_dataset/Fr5_intertek_7th_250526/right/zed_34850673_right_1748249365.100.jpg,34850673,right,1748249365.1,/home/najo/NAS/DIP/datasets/Fr5_intertek_dataset/Fr5_intertek_7th_250526/joint/joint_38007749_1748249365.095.json,1748249365.095,0.004999876022338867,15.1918075108292,-74.5651879641089,75.36425297803218,-90.7997176670792,-90.00021755105197,105.192895266089
/home/najo/NAS/DIP/datasets/Fr5_intertek_dataset/Fr5_intertek_7th_250526/top/zed_30779426_right_1748249365.107.jpg,30779426,right,1748249365.107,/home/najo/NAS/DIP/datasets/Fr5_intertek_dataset/Fr5_intertek_7th_250526/joint/joint_30779426_1748249365.107.json,1748249365.107,0.0,15.4248046875,-74.56366510674505,75.3627301206683,-90.79906501392327,-90.00043510210396,105.4282855043317
/home/najo/NAS/DIP/datasets/Fr5_intertek_dataset/Fr5_intertek_7th_250526/top/zed_30779426_left_1748249365.107.jpg,30779426,left,1748249365.107,/home/najo/NAS/DIP/datasets/Fr5_intertek_dataset/Fr5_intertek_7th_250526/joint/joint_30779426_1748249365.107.json,1748249365.107,0.0,15.4248046875,-74.56366510674505,75.3627301206683,-90.79906501392327,-90.00043510210396,105.4282855043317
/home/najo/NAS/DIP/datasets/Fr5_intertek_dataset/Fr5_intertek_7th_250526/right/zed_34850673_left_1748249365.237.jpg,34850673,left,1748249365.237,/home/najo/NAS/DIP/datasets/Fr5_intertek_dataset/Fr5_intertek_7th_250526/joint/joint_34850673_1748249365.237.json,1748249365.237,0.0,17.72062093904703,-74.5486540841584,75.3453260365099,-90.79471399288364,-89.99934734684406,107.720185836943
/home/najo/NAS/DIP/datasets/Fr5_intertek_dataset/Fr5_intertek_7th_250526/right/zed_34850673_right_1748249365.237.jpg,34850673,right,1748249365.237,/home/najo/NAS/DIP/datasets/Fr5_intertek_dataset/Fr5_intertek_7th_250526/joint/joint_34850673_1748249365.237.json,1748249365.237,0.0,17.72062093904703,-74.5486540841584,75.3453260365099,-90.79471399288364,-89.99934734684406,107.720185836943
/home/najo/NAS/DIP/datasets/Fr5_intertek_dataset/Fr5_intertek_7th_250526/left/zed_38007749_left_1748249365.241.jpg,38007749,left,1748249365.241,/home/najo/NAS/DIP/datasets/Fr5_intertek_dataset/Fr5_intertek_7th_250526/joint/joint_34850673_1748249365.237.json,1748249365.237,0.003999948501586914,17.72062093904703,-74.5486540841584,75.3453260365099,-90.79471399288364,-89.99934734684406,107.720185836943
/home/najo/NAS/DIP/datasets/Fr5_intertek_dataset/Fr5_intertek_7th_250526/left/zed_38007749_right_1748249365.241.jpg,38007749,right,1748249365.241,/home/najo/NAS/DIP/datasets/Fr5_intertek_dataset/Fr5_intertek_7th_250526/joint/joint_34850673_1748249365.237.json,1748249365.237,0.003999948501586914,17.72062093904703,-74.5486540841584,75.3453260365099,-90.79471399288364,-89.99934734684406,107.720185836943
/home/najo/NAS/DIP/datasets/Fr5_intertek_dataset/Fr5_intertek_7th_250526/top/zed_30779426_left_1748249365.247.jpg,30779426,left,1748249365.247,/home/najo/NAS/DIP/datasets/Fr5_intertek_dataset/Fr5_intertek_7th_250526/joint/joint_30779426_1748249365.247.json,1748249365.247,0.0,17.9218556621287,-74.5475663288985,75.34380317914604,-90.79471399288364,-89.99956489789604,107.9196801516089
/home/najo/NAS/DIP/datasets/Fr5_intertek_dataset/Fr5_intertek_7th_250526/top/zed_30779426_right_1748249365.247.jpg,30779426,right,1748249365.247,/home/najo/NAS/DIP/datasets/Fr5_intertek_dataset/Fr5_intertek_7th_250526/joint/joint_30779426_1748249365.247.json,1748249365.247,0.0,17.9218556621287,-74.5475663288985,75.34380317914604,-90.79471399288364,-89.99956489789604,107.9196801516089
/home/najo/NAS/DIP/datasets/Fr5_intertek_dataset/Fr5_intertek_7th_250526/left/zed_38007749_left_1748249365.374.jpg,38007749,left,1748249365.374,/home/najo/NAS/DIP/datasets/Fr5_intertek_dataset/Fr5_intertek_7th_250526/joint/joint_38007749_1748249365.374.json,1748249365.374,0.0,19.85566696318069,-74.53755898050743,75.32792195235149,-90.79145072710396,-89.99912979579207,109.885036355198
/home/najo/NAS/DIP/datasets/Fr5_intertek_dataset/Fr5_intertek_7th_250526/left/zed_38007749_right_1748249365.374.jpg,38007749,right,1748249365.374,/home/najo/NAS/DIP/datasets/Fr5_intertek_dataset/Fr5_intertek_7th_250526/joint/joint_38007749_1748249365.374.json,1748249365.374,0.0,19.85566696318069,-74.53755898050743,75.32792195235149,-90.79145072710396,-89.99912979579207,109.885036355198
/home/najo/NAS/DIP/datasets/Fr5_intertek_dataset/Fr5_intertek_7th_250526/right/zed_34850673_left_1748249365.379.jpg,34850673,left,1748249365.379,/home/najo/NAS/DIP/datasets/Fr5_intertek_dataset/Fr5_intertek_7th_250526/joint/joint_34850673_1748249365.379.json,1748249365.379,0.0,19.87546410891089,-74.53755898050743,75.32748685024752,-90.79123317605197,-89.99912979579207,109.9076616646039
/home/najo/NAS/DIP/datasets/Fr5_intertek_dataset/Fr5_intertek_7th_250526/right/zed_34850673_right_1748249365.379.jpg,34850673,right,1748249365.379,/home/najo/NAS/DIP/datasets/Fr5_intertek_dataset/Fr5_intertek_7th_250526/joint/joint_34850673_1748249365.379.json,1748249365.379,0.0,19.87546410891089,-74.53755898050743,75.32748685024752,-90.79123317605197,-89.99912979579207,109.9076616646039
/home/najo/NAS/DIP/datasets/Fr5_intertek_dataset/Fr5_intertek_7th_250526/top/zed_30779426_right_1748249365.386.jpg,30779426,right,1748249365.386,/home/najo/NAS/DIP/datasets/Fr5_intertek_dataset/Fr5_intertek_7th_250526/joint/joint_30779426_1748249365.386.json,1748249365.386,0.0,19.9685759591584,-74.53603612314356,75.32683419709159,-90.79145072710396,-90.0019579594678,110.0025139232673
/home/najo/NAS/DIP/datasets/Fr5_intertek_dataset/Fr5_intertek_7th_250526/top/zed_30779426_left_1748249365.386.jpg,30779426,left,1748249365.386,/home/najo/NAS/DIP/datasets/Fr5_intertek_dataset/Fr5_intertek_7th_250526/joint/joint_30779426_1748249365.386.json,1748249365.386,0.0,19.9685759591584,-74.53603612314356,75.32683419709159,-90.79145072710396,-90.0019579594678,110.0025139232673
/home/najo/NAS/DIP/datasets/Fr5_intertek_dataset/Fr5_intertek_7th_250526/left/zed_38007749_left_1748249365.515.jpg,38007749,left,1748249365.515,/home/najo/NAS/DIP/datasets/Fr5_intertek_dataset/Fr5_intertek_7th_250526/joint/joint_38007749_1748249365.515.json,1748249365.515,0.0,20.75806872679455,-74.53103244894803,75.32074276763613,-90.79014542079207,-90.0,110.7687287283416
/home/najo/NAS/DIP/datasets/Fr5_intertek_dataset/Fr5_intertek_7th_250526/left/zed_38007749_right_1748249365.515.jpg,38007749,right,1748249365.515,/home/najo/NAS/DIP/datasets/Fr5_intertek_dataset/Fr5_intertek_7th_250526/joint/joint_38007749_1748249365.515.json,1748249365.515,0.0,20.75806872679455,-74.53103244894803,75.32074276763613,-90.79014542079207,-90.0,110.7687287283416
/home/najo/NAS/DIP/datasets/Fr5_intertek_dataset/Fr5_intertek_7th_250526/right/zed_34850673_left_1748249365.520.jpg,34850673,left,1748249365.52,/home/najo/NAS/DIP/datasets/Fr5_intertek_dataset/Fr5_intertek_7th_250526/joint/joint_34850673_1748249365.520.json,1748249365.52,0.0,20.76590056466584,-74.53103244894803,75.32074276763613,-90.79014542079207,-90.0,110.773949953589
/home/najo/NAS/DIP/datasets/Fr5_intertek_dataset/Fr5_intertek_7th_250526/right/zed_34850673_right_1748249365.520.jpg,34850673,right,1748249365.52,/home/najo/NAS/DIP/datasets/Fr5_intertek_dataset/Fr5_intertek_7th_250526/joint/joint_34850673_1748249365.520.json,1748249365.52,0.0,20.76590056466584,-74.53103244894803,75.32074276763613,-90.79014542079207,-90.0,110.773949953589
/home/najo/NAS/DIP/datasets/Fr5_intertek_dataset/Fr5_intertek_7th_250526/top/zed_30779426_left_1748249365.525.jpg,30779426,left,1748249365.525,/home/najo/NAS/DIP/datasets/Fr5_intertek_dataset/Fr5_intertek_7th_250526/joint/joint_30779426_1748249365.525.json,1748249365.525,0.0,20.77699566831683,-74.53103244894803,75.32052521658416,-90.79014542079207,-90.0,110.7798238319925
/home/najo/NAS/DIP/datasets/Fr5_intertek_dataset/Fr5_intertek_7th_250526/top/zed_30779426_right_1748249365.525.jpg,30779426,right,1748249365.525,/home/najo/NAS/DIP/datasets/Fr5_intertek_dataset/Fr5_intertek_7th_250526/joint/joint_30779426_1748249365.525.json,1748249365.525,0.0,20.77699566831683,-74.53103244894803,75.32052521658416,-90.79014542079207,-90.0,110.7798238319925
/home/najo/NAS/DIP/datasets/Fr5_intertek_dataset/Fr5_intertek_7th_250526/left/zed_38007749_left_1748249365.653.jpg,38007749,left,1748249365.653,/home/najo/NAS/DIP/datasets/Fr5_intertek_dataset/Fr5_intertek_7th_250526/joint/joint_38007749_1748249365.653.json,1748249365.653,0.0,20.83899771813119,-74.52602877475248,75.6934077196782,-91.16041731126238,-89.99978244894803,110.8255095529084
/home/najo/NAS/DIP/datasets/Fr5_intertek_dataset/Fr5_intertek_7th_250526/left/zed_38007749_right_1748249365.653.jpg,38007749,right,1748249365.653,/home/najo/NAS/DIP/datasets/Fr5_intertek_dataset/Fr5_intertek_7th_250526/joint/joint_38007749_1748249365.653.json,1748249365.653,0.0,20.83899771813119,-74.52602877475248,75.6934077196782,-91.16041731126238,-89.99978244894803,110.8255095529084
/home/najo/NAS/DIP/datasets/Fr5_intertek_dataset/Fr5_intertek_7th_250526/right/zed_34850673_left_1748249365.659.jpg,34850673,left,1748249365.659,/home/najo/NAS/DIP/datasets/Fr5_intertek_dataset/Fr5_intertek_7th_250526/joint/joint_34850673_1748249365.659.json,1748249365.659,0.0,20.84008547339109,-74.5258112237005,75.71907874381186,-91.18565323329207,-90.0,110.8257271039604
/home/najo/NAS/DIP/datasets/Fr5_intertek_dataset/Fr5_intertek_7th_250526/right/zed_34850673_right_1748249365.659.jpg,34850673,right,1748249365.659,/home/najo/NAS/DIP/datasets/Fr5_intertek_dataset/Fr5_intertek_7th_250526/joint/joint_34850673_1748249365.659.json,1748249365.659,0.0,20.84008547339109,-74.5258112237005,75.71907874381186,-91.18565323329207,-90.0,110.8257271039604
/home/najo/NAS/DIP/datasets/Fr5_intertek_dataset/Fr5_intertek_7th_250526/top/zed_30779426_right_1748249365.663.jpg,30779426,right,1748249365.663,/home/najo/NAS/DIP/datasets/Fr5_intertek_dataset/Fr5_intertek_7th_250526/joint/joint_30779426_1748249365.663.json,1748249365.663,0.0,20.84052057549505,-74.52515857054455,75.76693997524752,-91.2348197710396,-89.99956489789604,110.8259446550124
/home/najo/NAS/DIP/datasets/Fr5_intertek_dataset/Fr5_intertek_7th_250526/top/zed_30779426_left_1748249365.663.jpg,30779426,left,1748249365.663,/home/najo/NAS/DIP/datasets/Fr5_intertek_dataset/Fr5_intertek_7th_250526/joint/joint_30779426_1748249365.663.json,1748249365.663,0.0,20.84052057549505,-74.52515857054455,75.76693997524752,-91.2348197710396,-89.99956489789604,110.8259446550124
/home/najo/NAS/DIP/datasets/Fr5_intertek_dataset/Fr5_intertek_7th_250526/left/zed_38007749_left_1748249365.791.jpg,38007749,left,1748249365.791,/home/najo/NAS/DIP/datasets/Fr5_intertek_dataset/Fr5_intertek_7th_250526/joint/joint_38007749_1748249365.791.json,1748249365.791,0.0,20.82724996132425,-74.47381652227723,76.9987140315594,-92.52185179455445,-90.0,110.8244217976485
/home/najo/NAS/DIP/datasets/Fr5_intertek_dataset/Fr5_intertek_7th_250526/left/zed_38007749_right_1748249365.791.jpg,38007749,right,1748249365.791,/home/najo/NAS/DIP/datasets/Fr5_intertek_dataset/Fr5_intertek_7th_250526/joint/joint_38007749_1748249365.791.json,1748249365.791,0.0,20.82724996132425,-74.47381652227723,76.9987140315594,-92.52185179455445,-90.0,110.8244217976485
/home/najo/NAS/DIP/datasets/Fr5_intertek_dataset/Fr5_intertek_7th_250526/right/zed_34850673_left_1748249365.796.jpg,34850673,left,1748249365.796,/home/najo/NAS/DIP/datasets/Fr5_intertek_dataset/Fr5_intertek_7th_250526/joint/joint_34850673_1748249365.796.json,1748249365.796,0.0,20.82594465501237,-74.4718585628094,77.03091158725248,-92.55578975866337,-90.00065265315594,110.8242042465965
/home/najo/NAS/DIP/datasets/Fr5_intertek_dataset/Fr5_intertek_7th_250526/right/zed_34850673_right_1748249365.796.jpg,34850673,right,1748249365.796,/home/najo/NAS/DIP/datasets/Fr5_intertek_dataset/Fr5_intertek_7th_250526/joint/joint_34850673_1748249365.796.json,1748249365.796,0.0,20.82594465501237,-74.4718585628094,77.03091158725248,-92.55578975866337,-90.00065265315594,110.8242042465965
/home/najo/NAS/DIP/datasets/Fr5_intertek_dataset/Fr5_intertek_7th_250526/top/zed_30779426_right_1748249365.803.jpg,30779426,right,1748249365.803,/home/najo/NAS/DIP/datasets/Fr5_intertek_dataset/Fr5_intertek_7th_250526/joint/joint_30779426_1748249365.803.json,1748249365.803,0.0,20.8233340423886,-74.4672899907178,77.1270691522277,-92.6565158957302,-90.00021755105197,110.8233340423886
/home/najo/NAS/DIP/datasets/Fr5_intertek_dataset/Fr5_intertek_7th_250526/top/zed_30779426_left_1748249365.803.jpg,30779426,left,1748249365.803,/home/najo/NAS/DIP/datasets/Fr5_intertek_dataset/Fr5_intertek_7th_250526/joint/joint_30779426_1748249365.803.json,1748249365.803,0.0,20.8233340423886,-74.4672899907178,77.1270691522277,-92.6565158957302,-90.00021755105197,110.8233340423886
/home/najo/NAS/DIP/datasets/Fr5_intertek_dataset/Fr5_intertek_7th_250526/left/zed_38007749_right_1748249365.931.jpg,38007749,right,1748249365.931,/home/najo/NAS/DIP/datasets/Fr5_intertek_dataset/Fr5_intertek_7th_250526/joint/joint_38007749_1748249365.931.json,1748249365.931,0.0,20.81920057240099,-74.38918916305693,78.50329710705445,-94.1230275371287,-90.00043510210396,110.817677715037
/home/najo/NAS/DIP/datasets/Fr5_intertek_dataset/Fr5_intertek_7th_250526/left/zed_38007749_left_1748249365.931.jpg,38007749,left,1748249365.931,/home/najo/NAS/DIP/datasets/Fr5_intertek_dataset/Fr5_intertek_7th_250526/joint/joint_38007749_1748249365.931.json,1748249365.931,0.0,20.81920057240099,-74.38918916305693,78.50329710705445,-94.1230275371287,-90.00043510210396,110.817677715037
/home/najo/NAS/DIP/datasets/Fr5_intertek_dataset/Fr5_intertek_7th_250526/right/zed_34850673_left_1748249365.936.jpg,34850673,left,1748249365.936,/home/najo/NAS/DIP/datasets/Fr5_intertek_dataset/Fr5_intertek_7th_250526/joint/joint_34850673_1748249365.936.json,1748249365.936,0.0,20.81920057240099,-74.388318958849,78.51439221070545,-94.1341226407797,-90.00065265315594,110.817677715037
/home/najo/NAS/DIP/datasets/Fr5_intertek_dataset/Fr5_intertek_7th_250526/right/zed_34850673_right_1748249365.936.jpg,34850673,right,1748249365.936,/home/najo/NAS/DIP/datasets/Fr5_intertek_dataset/Fr5_intertek_7th_250526/joint/joint_34850673_1748249365.936.json,1748249365.936,0.0,20.81920057240099,-74.388318958849,78.51439221070545,-94.1341226407797,-90.00065265315594,110.817677715037
/home/najo/NAS/DIP/datasets/Fr5_intertek_dataset/Fr5_intertek_7th_250526/top/zed_30779426_right_1748249365.942.jpg,30779426,right,1748249365.942,/home/najo/NAS/DIP/datasets/Fr5_intertek_dataset/Fr5_intertek_7th_250526/joint/joint_30779426_1748249365.942.json,1748249365.942,0.0,20.81963567450495,-74.38200997834159,78.61294283725248,-94.24007000309406,-90.00021755105197,110.817460163985
/home/najo/NAS/DIP/datasets/Fr5_intertek_dataset/Fr5_intertek_7th_250526/top/zed_30779426_left_1748249365.942.jpg,30779426,left,1748249365.942,/home/najo/NAS/DIP/datasets/Fr5_intertek_dataset/Fr5_intertek_7th_250526/joint/joint_30779426_1748249365.942.json,1748249365.942,0.0,20.81963567450495,-74.38200997834159,78.61294283725248,-94.24007000309406,-90.00021755105197,110.817460163985
/home/najo/NAS/DIP/datasets/Fr5_intertek_dataset/Fr5_intertek_7th_250526/left/zed_38007749_left_1748249366.070.jpg,38007749,left,1748249366.07,/home/najo/NAS/DIP/datasets/Fr5_intertek_dataset/Fr5_intertek_7th_250526/joint/joint_38007749_1748249366.070.json,1748249366.07,0.0,20.81724261293316,-74.25626547029702,79.9639348700495,-95.70984491027228,-89.99978244894803,110.8146320003094
/home/najo/NAS/DIP/datasets/Fr5_intertek_dataset/Fr5_intertek_7th_250526/left/zed_38007749_right_1748249366.070.jpg,38007749,right,1748249366.07,/home/najo/NAS/DIP/datasets/Fr5_intertek_dataset/Fr5_intertek_7th_250526/joint/joint_38007749_1748249366.070.json,1748249366.07,0.0,20.81724261293316,-74.25626547029702,79.9639348700495,-95.70984491027228,-89.99978244894803,110.8146320003094
/home/najo/NAS/DIP/datasets/Fr5_intertek_dataset/Fr5_intertek_7th_250526/right/zed_34850673_right_1748249366.075.jpg,34850673,right,1748249366.075,/home/najo/NAS/DIP/datasets/Fr5_intertek_dataset/Fr5_intertek_7th_250526/joint/joint_34850673_1748249366.075.json,1748249366.075,0.0,20.81724261293316,-74.25408995977723,79.9837320157797,-95.73290532178218,-90.00043510210396,110.8144144492574
/home/najo/NAS/DIP/datasets/Fr5_intertek_dataset/Fr5_intertek_7th_250526/right/zed_34850673_left_1748249366.075.jpg,34850673,left,1748249366.075,/home/najo/NAS/DIP/datasets/Fr5_intertek_dataset/Fr5_intertek_7th_250526/joint/joint_34850673_1748249366.075.json,1748249366.075,0.0,20.81724261293316,-74.25408995977723,79.9837320157797,-95.73290532178218,-90.00043510210396,110.8144144492574
/home/najo/NAS/DIP/datasets/Fr5_intertek_dataset/Fr5_intertek_7th_250526/top/zed_30779426_right_1748249366.081.jpg,30779426,right,1748249366.081,/home/najo/NAS/DIP/datasets/Fr5_intertek_dataset/Fr5_intertek_7th_250526/joint/joint_30779426_1748249366.081.json,1748249366.081,0.0,20.81658995977723,-74.24625812190594,80.06509610922029,-95.8268873762376,-89.99978244894803,110.8139793471534
/home/najo/NAS/DIP/datasets/Fr5_intertek_dataset/Fr5_intertek_7th_250526/top/zed_30779426_left_1748249366.081.jpg,30779426,left,1748249366.081,/home/najo/NAS/DIP/datasets/Fr5_intertek_dataset/Fr5_intertek_7th_250526/joint/joint_30779426_1748249366.081.json,1748249366.081,0.0,20.81658995977723,-74.24625812190594,80.06509610922029,-95.8268873762376,-89.99978244894803,110.8139793471534
/home/najo/NAS/DIP/datasets/Fr5_intertek_dataset/Fr5_intertek_7th_250526/left/zed_38007749_right_1748249366.209.jpg,38007749,right,1748249366.209,/home/najo/NAS/DIP/datasets/Fr5_intertek_dataset/Fr5_intertek_7th_250526/joint/joint_38007749_1748249366.209.json,1748249366.209,0.0,20.8135442450495,-74.09418993657178,81.3580020111386,-97.2653349319307,-90.0,110.8120213876856
/home/najo/NAS/DIP/datasets/Fr5_intertek_dataset/Fr5_intertek_7th_250526/left/zed_38007749_left_1748249366.209.jpg,38007749,left,1748249366.209,/home/najo/NAS/DIP/datasets/Fr5_intertek_dataset/Fr5_intertek_7th_250526/joint/joint_38007749_1748249366.209.json,1748249366.209,0.0,20.8135442450495,-74.09418993657178,81.3580020111386,-97.2653349319307,-90.0,110.8120213876856
/home/najo/NAS/DIP/datasets/Fr5_intertek_dataset/Fr5_intertek_7th_250526/right/zed_34850673_right_1748249366.215.jpg,34850673,right,1748249366.215,/home/najo/NAS/DIP/datasets/Fr5_intertek_dataset/Fr5_intertek_7th_250526/joint/joint_34850673_1748249366.215.json,1748249366.215,0.0,20.81376179610148,-74.08853360922029,81.397596302599,-97.3090626933787,-90.00043510210396,110.8120213876856
/home/najo/NAS/DIP/datasets/Fr5_intertek_dataset/Fr5_intertek_7th_250526/right/zed_34850673_left_1748249366.215.jpg,34850673,left,1748249366.215,/home/najo/NAS/DIP/datasets/Fr5_intertek_dataset/Fr5_intertek_7th_250526/joint/joint_34850673_1748249366.215.json,1748249366.215,0.0,20.81376179610148,-74.08853360922029,81.397596302599,-97.3090626933787,-90.00043510210396,110.8120213876856
/home/najo/NAS/DIP/datasets/Fr5_intertek_dataset/Fr5_intertek_7th_250526/top/zed_30779426_left_1748249366.221.jpg,30779426,left,1748249366.221,/home/najo/NAS/DIP/datasets/Fr5_intertek_dataset/Fr5_intertek_7th_250526/joint/joint_30779426_1748249366.221.json,1748249366.221,0.0,20.81419689820544,-74.07591564820545,81.48679223391089,-97.41109413675743,-90.0,110.8118038366336
/home/najo/NAS/DIP/datasets/Fr5_intertek_dataset/Fr5_intertek_7th_250526/top/zed_30779426_right_1748249366.221.jpg,30779426,right,1748249366.221,/home/najo/NAS/DIP/datasets/Fr5_intertek_dataset/Fr5_intertek_7th_250526/joint/joint_30779426_1748249366.221.json,1748249366.221,0.0,20.81419689820544,-74.07591564820545,81.48679223391089,-97.41109413675743,-90.0,110.8118038366336
/home/najo/NAS/DIP/datasets/Fr5_intertek_dataset/Fr5_intertek_7th_250526/left/zed_38007749_right_1748249366.348.jpg,38007749,right,1748249366.348,/home/najo/NAS/DIP/datasets/Fr5_intertek_dataset/Fr5_intertek_7th_250526/joint/joint_38007749_1748249366.348.json,1748249366.348,0.0,20.81267404084158,-73.87576868038364,82.73183690439356,-98.8493241413985,-90.00021755105197,110.8111511834777
/home/najo/NAS/DIP/datasets/Fr5_intertek_dataset/Fr5_intertek_7th_250526/left/zed_38007749_left_1748249366.348.jpg,38007749,left,1748249366.348,/home/najo/NAS/DIP/datasets/Fr5_intertek_dataset/Fr5_intertek_7th_250526/joint/joint_38007749_1748249366.348.json,1748249366.348,0.0,20.81267404084158,-73.87576868038364,82.73183690439356,-98.8493241413985,-90.00021755105197,110.8111511834777
/home/najo/NAS/DIP/datasets/Fr5_intertek_dataset/Fr5_intertek_7th_250526/right/zed_34850673_left_1748249366.353.jpg,34850673,left,1748249366.353,/home/najo/NAS/DIP/datasets/Fr5_intertek_dataset/Fr5_intertek_7th_250526/joint/joint_34850673_1748249366.353.json,1748249366.353,0.0,20.81223893873762,-73.87272296565594,82.7511989480198,-98.87216700185644,-90.0,110.8109336324257
/home/najo/NAS/DIP/datasets/Fr5_intertek_dataset/Fr5_intertek_7th_250526/right/zed_34850673_right_1748249366.353.jpg,34850673,right,1748249366.353,/home/najo/NAS/DIP/datasets/Fr5_intertek_dataset/Fr5_intertek_7th_250526/joint/joint_34850673_1748249366.353.json,1748249366.353,0.0,20.81223893873762,-73.87272296565594,82.7511989480198,-98.87216700185644,-90.0,110.8109336324257
/home/najo/NAS/DIP/datasets/Fr5_intertek_dataset/Fr5_intertek_7th_250526/top/zed_30779426_right_1748249366.360.jpg,30779426,right,1748249366.36,/home/najo/NAS/DIP/datasets/Fr5_intertek_dataset/Fr5_intertek_7th_250526/joint/joint_30779426_1748249366.360.json,1748249366.36,0.0,20.81180383663366,-73.85858214727723,82.83560875618812,-98.97180538366337,-90.00043510210396,110.8109336324257
/home/najo/NAS/DIP/datasets/Fr5_intertek_dataset/Fr5_intertek_7th_250526/top/zed_30779426_left_1748249366.360.jpg,30779426,left,1748249366.36,/home/najo/NAS/DIP/datasets/Fr5_intertek_dataset/Fr5_intertek_7th_250526/joint/joint_30779426_1748249366.360.json,1748249366.36,0.0,20.81180383663366,-73.85858214727723,82.83560875618812,-98.97180538366337,-90.00043510210396,110.8109336324257
/home/najo/NAS/DIP/datasets/Fr5_intertek_dataset/Fr5_intertek_7th_250526/left/zed_38007749_left_1748249366.487.jpg,38007749,left,1748249366.487,/home/najo/NAS/DIP/datasets/Fr5_intertek_dataset/Fr5_intertek_7th_250526/joint/joint_38007749_1748249366.487.json,1748249366.487,0.0,20.81158628558168,-73.63080619585396,84.00385790532178,-100.3737043626237,-90.00021755105197,110.8107160813737
/home/najo/NAS/DIP/datasets/Fr5_intertek_dataset/Fr5_intertek_7th_250526/left/zed_38007749_right_1748249366.487.jpg,38007749,right,1748249366.487,/home/najo/NAS/DIP/datasets/Fr5_intertek_dataset/Fr5_intertek_7th_250526/joint/joint_38007749_1748249366.487.json,1748249366.487,0.0,20.81158628558168,-73.63080619585396,84.00385790532178,-100.3737043626237,-90.00021755105197,110.8107160813737
/home/najo/NAS/DIP/datasets/Fr5_intertek_dataset/Fr5_intertek_7th_250526/right/zed_34850673_right_1748249366.492.jpg,34850673,right,1748249366.492,/home/najo/NAS/DIP/datasets/Fr5_intertek_dataset/Fr5_intertek_7th_250526/joint/joint_34850673_1748249366.492.json,1748249366.492,0.0,20.81180383663366,-73.6249323174505,84.03279219523515,-100.4043790609529,-90.00065265315594,110.8107160813737
/home/najo/NAS/DIP/datasets/Fr5_intertek_dataset/Fr5_intertek_7th_250526/right/zed_34850673_left_1748249366.492.jpg,34850673,left,1748249366.492,/home/najo/NAS/DIP/datasets/Fr5_intertek_dataset/Fr5_intertek_7th_250526/joint/joint_34850673_1748249366.492.json,1748249366.492,0.0,20.81180383663366,-73.6249323174505,84.03279219523515,-100.4043790609529,-90.00065265315594,110.8107160813737
/home/najo/NAS/DIP/datasets/Fr5_intertek_dataset/Fr5_intertek_7th_250526/top/zed_30779426_left_1748249366.498.jpg,30779426,left,1748249366.498,/home/najo/NAS/DIP/datasets/Fr5_intertek_dataset/Fr5_intertek_7th_250526/joint/joint_30779426_1748249366.498.json,1748249366.498,0.0,20.81223893873762,-73.61296700959159,84.0904432240099,-100.4707321318069,-90.0,110.8109336324257
/home/najo/NAS/DIP/datasets/Fr5_intertek_dataset/Fr5_intertek_7th_250526/top/zed_30779426_right_1748249366.498.jpg,30779426,right,1748249366.498,/home/najo/NAS/DIP/datasets/Fr5_intertek_dataset/Fr5_intertek_7th_250526/joint/joint_30779426_1748249366.498.json,1748249366.498,0.0,20.81223893873762,-73.61296700959159,84.0904432240099,-100.4707321318069,-90.0,110.8109336324257
/home/najo/NAS/DIP/datasets/Fr5_intertek_dataset/Fr5_intertek_7th_250526/left/zed_38007749_right_1748249366.625.jpg,38007749,right,1748249366.625,/home/najo/NAS/DIP/datasets/Fr5_intertek_dataset/Fr5_intertek_7th_250526/joint/joint_38007749_1748249366.625.json,1748249366.625,0.0,20.81071608137376,-73.34363880724008,85.2417233910891,-101.897649481745,-89.99978244894803,110.8107160813737
/home/najo/NAS/DIP/datasets/Fr5_intertek_dataset/Fr5_intertek_7th_250526/left/zed_38007749_left_1748249366.625.jpg,38007749,left,1748249366.625,/home/najo/NAS/DIP/datasets/Fr5_intertek_dataset/Fr5_intertek_7th_250526/joint/joint_38007749_1748249366.625.json,1748249366.625,0.0,20.81071608137376,-73.34363880724008,85.2417233910891,-101.897649481745,-89.99978244894803,110.8107160813737
/home/najo/NAS/DIP/datasets/Fr5_intertek_dataset/Fr5_intertek_7th_250526/right/zed_34850673_left_1748249366.630.jpg,34850673,left,1748249366.63,/home/najo/NAS/DIP/datasets/Fr5_intertek_dataset/Fr5_intertek_7th_250526/joint/joint_34850673_1748249366.630.json,1748249366.63,0.0,20.81006342821782,-73.33232615253714,85.28414584622524,-101.9502968363242,-90.00065265315594,110.8104985303218
/home/najo/NAS/DIP/datasets/Fr5_intertek_dataset/Fr5_intertek_7th_250526/right/zed_34850673_right_1748249366.630.jpg,34850673,right,1748249366.63,/home/najo/NAS/DIP/datasets/Fr5_intertek_dataset/Fr5_intertek_7th_250526/joint/joint_34850673_1748249366.630.json,1748249366.63,0.0,20.81006342821782,-73.33232615253714,85.28414584622524,-101.9502968363242,-90.00065265315594,110.8104985303218
/home/najo/NAS/DIP/datasets/Fr5_intertek_dataset/Fr5_intertek_7th_250526/top/zed_30779426_left_1748249366.634.jpg,30779426,left,1748249366.634,/home/najo/NAS/DIP/datasets/Fr5_intertek_dataset/Fr5_intertek_7th_250526/joint/joint_30779426_1748249366.634.json,1748249366.634,0.0,20.81006342821782,-73.3192730894183,85.33483524133663,-102.017085009282,-90.0,110.8107160813737
/home/najo/NAS/DIP/datasets/Fr5_intertek_dataset/Fr5_intertek_7th_250526/top/zed_30779426_right_1748249366.634.jpg,30779426,right,1748249366.634,/home/najo/NAS/DIP/datasets/Fr5_intertek_dataset/Fr5_intertek_7th_250526/joint/joint_30779426_1748249366.634.json,1748249366.634,0.0,20.81006342821782,-73.3192730894183,85.33483524133663,-102.017085009282,-90.0,110.8107160813737
/home/najo/NAS/DIP/datasets/Fr5_intertek_dataset/Fr5_intertek_7th_250526/left/zed_38007749_right_1748249366.761.jpg,38007749,right,1748249366.761,/home/najo/NAS/DIP/datasets/Fr5_intertek_dataset/Fr5_intertek_7th_250526/joint/joint_38007749_1748249366.761.json,1748249366.761,0.0,20.81006342821782,-73.01426651454207,86.46327254795793,-103.4527044012995,-90.0,110.8109336324257
/home/najo/NAS/DIP/datasets/Fr5_intertek_dataset/Fr5_intertek_7th_250526/left/zed_38007749_left_1748249366.761.jpg,38007749,left,1748249366.761,/home/najo/NAS/DIP/datasets/Fr5_intertek_dataset/Fr5_intertek_7th_250526/joint/joint_38007749_1748249366.761.json,1748249366.761,0.0,20.81006342821782,-73.01426651454207,86.46327254795793,-103.4527044012995,-90.0,110.8109336324257
/home/najo/NAS/DIP/datasets/Fr5_intertek_dataset/Fr5_intertek_7th_250526/right/zed_34850673_left_1748249366.766.jpg,34850673,left,1748249366.766,/home/najo/NAS/DIP/datasets/Fr5_intertek_dataset/Fr5_intertek_7th_250526/joint/joint_38007749_1748249366.761.json,1748249366.761,0.005000114440917969,20.81006342821782,-73.01426651454207,86.46327254795793,-103.4527044012995,-90.0,110.8109336324257
/home/najo/NAS/DIP/datasets/Fr5_intertek_dataset/Fr5_intertek_7th_250526/right/zed_34850673_right_1748249366.766.jpg,34850673,right,1748249366.766,/home/najo/NAS/DIP/datasets/Fr5_intertek_dataset/Fr5_intertek_7th_250526/joint/joint_38007749_1748249366.761.json,1748249366.761,0.005000114440917969,20.81006342821782,-73.01426651454207,86.46327254795793,-103.4527044012995,-90.0,110.8109336324257
/home/najo/NAS/DIP/datasets/Fr5_intertek_dataset/Fr5_intertek_7th_250526/top/zed_30779426_left_1748249366.773.jpg,30779426,left,1748249366.773,/home/najo/NAS/DIP/datasets/Fr5_intertek_dataset/Fr5_intertek_7th_250526/joint/joint_30779426_1748249366.773.json,1748249366.773,0.0,20.81049853032178,-72.98946569461634,86.55072807085396,-103.5630027846534,-90.00021755105197,110.8109336324257
/home/najo/NAS/DIP/datasets/Fr5_intertek_dataset/Fr5_intertek_7th_250526/top/zed_30779426_right_1748249366.773.jpg,30779426,right,1748249366.773,/home/najo/NAS/DIP/datasets/Fr5_intertek_dataset/Fr5_intertek_7th_250526/joint/joint_30779426_1748249366.773.json,1748249366.773,0.0,20.81049853032178,-72.98946569461634,86.55072807085396,-103.5630027846534,-90.00021755105197,110.8109336324257
/home/najo/NAS/DIP/datasets/Fr5_intertek_dataset/Fr5_intertek_7th_250526/right/zed_34850673_left_1748249366.900.jpg,34850673,left,1748249366.9,/home/najo/NAS/DIP/datasets/Fr5_intertek_dataset/Fr5_intertek_7th_250526/joint/joint_34850673_1748249366.900.json,1748249366.9,0.0,20.81071608137376,-72.65378442141089,87.60889638768565,-104.9553295173267,-90.00021755105197,110.8109336324257
/home/najo/NAS/DIP/datasets/Fr5_intertek_dataset/Fr5_intertek_7th_250526/right/zed_34850673_right_1748249366.900.jpg,34850673,right,1748249366.9,/home/najo/NAS/DIP/datasets/Fr5_intertek_dataset/Fr5_intertek_7th_250526/joint/joint_34850673_1748249366.900.json,1748249366.9,0.0,20.81071608137376,-72.65378442141089,87.60889638768565,-104.9553295173267,-90.00021755105197,110.8109336324257
/home/najo/NAS/DIP/datasets/Fr5_intertek_dataset/Fr5_intertek_7th_250526/left/zed_38007749_left_1748249366.904.jpg,38007749,left,1748249366.904,/home/najo/NAS/DIP/datasets/Fr5_intertek_dataset/Fr5_intertek_7th_250526/joint/joint_38007749_1748249366.904.json,1748249366.904,0.0,20.81071608137376,-72.64508237933168,87.6347849628713,-104.9920956451114,-90.00021755105197,110.8109336324257
/home/najo/NAS/DIP/datasets/Fr5_intertek_dataset/Fr5_intertek_7th_250526/left/zed_38007749_right_1748249366.904.jpg,38007749,right,1748249366.904,/home/najo/NAS/DIP/datasets/Fr5_intertek_dataset/Fr5_intertek_7th_250526/joint/joint_38007749_1748249366.904.json,1748249366.904,0.0,20.81071608137376,-72.64508237933168,87.6347849628713,-104.9920956451114,-90.00021755105197,110.8109336324257
/home/najo/NAS/DIP/datasets/Fr5_intertek_dataset/Fr5_intertek_7th_250526/top/zed_30779426_right_1748249366.910.jpg,30779426,right,1748249366.91,/home/najo/NAS/DIP/datasets/Fr5_intertek_dataset/Fr5_intertek_7th_250526/joint/joint_30779426_1748249366.910.json,1748249366.91,0.0,20.81071608137376,-72.62550278465346,87.69461150216584,-105.0734597385519,-90.0,110.8109336324257
/home/najo/NAS/DIP/datasets/Fr5_intertek_dataset/Fr5_intertek_7th_250526/top/zed_30779426_left_1748249366.910.jpg,30779426,left,1748249366.91,/home/najo/NAS/DIP/datasets/Fr5_intertek_dataset/Fr5_intertek_7th_250526/joint/joint_30779426_1748249366.910.json,1748249366.91,0.0,20.81071608137376,-72.62550278465346,87.69461150216584,-105.0734597385519,-90.0,110.8109336324257
/home/najo/NAS/DIP/datasets/Fr5_intertek_dataset/Fr5_intertek_7th_250526/right/zed_34850673_left_1748249367.037.jpg,34850673,left,1748249367.037,/home/najo/NAS/DIP/datasets/Fr5_intertek_dataset/Fr5_intertek_7th_250526/joint/joint_34850673_1748249367.037.json,1748249367.037,0.0,20.81115118347772,-72.26371538521039,88.714490833849,-106.4516456528465,-90.00021755105197,110.8109336324257
/home/najo/NAS/DIP/datasets/Fr5_intertek_dataset/Fr5_intertek_7th_250526/right/zed_34850673_right_1748249367.037.jpg,34850673,right,1748249367.037,/home/najo/NAS/DIP/datasets/Fr5_intertek_dataset/Fr5_intertek_7th_250526/joint/joint_34850673_1748249367.037.json,1748249367.037,0.0,20.81115118347772,-72.26371538521039,88.714490833849,-106.4516456528465,-90.00021755105197,110.8109336324257
/home/najo/NAS/DIP/datasets/Fr5_intertek_dataset/Fr5_intertek_7th_250526/left/zed_38007749_right_1748249367.042.jpg,38007749,right,1748249367.042,/home/najo/NAS/DIP/datasets/Fr5_intertek_dataset/Fr5_intertek_7th_250526/joint/joint_38007749_1748249367.042.json,1748249367.042,0.0,20.81071608137376,-72.23260558477723,88.79085125309406,-106.5612913830445,-90.0,110.8107160813737
/home/najo/NAS/DIP/datasets/Fr5_intertek_dataset/Fr5_intertek_7th_250526/left/zed_38007749_left_1748249367.042.jpg,38007749,left,1748249367.042,/home/najo/NAS/DIP/datasets/Fr5_intertek_dataset/Fr5_intertek_7th_250526/joint/joint_38007749_1748249367.042.json,1748249367.042,0.0,20.81071608137376,-72.23260558477723,88.79085125309406,-106.5612913830445,-90.0,110.8107160813737
/home/najo/NAS/DIP/datasets/Fr5_intertek_dataset/Fr5_intertek_7th_250526/top/zed_30779426_left_1748249367.047.jpg,30779426,left,1748249367.047,/home/najo/NAS/DIP/datasets/Fr5_intertek_dataset/Fr5_intertek_7th_250526/joint/joint_30779426_1748249367.047.json,1748249367.047,0.0,20.81049853032178,-72.22303333849008,88.8134765625,-106.5937064897896,-90.00043510210396,110.8109336324257
/home/najo/NAS/DIP/datasets/Fr5_intertek_dataset/Fr5_intertek_7th_250526/top/zed_30779426_right_1748249367.047.jpg,30779426,right,1748249367.047,/home/najo/NAS/DIP/datasets/Fr5_intertek_dataset/Fr5_intertek_7th_250526/joint/joint_30779426_1748249367.047.json,1748249367.047,0.0,20.81049853032178,-72.22303333849008,88.8134765625,-106.5937064897896,-90.00043510210396,110.8109336324257
/home/najo/NAS/DIP/datasets/Fr5_intertek_dataset/Fr5_intertek_7th_250526/right/zed_34850673_left_1748249367.173.jpg,34850673,left,1748249367.173,/home/najo/NAS/DIP/datasets/Fr5_intertek_dataset/Fr5_intertek_7th_250526/joint/joint_34850673_1748249367.173.json,1748249367.173,0.0,20.8102809792698,-71.80294225711634,89.83574895575495,-108.0304136370668,-90.00021755105197,110.8111511834777
/home/najo/NAS/DIP/datasets/Fr5_intertek_dataset/Fr5_intertek_7th_250526/right/zed_34850673_right_1748249367.173.jpg,34850673,right,1748249367.173,/home/najo/NAS/DIP/datasets/Fr5_intertek_dataset/Fr5_intertek_7th_250526/joint/joint_34850673_1748249367.173.json,1748249367.173,0.0,20.8102809792698,-71.80294225711634,89.83574895575495,-108.0304136370668,-90.00021755105197,110.8111511834777
/home/najo/NAS/DIP/datasets/Fr5_intertek_dataset/Fr5_intertek_7th_250526/left/zed_38007749_left_1748249367.182.jpg,38007749,left,1748249367.182,/home/najo/NAS/DIP/datasets/Fr5_intertek_dataset/Fr5_intertek_7th_250526/joint/joint_38007749_1748249367.182.json,1748249367.182,0.0,20.8102809792698,-71.79967899133663,89.84336324257426,-108.0408560875618,-90.00021755105197,110.8109336324257
/home/najo/NAS/DIP/datasets/Fr5_intertek_dataset/Fr5_intertek_7th_250526/left/zed_38007749_right_1748249367.182.jpg,38007749,right,1748249367.182,/home/najo/NAS/DIP/datasets/Fr5_intertek_dataset/Fr5_intertek_7th_250526/joint/joint_38007749_1748249367.182.json,1748249367.182,0.0,20.8102809792698,-71.79967899133663,89.84336324257426,-108.0408560875618,-90.00021755105197,110.8109336324257
/home/najo/NAS/DIP/datasets/Fr5_intertek_dataset/Fr5_intertek_7th_250526/top/zed_30779426_left_1748249367.186.jpg,30779426,left,1748249367.186,/home/najo/NAS/DIP/datasets/Fr5_intertek_dataset/Fr5_intertek_7th_250526/joint/joint_30779426_1748249367.186.json,1748249367.186,0.0,20.80984587716584,-71.77313776299505,89.90340733292079,-108.1241781404703,-90.00021755105197,110.8109336324257
/home/najo/NAS/DIP/datasets/Fr5_intertek_dataset/Fr5_intertek_7th_250526/top/zed_30779426_right_1748249367.186.jpg,30779426,right,1748249367.186,/home/najo/NAS/DIP/datasets/Fr5_intertek_dataset/Fr5_intertek_7th_250526/joint/joint_30779426_1748249367.186.json,1748249367.186,0.0,20.80984587716584,-71.77313776299505,89.90340733292079,-108.1241781404703,-90.00021755105197,110.8109336324257
/home/najo/NAS/DIP/datasets/Fr5_intertek_dataset/Fr5_intertek_7th_250526/right/zed_34850673_right_1748249367.314.jpg,34850673,right,1748249367.314,/home/najo/NAS/DIP/datasets/Fr5_intertek_dataset/Fr5_intertek_7th_250526/joint/joint_34850673_1748249367.314.json,1748249367.314,0.0,20.81049853032178,-71.32933361695545,90.8512772663985,-109.520638343131,-90.00021755105197,110.8109336324257
/home/najo/NAS/DIP/datasets/Fr5_intertek_dataset/Fr5_intertek_7th_250526/right/zed_34850673_left_1748249367.314.jpg,34850673,left,1748249367.314,/home/najo/NAS/DIP/datasets/Fr5_intertek_dataset/Fr5_intertek_7th_250526/joint/joint_34850673_1748249367.314.json,1748249367.314,0.0,20.81049853032178,-71.32933361695545,90.8512772663985,-109.520638343131,-90.00021755105197,110.8109336324257
/home/najo/NAS/DIP/datasets/Fr5_intertek_dataset/Fr5_intertek_7th_250526/left/zed_38007749_right_1748249367.319.jpg,38007749,right,1748249367.319,/home/najo/NAS/DIP/datasets/Fr5_intertek_dataset/Fr5_intertek_7th_250526/joint/joint_38007749_1748249367.319.json,1748249367.319,0.0,20.81049853032178,-71.31497524752476,90.88042910736387,-109.5630607982673,-90.00021755105197,110.8109336324257
/home/najo/NAS/DIP/datasets/Fr5_intertek_dataset/Fr5_intertek_7th_250526/left/zed_38007749_left_1748249367.319.jpg,38007749,left,1748249367.319,/home/najo/NAS/DIP/datasets/Fr5_intertek_dataset/Fr5_intertek_7th_250526/joint/joint_38007749_1748249367.319.json,1748249367.319,0.0,20.81049853032178,-71.31497524752476,90.88042910736387,-109.5630607982673,-90.00021755105197,110.8109336324257
/home/najo/NAS/DIP/datasets/Fr5_intertek_dataset/Fr5_intertek_7th_250526/top/zed_30779426_left_1748249367.324.jpg,30779426,left,1748249367.324,/home/najo/NAS/DIP/datasets/Fr5_intertek_dataset/Fr5_intertek_7th_250526/joint/joint_30779426_1748249367.324.json,1748249367.324,0.0,20.81093363242574,-71.29278504022275,90.9248095219678,-109.6337648901609,-90.00021755105197,110.8109336324257
/home/najo/NAS/DIP/datasets/Fr5_intertek_dataset/Fr5_intertek_7th_250526/top/zed_30779426_right_1748249367.324.jpg,30779426,right,1748249367.324,/home/najo/NAS/DIP/datasets/Fr5_intertek_dataset/Fr5_intertek_7th_250526/joint/joint_30779426_1748249367.324.json,1748249367.324,0.0,20.81093363242574,-71.29278504022275,90.9248095219678,-109.6337648901609,-90.00021755105197,110.8109336324257
/home/najo/NAS/DIP/datasets/Fr5_intertek_dataset/Fr5_intertek_7th_250526/right/zed_34850673_left_1748249367.451.jpg,34850673,left,1748249367.451,/home/najo/NAS/DIP/datasets/Fr5_intertek_dataset/Fr5_intertek_7th_250526/joint/joint_34850673_1748249367.451.json,1748249367.451,0.0,20.81093363242574,-70.81591313428218,91.85919129022275,-111.036534073329,-90.00021755105197,110.8111511834777
/home/najo/NAS/DIP/datasets/Fr5_intertek_dataset/Fr5_intertek_7th_250526/right/zed_34850673_right_1748249367.451.jpg,34850673,right,1748249367.451,/home/najo/NAS/DIP/datasets/Fr5_intertek_dataset/Fr5_intertek_7th_250526/joint/joint_34850673_1748249367.451.json,1748249367.451,0.0,20.81093363242574,-70.81591313428218,91.85919129022275,-111.036534073329,-90.00021755105197,110.8111511834777
/home/najo/NAS/DIP/datasets/Fr5_intertek_dataset/Fr5_intertek_7th_250526/left/zed_38007749_right_1748249367.456.jpg,38007749,right,1748249367.456,/home/najo/NAS/DIP/datasets/Fr5_intertek_dataset/Fr5_intertek_7th_250526/joint/joint_38007749_1748249367.456.json,1748249367.456,0.0,20.81093363242574,-70.80829884746286,91.87333210860149,-111.0574189743193,-90.00021755105197,110.8109336324257
/home/najo/NAS/DIP/datasets/Fr5_intertek_dataset/Fr5_intertek_7th_250526/left/zed_38007749_left_1748249367.456.jpg,38007749,left,1748249367.456,/home/najo/NAS/DIP/datasets/Fr5_intertek_dataset/Fr5_intertek_7th_250526/joint/joint_38007749_1748249367.456.json,1748249367.456,0.0,20.81093363242574,-70.80829884746286,91.87333210860149,-111.0574189743193,-90.00021755105197,110.8109336324257
/home/najo/NAS/DIP/datasets/Fr5_intertek_dataset/Fr5_intertek_7th_250526/top/zed_30779426_left_1748249367.461.jpg,30779426,left,1748249367.461,/home/najo/NAS/DIP/datasets/Fr5_intertek_dataset/Fr5_intertek_7th_250526/joint/joint_30779426_1748249367.461.json,1748249367.461,0.0,20.81071608137376,-70.77653639387377,91.92989538211634,-111.1426989866955,-90.00021755105197,110.8111511834777
/home/najo/NAS/DIP/datasets/Fr5_intertek_dataset/Fr5_intertek_7th_250526/top/zed_30779426_right_1748249367.461.jpg,30779426,right,1748249367.461,/home/najo/NAS/DIP/datasets/Fr5_intertek_dataset/Fr5_intertek_7th_250526/joint/joint_30779426_1748249367.461.json,1748249367.461,0.0,20.81071608137376,-70.77653639387377,91.92989538211634,-111.1426989866955,-90.00021755105197,110.8111511834777
/home/najo/NAS/DIP/datasets/Fr5_intertek_dataset/Fr5_intertek_7th_250526/right/zed_34850673_right_1748249367.588.jpg,34850673,right,1748249367.588,/home/najo/NAS/DIP/datasets/Fr5_intertek_dataset/Fr5_intertek_7th_250526/joint/joint_34850673_1748249367.588.json,1748249367.588,0.0,20.81093363242574,-70.27225305538364,92.7948783647896,-112.5352432704208,-90.00021755105197,110.8109336324257
/home/najo/NAS/DIP/datasets/Fr5_intertek_dataset/Fr5_intertek_7th_250526/right/zed_34850673_left_1748249367.588.jpg,34850673,left,1748249367.588,/home/najo/NAS/DIP/datasets/Fr5_intertek_dataset/Fr5_intertek_7th_250526/joint/joint_34850673_1748249367.588.json,1748249367.588,0.0,20.81093363242574,-70.27225305538364,92.7948783647896,-112.5352432704208,-90.00021755105197,110.8109336324257
/home/najo/NAS/DIP/datasets/Fr5_intertek_dataset/Fr5_intertek_7th_250526/left/zed_38007749_left_1748249367.593.jpg,38007749,left,1748249367.593,/home/najo/NAS/DIP/datasets/Fr5_intertek_dataset/Fr5_intertek_7th_250526/joint/joint_38007749_1748249367.593.json,1748249367.593,0.0,20.81093363242574,-70.26420366646039,92.80880163211634,-112.5569983756188,-90.00021755105197,110.8111511834777
/home/najo/NAS/DIP/datasets/Fr5_intertek_dataset/Fr5_intertek_7th_250526/left/zed_38007749_right_1748249367.593.jpg,38007749,right,1748249367.593,/home/najo/NAS/DIP/datasets/Fr5_intertek_dataset/Fr5_intertek_7th_250526/joint/joint_38007749_1748249367.593.json,1748249367.593,0.0,20.81093363242574,-70.26420366646039,92.80880163211634,-112.5569983756188,-90.00021755105197,110.8111511834777
/home/najo/NAS/DIP/datasets/Fr5_intertek_dataset/Fr5_intertek_7th_250526/top/zed_30779426_right_1748249367.597.jpg,30779426,right,1748249367.597,/home/najo/NAS/DIP/datasets/Fr5_intertek_dataset/Fr5_intertek_7th_250526/joint/joint_30779426_1748249367.597.json,1748249367.597,0.0,20.81093363242574,-70.2431012144183,92.84339224938118,-112.6109510365099,-90.00021755105197,110.8111511834777
/home/najo/NAS/DIP/datasets/Fr5_intertek_dataset/Fr5_intertek_7th_250526/top/zed_30779426_left_1748249367.597.jpg,30779426,left,1748249367.597,/home/najo/NAS/DIP/datasets/Fr5_intertek_dataset/Fr5_intertek_7th_250526/joint/joint_30779426_1748249367.597.json,1748249367.597,0.0,20.81093363242574,-70.2431012144183,92.84339224938118,-112.6109510365099,-90.00021755105197,110.8111511834777
/home/najo/NAS/DIP/datasets/Fr5_intertek_dataset/Fr5_intertek_7th_250526/right/zed_34850673_right_1748249367.725.jpg,34850673,right,1748249367.725,/home/najo/NAS/DIP/datasets/Fr5_intertek_dataset/Fr5_intertek_7th_250526/joint/joint_34850673_1748249367.725.json,1748249367.725,0.0,20.81093363242574,-69.69465501237623,93.7033715578589,-114.0006671565594,-90.00043510210396,110.8109336324257
/home/najo/NAS/DIP/datasets/Fr5_intertek_dataset/Fr5_intertek_7th_250526/right/zed_34850673_left_1748249367.725.jpg,34850673,left,1748249367.725,/home/najo/NAS/DIP/datasets/Fr5_intertek_dataset/Fr5_intertek_7th_250526/joint/joint_34850673_1748249367.725.json,1748249367.725,0.0,20.81093363242574,-69.69465501237623,93.7033715578589,-114.0006671565594,-90.00043510210396,110.8109336324257
/home/najo/NAS/DIP/datasets/Fr5_intertek_dataset/Fr5_intertek_7th_250526/left/zed_38007749_left_1748249367.730.jpg,38007749,left,1748249367.73,/home/najo/NAS/DIP/datasets/Fr5_intertek_dataset/Fr5_intertek_7th_250526/joint/joint_38007749_1748249367.730.json,1748249367.73,0.0,20.81071608137376,-69.67659827506186,93.72904258199257,-114.0437422648515,-90.00021755105197,110.8109336324257
/home/najo/NAS/DIP/datasets/Fr5_intertek_dataset/Fr5_intertek_7th_250526/left/zed_38007749_right_1748249367.730.jpg,38007749,right,1748249367.73,/home/najo/NAS/DIP/datasets/Fr5_intertek_dataset/Fr5_intertek_7th_250526/joint/joint_38007749_1748249367.730.json,1748249367.73,0.0,20.81071608137376,-69.67659827506186,93.72904258199257,-114.0437422648515,-90.00021755105197,110.8109336324257
/home/najo/NAS/DIP/datasets/Fr5_intertek_dataset/Fr5_intertek_7th_250526/top/zed_30779426_right_1748249367.734.jpg,30779426,right,1748249367.734,/home/najo/NAS/DIP/datasets/Fr5_intertek_dataset/Fr5_intertek_7th_250526/joint/joint_30779426_1748249367.734.json,1748249367.734,0.0,20.81093363242574,-69.64527092357673,93.77429320080445,-114.1277169709158,-90.00021755105197,110.8111511834777
/home/najo/NAS/DIP/datasets/Fr5_intertek_dataset/Fr5_intertek_7th_250526/top/zed_30779426_left_1748249367.734.jpg,30779426,left,1748249367.734,/home/najo/NAS/DIP/datasets/Fr5_intertek_dataset/Fr5_intertek_7th_250526/joint/joint_30779426_1748249367.734.json,1748249367.734,0.0,20.81093363242574,-69.64527092357673,93.77429320080445,-114.1277169709158,-90.00021755105197,110.8111511834777
/home/najo/NAS/DIP/datasets/Fr5_intertek_dataset/Fr5_intertek_7th_250526/right/zed_34850673_right_1748249367.862.jpg,34850673,right,1748249367.862,/home/najo/NAS/DIP/datasets/Fr5_intertek_dataset/Fr5_intertek_7th_250526/joint/joint_34850673_1748249367.862.json,1748249367.862,0.0,20.81115118347772,-69.08268390315594,94.55116800742574,-115.4719649211015,-90.00021755105197,110.8111511834777
/home/najo/NAS/DIP/datasets/Fr5_intertek_dataset/Fr5_intertek_7th_250526/right/zed_34850673_left_1748249367.862.jpg,34850673,left,1748249367.862,/home/najo/NAS/DIP/datasets/Fr5_intertek_dataset/Fr5_intertek_7th_250526/joint/joint_34850673_1748249367.862.json,1748249367.862,0.0,20.81115118347772,-69.08268390315594,94.55116800742574,-115.4719649211015,-90.00021755105197,110.8111511834777
/home/najo/NAS/DIP/datasets/Fr5_intertek_dataset/Fr5_intertek_7th_250526/left/zed_38007749_right_1748249367.867.jpg,38007749,right,1748249367.867,/home/najo/NAS/DIP/datasets/Fr5_intertek_dataset/Fr5_intertek_7th_250526/joint/joint_38007749_1748249367.867.json,1748249367.867,0.0,20.81093363242574,-69.05483736850248,94.58858678836634,-115.5400584003713,-90.00021755105197,110.8113687345297
/home/najo/NAS/DIP/datasets/Fr5_intertek_dataset/Fr5_intertek_7th_250526/left/zed_38007749_left_1748249367.867.jpg,38007749,left,1748249367.867,/home/najo/NAS/DIP/datasets/Fr5_intertek_dataset/Fr5_intertek_7th_250526/joint/joint_38007749_1748249367.867.json,1748249367.867,0.0,20.81093363242574,-69.05483736850248,94.58858678836634,-115.5400584003713,-90.00021755105197,110.8113687345297
/home/najo/NAS/DIP/datasets/Fr5_intertek_dataset/Fr5_intertek_7th_250526/top/zed_30779426_right_1748249367.871.jpg,30779426,right,1748249367.871,/home/najo/NAS/DIP/datasets/Fr5_intertek_dataset/Fr5_intertek_7th_250526/joint/joint_30779426_1748249367.871.json,1748249367.871,0.0,20.81049853032178,-69.02285736386139,94.6327496519183,-115.6164188196163,-90.00021755105197,110.8111511834777
/home/najo/NAS/DIP/datasets/Fr5_intertek_dataset/Fr5_intertek_7th_250526/top/zed_30779426_left_1748249367.871.jpg,30779426,left,1748249367.871,/home/najo/NAS/DIP/datasets/Fr5_intertek_dataset/Fr5_intertek_7th_250526/joint/joint_30779426_1748249367.871.json,1748249367.871,0.0,20.81049853032178,-69.02285736386139,94.6327496519183,-115.6164188196163,-90.00021755105197,110.8111511834777
/home/najo/NAS/DIP/datasets/Fr5_intertek_dataset/Fr5_intertek_7th_250526/right/zed_34850673_right_1748249367.996.jpg,34850673,right,1748249367.996,/home/najo/NAS/DIP/datasets/Fr5_intertek_dataset/Fr5_intertek_7th_250526/joint/joint_34850673_1748249367.996.json,1748249367.996,0.0,20.81071608137376,-68.42894299195545,95.39287302753714,-116.9611018719059,-90.00021755105197,110.8111511834777
/home/najo/NAS/DIP/datasets/Fr5_intertek_dataset/Fr5_intertek_7th_250526/right/zed_34850673_left_1748249367.996.jpg,34850673,left,1748249367.996,/home/najo/NAS/DIP/datasets/Fr5_intertek_dataset/Fr5_intertek_7th_250526/joint/joint_34850673_1748249367.996.json,1748249367.996,0.0,20.81071608137376,-68.42894299195545,95.39287302753714,-116.9611018719059,-90.00021755105197,110.8111511834777
/home/najo/NAS/DIP/datasets/Fr5_intertek_dataset/Fr5_intertek_7th_250526/left/zed_38007749_left_1748249368.002.jpg,38007749,left,1748249368.002,/home/najo/NAS/DIP/datasets/Fr5_intertek_dataset/Fr5_intertek_7th_250526/joint/joint_38007749_1748249368.002.json,1748249368.002,0.0,20.81049853032178,-68.4039246209777,95.42245997060644,-117.0128790222772,-90.00021755105197,110.8111511834777
/home/najo/NAS/DIP/datasets/Fr5_intertek_dataset/Fr5_intertek_7th_250526/left/zed_38007749_right_1748249368.002.jpg,38007749,right,1748249368.002,/home/najo/NAS/DIP/datasets/Fr5_intertek_dataset/Fr5_intertek_7th_250526/joint/joint_38007749_1748249368.002.json,1748249368.002,0.0,20.81049853032178,-68.4039246209777,95.42245997060644,-117.0128790222772,-90.00021755105197,110.8111511834777
/home/najo/NAS/DIP/datasets/Fr5_intertek_dataset/Fr5_intertek_7th_250526/top/zed_30779426_right_1748249368.010.jpg,30779426,right,1748249368.01,/home/najo/NAS/DIP/datasets/Fr5_intertek_dataset/Fr5_intertek_7th_250526/joint/joint_30779426_1748249368.010.json,1748249368.01,0.0,20.81071608137376,-68.3547580832302,95.48185140779702,-117.1257880182549,-90.00043510210396,110.8111511834777
/home/najo/NAS/DIP/datasets/Fr5_intertek_dataset/Fr5_intertek_7th_250526/top/zed_30779426_left_1748249368.010.jpg,30779426,left,1748249368.01,/home/najo/NAS/DIP/datasets/Fr5_intertek_dataset/Fr5_intertek_7th_250526/joint/joint_30779426_1748249368.010.json,1748249368.01,0.0,20.81071608137376,-68.3547580832302,95.48185140779702,-117.1257880182549,-90.00043510210396,110.8111511834777
/home/najo/NAS/DIP/datasets/Fr5_intertek_dataset/Fr5_intertek_7th_250526/right/zed_34850673_left_1748249368.134.jpg,34850673,left,1748249368.134,/home/najo/NAS/DIP/datasets/Fr5_intertek_dataset/Fr5_intertek_7th_250526/joint/joint_34850673_1748249368.134.json,1748249368.134,0.0,20.81093363242574,-67.73995881033416,96.17127069152228,-118.4269608601485,-90.00043510210396,110.8113687345297
/home/najo/NAS/DIP/datasets/Fr5_intertek_dataset/Fr5_intertek_7th_250526/right/zed_34850673_right_1748249368.134.jpg,34850673,right,1748249368.134,/home/najo/NAS/DIP/datasets/Fr5_intertek_dataset/Fr5_intertek_7th_250526/joint/joint_34850673_1748249368.134.json,1748249368.134,0.0,20.81093363242574,-67.73995881033416,96.17127069152228,-118.4269608601485,-90.00043510210396,110.8113687345297
/home/najo/NAS/DIP/datasets/Fr5_intertek_dataset/Fr5_intertek_7th_250526/left/zed_38007749_right_1748249368.139.jpg,38007749,right,1748249368.139,/home/najo/NAS/DIP/datasets/Fr5_intertek_dataset/Fr5_intertek_7th_250526/joint/joint_38007749_1748249368.139.json,1748249368.139,0.0,20.81093363242574,-67.70341023360149,96.20999477877476,-118.5057143409653,-90.00021755105197,110.8113687345297
/home/najo/NAS/DIP/datasets/Fr5_intertek_dataset/Fr5_intertek_7th_250526/left/zed_38007749_left_1748249368.139.jpg,38007749,left,1748249368.139,/home/najo/NAS/DIP/datasets/Fr5_intertek_dataset/Fr5_intertek_7th_250526/joint/joint_38007749_1748249368.139.json,1748249368.139,0.0,20.81093363242574,-67.70341023360149,96.20999477877476,-118.5057143409653,-90.00021755105197,110.8113687345297
/home/najo/NAS/DIP/datasets/Fr5_intertek_dataset/Fr5_intertek_7th_250526/top/zed_30779426_left_1748249368.148.jpg,30779426,left,1748249368.148,/home/najo/NAS/DIP/datasets/Fr5_intertek_dataset/Fr5_intertek_7th_250526/joint/joint_30779426_1748249368.148.json,1748249368.148,0.0,20.81093363242574,-67.65641920637377,96.26046662283416,-118.606875580136,-90.00043510210396,110.8111511834777
/home/najo/NAS/DIP/datasets/Fr5_intertek_dataset/Fr5_intertek_7th_250526/top/zed_30779426_right_1748249368.148.jpg,30779426,right,1748249368.148,/home/najo/NAS/DIP/datasets/Fr5_intertek_dataset/Fr5_intertek_7th_250526/joint/joint_30779426_1748249368.148.json,1748249368.148,0.0,20.81093363242574,-67.65641920637377,96.26046662283416,-118.606875580136,-90.00043510210396,110.8111511834777
/home/najo/NAS/DIP/datasets/Fr5_intertek_dataset/Fr5_intertek_7th_250526/right/zed_34850673_left_1748249368.269.jpg,34850673,left,1748249368.269,/home/najo/NAS/DIP/datasets/Fr5_intertek_dataset/Fr5_intertek_7th_250526/joint/joint_34850673_1748249368.269.json,1748249368.269,0.0,20.81115118347772,-67.05445544554455,96.89571569461634,-119.8336459622524,-90.00043510210396,110.8113687345297
/home/najo/NAS/DIP/datasets/Fr5_intertek_dataset/Fr5_intertek_7th_250526/right/zed_34850673_right_1748249368.269.jpg,34850673,right,1748249368.269,/home/najo/NAS/DIP/datasets/Fr5_intertek_dataset/Fr5_intertek_7th_250526/joint/joint_34850673_1748249368.269.json,1748249368.269,0.0,20.81115118347772,-67.05445544554455,96.89571569461634,-119.8336459622524,-90.00043510210396,110.8113687345297
/home/najo/NAS/DIP/datasets/Fr5_intertek_dataset/Fr5_intertek_7th_250526/left/zed_38007749_left_1748249368.275.jpg,38007749,left,1748249368.275,/home/najo/NAS/DIP/datasets/Fr5_intertek_dataset/Fr5_intertek_7th_250526/joint/joint_38007749_1748249368.275.json,1748249368.275,0.0,20.81093363242574,-66.98375135365097,96.96359162283416,-119.9733137376237,-90.00021755105197,110.8115862855817
/home/najo/NAS/DIP/datasets/Fr5_intertek_dataset/Fr5_intertek_7th_250526/left/zed_38007749_right_1748249368.275.jpg,38007749,right,1748249368.275,/home/najo/NAS/DIP/datasets/Fr5_intertek_dataset/Fr5_intertek_7th_250526/joint/joint_38007749_1748249368.275.json,1748249368.275,0.0,20.81093363242574,-66.98375135365097,96.96359162283416,-119.9733137376237,-90.00021755105197,110.8115862855817
/home/najo/NAS/DIP/datasets/Fr5_intertek_dataset/Fr5_intertek_7th_250526/top/zed_30779426_left_1748249368.286.jpg,30779426,left,1748249368.286,/home/najo/NAS/DIP/datasets/Fr5_intertek_dataset/Fr5_intertek_7th_250526/joint/joint_30779426_1748249368.286.json,1748249368.286,0.0,20.81071608137376,-66.92610032487623,97.02058999845298,-120.0881806930693,-90.00043510210396,110.8113687345297
/home/najo/NAS/DIP/datasets/Fr5_intertek_dataset/Fr5_intertek_7th_250526/top/zed_30779426_right_1748249368.286.jpg,30779426,right,1748249368.286,/home/najo/NAS/DIP/datasets/Fr5_intertek_dataset/Fr5_intertek_7th_250526/joint/joint_30779426_1748249368.286.json,1748249368.286,0.0,20.81071608137376,-66.92610032487623,97.02058999845298,-120.0881806930693,-90.00043510210396,110.8113687345297
/home/najo/NAS/DIP/datasets/Fr5_intertek_dataset/Fr5_intertek_7th_250526/right/zed_34850673_left_1748249368.400.jpg,34850673,left,1748249368.4,/home/najo/NAS/DIP/datasets/Fr5_intertek_dataset/Fr5_intertek_7th_250526/joint/joint_34850673_1748249368.400.json,1748249368.4,0.0,20.8102809792698,-66.37112759127476,97.54053701268565,-121.1615775835396,-90.00021755105197,110.8115862855817
/home/najo/NAS/DIP/datasets/Fr5_intertek_dataset/Fr5_intertek_7th_250526/right/zed_34850673_right_1748249368.400.jpg,34850673,right,1748249368.4,/home/najo/NAS/DIP/datasets/Fr5_intertek_dataset/Fr5_intertek_7th_250526/joint/joint_34850673_1748249368.400.json,1748249368.4,0.0,20.8102809792698,-66.37112759127476,97.54053701268565,-121.1615775835396,-90.00021755105197,110.8115862855817
/home/najo/NAS/DIP/datasets/Fr5_intertek_dataset/Fr5_intertek_7th_250526/left/zed_38007749_left_1748249368.413.jpg,38007749,left,1748249368.413,/home/najo/NAS/DIP/datasets/Fr5_intertek_dataset/Fr5_intertek_7th_250526/joint/joint_38007749_1748249368.413.json,1748249368.413,0.0,20.81049853032178,-66.32239615563118,97.58513497834159,-121.2627388227104,-90.00021755105197,110.8113687345297
/home/najo/NAS/DIP/datasets/Fr5_intertek_dataset/Fr5_intertek_7th_250526/left/zed_38007749_right_1748249368.413.jpg,38007749,right,1748249368.413,/home/najo/NAS/DIP/datasets/Fr5_intertek_dataset/Fr5_intertek_7th_250526/joint/joint_38007749_1748249368.413.json,1748249368.413,0.0,20.81049853032178,-66.32239615563118,97.58513497834159,-121.2627388227104,-90.00021755105197,110.8113687345297
/home/najo/NAS/DIP/datasets/Fr5_intertek_dataset/Fr5_intertek_7th_250526/top/zed_30779426_right_1748249368.423.jpg,30779426,right,1748249368.423,/home/najo/NAS/DIP/datasets/Fr5_intertek_dataset/Fr5_intertek_7th_250526/joint/joint_30779426_1748249368.423.json,1748249368.423,0.0,20.81071608137376,-66.2836720683787,97.6190729424505,-121.342797609839,-90.00021755105197,110.8113687345297
/home/najo/NAS/DIP/datasets/Fr5_intertek_dataset/Fr5_intertek_7th_250526/top/zed_30779426_left_1748249368.423.jpg,30779426,left,1748249368.423,/home/najo/NAS/DIP/datasets/Fr5_intertek_dataset/Fr5_intertek_7th_250526/joint/joint_30779426_1748249368.423.json,1748249368.423,0.0,20.81071608137376,-66.2836720683787,97.6190729424505,-121.342797609839,-90.00021755105197,110.8113687345297
/home/najo/NAS/DIP/datasets/Fr5_intertek_dataset/Fr5_intertek_7th_250526/right/zed_34850673_right_1748249368.536.jpg,34850673,right,1748249368.536,/home/najo/NAS/DIP/datasets/Fr5_intertek_dataset/Fr5_intertek_7th_250526/joint/joint_34850673_1748249368.536.json,1748249368.536,0.0,20.8102809792698,-66.10549775680693,97.7759272509282,-121.6706470451732,-90.00021755105197,110.8113687345297
/home/najo/NAS/DIP/datasets/Fr5_intertek_dataset/Fr5_intertek_7th_250526/right/zed_34850673_left_1748249368.536.jpg,34850673,left,1748249368.536,/home/najo/NAS/DIP/datasets/Fr5_intertek_dataset/Fr5_intertek_7th_250526/joint/joint_34850673_1748249368.536.json,1748249368.536,0.0,20.8102809792698,-66.10549775680693,97.7759272509282,-121.6706470451732,-90.00021755105197,110.8113687345297
/home/najo/NAS/DIP/datasets/Fr5_intertek_dataset/Fr5_intertek_7th_250526/left/zed_38007749_right_1748249368.551.jpg,38007749,right,1748249368.551,/home/najo/NAS/DIP/datasets/Fr5_intertek_dataset/Fr5_intertek_7th_250526/joint/joint_38007749_1748249368.551.json,1748249368.551,0.0,20.81049853032178,-66.10636796101485,97.7748394956683,-121.672169902537,-90.00021755105197,110.8113687345297
/home/najo/NAS/DIP/datasets/Fr5_intertek_dataset/Fr5_intertek_7th_250526/left/zed_38007749_left_1748249368.551.jpg,38007749,left,1748249368.551,/home/najo/NAS/DIP/datasets/Fr5_intertek_dataset/Fr5_intertek_7th_250526/joint/joint_38007749_1748249368.551.json,1748249368.551,0.0,20.81049853032178,-66.10636796101485,97.7748394956683,-121.672169902537,-90.00021755105197,110.8113687345297
/home/najo/NAS/DIP/datasets/Fr5_intertek_dataset/Fr5_intertek_7th_250526/top/zed_30779426_left_1748249368.560.jpg,30779426,left,1748249368.56,/home/najo/NAS/DIP/datasets/Fr5_intertek_dataset/Fr5_intertek_7th_250526/joint/joint_30779426_1748249368.560.json,1748249368.56,0.0,20.81071608137376,-66.10723816522275,97.77201133199257,-121.6680364325495,-90.00021755105197,110.8113687345297
/home/najo/NAS/DIP/datasets/Fr5_intertek_dataset/Fr5_intertek_7th_250526/top/zed_30779426_right_1748249368.560.jpg,30779426,right,1748249368.56,/home/najo/NAS/DIP/datasets/Fr5_intertek_dataset/Fr5_intertek_7th_250526/joint/joint_30779426_1748249368.560.json,1748249368.56,0.0,20.81071608137376,-66.10723816522275,97.77201133199257,-121.6680364325495,-90.00021755105197,110.8113687345297
/home/najo/NAS/DIP/datasets/Fr5_intertek_dataset/Fr5_intertek_7th_250526/right/zed_34850673_right_1748249368.673.jpg,34850673,right,1748249368.673,/home/najo/NAS/DIP/datasets/Fr5_intertek_dataset/Fr5_intertek_7th_250526/joint/joint_34850673_1748249368.673.json,1748249368.673,0.0,20.8102809792698,-66.30825533725248,97.57752069152228,-121.2401135133044,-90.00021755105197,110.8113687345297
/home/najo/NAS/DIP/datasets/Fr5_intertek_dataset/Fr5_intertek_7th_250526/right/zed_34850673_left_1748249368.673.jpg,34850673,left,1748249368.673,/home/najo/NAS/DIP/datasets/Fr5_intertek_dataset/Fr5_intertek_7th_250526/joint/joint_34850673_1748249368.673.json,1748249368.673,0.0,20.8102809792698,-66.30825533725248,97.57752069152228,-121.2401135133044,-90.00021755105197,110.8113687345297
/home/najo/NAS/DIP/datasets/Fr5_intertek_dataset/Fr5_intertek_7th_250526/left/zed_38007749_left_1748249368.687.jpg,38007749,left,1748249368.687,/home/najo/NAS/DIP/datasets/Fr5_intertek_dataset/Fr5_intertek_7th_250526/joint/joint_38007749_1748249368.687.json,1748249368.687,0.0,20.8102809792698,-66.3604675897277,97.53161741955445,-121.144608601485,-90.00021755105197,110.8115862855817
/home/najo/NAS/DIP/datasets/Fr5_intertek_dataset/Fr5_intertek_7th_250526/left/zed_38007749_right_1748249368.687.jpg,38007749,right,1748249368.687,/home/najo/NAS/DIP/datasets/Fr5_intertek_dataset/Fr5_intertek_7th_250526/joint/joint_38007749_1748249368.687.json,1748249368.687,0.0,20.8102809792698,-66.3604675897277,97.53161741955445,-121.144608601485,-90.00021755105197,110.8115862855817
/home/najo/NAS/DIP/datasets/Fr5_intertek_dataset/Fr5_intertek_7th_250526/top/zed_30779426_right_1748249368.698.jpg,30779426,right,1748249368.698,/home/najo/NAS/DIP/datasets/Fr5_intertek_dataset/Fr5_intertek_7th_250526/joint/joint_30779426_1748249368.698.json,1748249368.698,0.0,20.81049853032178,-66.40223739170793,97.49267578125,-121.0634620590965,-90.00043510210396,110.8113687345297
/home/najo/NAS/DIP/datasets/Fr5_intertek_dataset/Fr5_intertek_7th_250526/top/zed_30779426_left_1748249368.698.jpg,30779426,left,1748249368.698,/home/najo/NAS/DIP/datasets/Fr5_intertek_dataset/Fr5_intertek_7th_250526/joint/joint_30779426_1748249368.698.json,1748249368.698,0.0,20.81049853032178,-66.40223739170793,97.49267578125,-121.0634620590965,-90.00043510210396,110.8113687345297
/home/najo/NAS/DIP/datasets/Fr5_intertek_dataset/Fr5_intertek_7th_250526/right/zed_34850673_left_1748249368.810.jpg,34850673,left,1748249368.81,/home/najo/NAS/DIP/datasets/Fr5_intertek_dataset/Fr5_intertek_7th_250526/joint/joint_34850673_1748249368.810.json,1748249368.81,0.0,20.81093363242574,-67.0725121828589,96.86460589418317,-119.7923112623762,-90.0,110.8113687345297
/home/najo/NAS/DIP/datasets/Fr5_intertek_dataset/Fr5_intertek_7th_250526/right/zed_34850673_right_1748249368.810.jpg,34850673,right,1748249368.81,/home/najo/NAS/DIP/datasets/Fr5_intertek_dataset/Fr5_intertek_7th_250526/joint/joint_34850673_1748249368.810.json,1748249368.81,0.0,20.81093363242574,-67.0725121828589,96.86460589418317,-119.7923112623762,-90.0,110.8113687345297
/home/najo/NAS/DIP/datasets/Fr5_intertek_dataset/Fr5_intertek_7th_250526/left/zed_38007749_left_1748249368.825.jpg,38007749,left,1748249368.825,/home/najo/NAS/DIP/datasets/Fr5_intertek_dataset/Fr5_intertek_7th_250526/joint/joint_38007749_1748249368.825.json,1748249368.825,0.0,20.81115118347772,-67.15844484839108,96.77649771813118,-119.617617767636,-90.00021755105197,110.8113687345297
/home/najo/NAS/DIP/datasets/Fr5_intertek_dataset/Fr5_intertek_7th_250526/left/zed_38007749_right_1748249368.825.jpg,38007749,right,1748249368.825,/home/najo/NAS/DIP/datasets/Fr5_intertek_dataset/Fr5_intertek_7th_250526/joint/joint_38007749_1748249368.825.json,1748249368.825,0.0,20.81115118347772,-67.15844484839108,96.77649771813118,-119.617617767636,-90.00021755105197,110.8113687345297
/home/najo/NAS/DIP/datasets/Fr5_intertek_dataset/Fr5_intertek_7th_250526/top/zed_30779426_left_1748249368.836.jpg,30779426,left,1748249368.836,/home/najo/NAS/DIP/datasets/Fr5_intertek_dataset/Fr5_intertek_7th_250526/joint/joint_30779426_1748249368.836.json,1748249368.836,0.0,20.81093363242574,-67.2317595529084,96.70296546256186,-119.464461827042,-90.00043510210396,110.8113687345297
/home/najo/NAS/DIP/datasets/Fr5_intertek_dataset/Fr5_intertek_7th_250526/top/zed_30779426_right_1748249368.836.jpg,30779426,right,1748249368.836,/home/najo/NAS/DIP/datasets/Fr5_intertek_dataset/Fr5_intertek_7th_250526/joint/joint_30779426_1748249368.836.json,1748249368.836,0.0,20.81093363242574,-67.2317595529084,96.70296546256186,-119.464461827042,-90.00043510210396,110.8113687345297
/home/najo/NAS/DIP/datasets/Fr5_intertek_dataset/Fr5_intertek_7th_250526/right/zed_34850673_right_1748249368.950.jpg,34850673,right,1748249368.95,/home/najo/NAS/DIP/datasets/Fr5_intertek_dataset/Fr5_intertek_7th_250526/joint/joint_34850673_1748249368.950.json,1748249368.95,0.0,20.81115118347772,-67.9692576191213,95.92108698174505,-117.9448677289604,-90.0,110.8113687345297
/home/najo/NAS/DIP/datasets/Fr5_intertek_dataset/Fr5_intertek_7th_250526/right/zed_34850673_left_1748249368.950.jpg,34850673,left,1748249368.95,/home/najo/NAS/DIP/datasets/Fr5_intertek_dataset/Fr5_intertek_7th_250526/joint/joint_34850673_1748249368.950.json,1748249368.95,0.0,20.81115118347772,-67.9692576191213,95.92108698174505,-117.9448677289604,-90.0,110.8113687345297
/home/najo/NAS/DIP/datasets/Fr5_intertek_dataset/Fr5_intertek_7th_250526/left/zed_38007749_right_1748249368.962.jpg,38007749,right,1748249368.962,/home/najo/NAS/DIP/datasets/Fr5_intertek_dataset/Fr5_intertek_7th_250526/joint/joint_38007749_1748249368.962.json,1748249368.962,0.0,20.81093363242574,-68.0547551825495,95.8281926825495,-117.7693040300124,-90.00021755105197,110.8113687345297
/home/najo/NAS/DIP/datasets/Fr5_intertek_dataset/Fr5_intertek_7th_250526/left/zed_38007749_left_1748249368.962.jpg,38007749,left,1748249368.962,/home/najo/NAS/DIP/datasets/Fr5_intertek_dataset/Fr5_intertek_7th_250526/joint/joint_38007749_1748249368.962.json,1748249368.962,0.0,20.81093363242574,-68.0547551825495,95.8281926825495,-117.7693040300124,-90.00021755105197,110.8113687345297
/home/najo/NAS/DIP/datasets/Fr5_intertek_dataset/Fr5_intertek_7th_250526/top/zed_30779426_left_1748249368.973.jpg,30779426,left,1748249368.973,/home/najo/NAS/DIP/datasets/Fr5_intertek_dataset/Fr5_intertek_7th_250526/joint/joint_30779426_1748249368.973.json,1748249368.973,0.0,20.81115118347772,-68.11240621132426,95.7611869585396,-117.640731358292,-90.00021755105197,110.8115862855817
/home/najo/NAS/DIP/datasets/Fr5_intertek_dataset/Fr5_intertek_7th_250526/top/zed_30779426_right_1748249368.973.jpg,30779426,right,1748249368.973,/home/najo/NAS/DIP/datasets/Fr5_intertek_dataset/Fr5_intertek_7th_250526/joint/joint_30779426_1748249368.973.json,1748249368.973,0.0,20.81115118347772,-68.11240621132426,95.7611869585396,-117.640731358292,-90.00021755105197,110.8115862855817
/home/najo/NAS/DIP/datasets/Fr5_intertek_dataset/Fr5_intertek_7th_250526/right/zed_34850673_right_1748249369.088.jpg,34850673,right,1748249369.088,/home/najo/NAS/DIP/datasets/Fr5_intertek_dataset/Fr5_intertek_7th_250526/joint/joint_34850673_1748249369.088.json,1748249369.088,0.0,20.81202138768564,-68.84011448019803,94.87379621751238,-116.0378152073019,-90.00021755105197,110.8115862855817
/home/najo/NAS/DIP/datasets/Fr5_intertek_dataset/Fr5_intertek_7th_250526/right/zed_34850673_left_1748249369.088.jpg,34850673,left,1748249369.088,/home/najo/NAS/DIP/datasets/Fr5_intertek_dataset/Fr5_intertek_7th_250526/joint/joint_34850673_1748249369.088.json,1748249369.088,0.0,20.81202138768564,-68.84011448019803,94.87379621751238,-116.0378152073019,-90.00021755105197,110.8115862855817
/home/najo/NAS/DIP/datasets/Fr5_intertek_dataset/Fr5_intertek_7th_250526/left/zed_38007749_left_1748249369.101.jpg,38007749,left,1748249369.101,/home/najo/NAS/DIP/datasets/Fr5_intertek_dataset/Fr5_intertek_7th_250526/joint/joint_38007749_1748249369.101.json,1748249369.101,0.0,20.81180383663366,-68.90494469368812,94.78808110303218,-115.8792204904084,-90.00043510210396,110.8113687345297
/home/najo/NAS/DIP/datasets/Fr5_intertek_dataset/Fr5_intertek_7th_250526/left/zed_38007749_right_1748249369.101.jpg,38007749,right,1748249369.101,/home/najo/NAS/DIP/datasets/Fr5_intertek_dataset/Fr5_intertek_7th_250526/joint/joint_38007749_1748249369.101.json,1748249369.101,0.0,20.81180383663366,-68.90494469368812,94.78808110303218,-115.8792204904084,-90.00043510210396,110.8113687345297
/home/najo/NAS/DIP/datasets/Fr5_intertek_dataset/Fr5_intertek_7th_250526/top/zed_30779426_left_1748249369.109.jpg,30779426,left,1748249369.109,/home/najo/NAS/DIP/datasets/Fr5_intertek_dataset/Fr5_intertek_7th_250526/joint/joint_30779426_1748249369.109.json,1748249369.109,0.0,20.81158628558168,-68.9645536819307,94.71041537747524,-115.740858021349,-90.00021755105197,110.8113687345297
/home/najo/NAS/DIP/datasets/Fr5_intertek_dataset/Fr5_intertek_7th_250526/top/zed_30779426_right_1748249369.109.jpg,30779426,right,1748249369.109,/home/najo/NAS/DIP/datasets/Fr5_intertek_dataset/Fr5_intertek_7th_250526/joint/joint_30779426_1748249369.109.json,1748249369.109,0.0,20.81158628558168,-68.9645536819307,94.71041537747524,-115.740858021349,-90.00021755105197,110.8113687345297
/home/najo/NAS/DIP/datasets/Fr5_intertek_dataset/Fr5_intertek_7th_250526/right/zed_34850673_left_1748249369.226.jpg,34850673,left,1748249369.226,/home/najo/NAS/DIP/datasets/Fr5_intertek_dataset/Fr5_intertek_7th_250526/joint/joint_34850673_1748249369.226.json,1748249369.226,0.0,20.81115118347772,-69.6159015315594,93.81171198174505,-114.202554532797,-90.00021755105197,110.8115862855817
/home/najo/NAS/DIP/datasets/Fr5_intertek_dataset/Fr5_intertek_7th_250526/right/zed_34850673_right_1748249369.226.jpg,34850673,right,1748249369.226,/home/najo/NAS/DIP/datasets/Fr5_intertek_dataset/Fr5_intertek_7th_250526/joint/joint_34850673_1748249369.226.json,1748249369.226,0.0,20.81115118347772,-69.6159015315594,93.81171198174505,-114.202554532797,-90.00021755105197,110.8115862855817
/home/najo/NAS/DIP/datasets/Fr5_intertek_dataset/Fr5_intertek_7th_250526/left/zed_38007749_left_1748249369.238.jpg,38007749,left,1748249369.238,/home/najo/NAS/DIP/datasets/Fr5_intertek_dataset/Fr5_intertek_7th_250526/joint/joint_38007749_1748249369.238.json,1748249369.238,0.0,20.81158628558168,-69.69552521658416,93.69597482209159,-114.004147973391,-90.0,110.8115862855817
/home/najo/NAS/DIP/datasets/Fr5_intertek_dataset/Fr5_intertek_7th_250526/left/zed_38007749_right_1748249369.238.jpg,38007749,right,1748249369.238,/home/najo/NAS/DIP/datasets/Fr5_intertek_dataset/Fr5_intertek_7th_250526/joint/joint_38007749_1748249369.238.json,1748249369.238,0.0,20.81158628558168,-69.69552521658416,93.69597482209159,-114.004147973391,-90.0,110.8115862855817
/home/najo/NAS/DIP/datasets/Fr5_intertek_dataset/Fr5_intertek_7th_250526/top/zed_30779426_left_1748249369.249.jpg,30779426,left,1748249369.249,/home/najo/NAS/DIP/datasets/Fr5_intertek_dataset/Fr5_intertek_7th_250526/joint/joint_30779426_1748249369.249.json,1748249369.249,0.0,20.81180383663366,-69.74512685643565,93.62418297493812,-113.8768806079826,-90.00021755105197,110.8115862855817
/home/najo/NAS/DIP/datasets/Fr5_intertek_dataset/Fr5_intertek_7th_250526/top/zed_30779426_right_1748249369.249.jpg,30779426,right,1748249369.249,/home/najo/NAS/DIP/datasets/Fr5_intertek_dataset/Fr5_intertek_7th_250526/joint/joint_30779426_1748249369.249.json,1748249369.249,0.0,20.81180383663366,-69.74512685643565,93.62418297493812,-113.8768806079826,-90.00021755105197,110.8115862855817
/home/najo/NAS/DIP/datasets/Fr5_intertek_dataset/Fr5_intertek_7th_250526/right/zed_34850673_left_1748249369.362.jpg,34850673,left,1748249369.362,/home/najo/NAS/DIP/datasets/Fr5_intertek_dataset/Fr5_intertek_7th_250526/joint/joint_34850673_1748249369.362.json,1748249369.362,0.0,20.81158628558168,-70.41213838180693,92.57167098545793,-112.1517007657797,-90.00043510210396,110.8115862855817
/home/najo/NAS/DIP/datasets/Fr5_intertek_dataset/Fr5_intertek_7th_250526/right/zed_34850673_right_1748249369.362.jpg,34850673,right,1748249369.362,/home/najo/NAS/DIP/datasets/Fr5_intertek_dataset/Fr5_intertek_7th_250526/joint/joint_34850673_1748249369.362.json,1748249369.362,0.0,20.81158628558168,-70.41213838180693,92.57167098545793,-112.1517007657797,-90.00043510210396,110.8115862855817
/home/najo/NAS/DIP/datasets/Fr5_intertek_dataset/Fr5_intertek_7th_250526/left/zed_38007749_left_1748249369.379.jpg,38007749,left,1748249369.379,/home/najo/NAS/DIP/datasets/Fr5_intertek_dataset/Fr5_intertek_7th_250526/joint/joint_38007749_1748249369.379.json,1748249369.379,0.0,20.81158628558168,-70.42693185334159,92.54621751237623,-112.1116713722153,-90.00043510210396,110.8115862855817
/home/najo/NAS/DIP/datasets/Fr5_intertek_dataset/Fr5_intertek_7th_250526/left/zed_38007749_right_1748249369.379.jpg,38007749,right,1748249369.379,/home/najo/NAS/DIP/datasets/Fr5_intertek_dataset/Fr5_intertek_7th_250526/joint/joint_38007749_1748249369.379.json,1748249369.379,0.0,20.81158628558168,-70.42693185334159,92.54621751237623,-112.1116713722153,-90.00043510210396,110.8115862855817
/home/najo/NAS/DIP/datasets/Fr5_intertek_dataset/Fr5_intertek_7th_250526/top/zed_30779426_left_1748249369.386.jpg,30779426,left,1748249369.386,/home/najo/NAS/DIP/datasets/Fr5_intertek_dataset/Fr5_intertek_7th_250526/joint/joint_30779426_1748249369.386.json,1748249369.386,0.0,20.81158628558168,-70.48023186107673,92.4509301516089,-111.9648244121287,-90.00021755105197,110.8115862855817
/home/najo/NAS/DIP/datasets/Fr5_intertek_dataset/Fr5_intertek_7th_250526/top/zed_30779426_right_1748249369.386.jpg,30779426,right,1748249369.386,/home/najo/NAS/DIP/datasets/Fr5_intertek_dataset/Fr5_intertek_7th_250526/joint/joint_30779426_1748249369.386.json,1748249369.386,0.0,20.81158628558168,-70.48023186107673,92.4509301516089,-111.9648244121287,-90.00021755105197,110.8115862855817
/home/najo/NAS/DIP/datasets/Fr5_intertek_dataset/Fr5_intertek_7th_250526/right/zed_34850673_right_1748249369.510.jpg,34850673,right,1748249369.51,/home/najo/NAS/DIP/datasets/Fr5_intertek_dataset/Fr5_intertek_7th_250526/joint/joint_34850673_1748249369.510.json,1748249369.51,0.0,20.81202138768564,-71.09503113397275,91.33119488706683,-110.235293548886,-90.00021755105197,110.8115862855817
/home/najo/NAS/DIP/datasets/Fr5_intertek_dataset/Fr5_intertek_7th_250526/right/zed_34850673_left_1748249369.510.jpg,34850673,left,1748249369.51,/home/najo/NAS/DIP/datasets/Fr5_intertek_dataset/Fr5_intertek_7th_250526/joint/joint_34850673_1748249369.510.json,1748249369.51,0.0,20.81202138768564,-71.09503113397275,91.33119488706683,-110.235293548886,-90.00021755105197,110.8115862855817
/home/najo/NAS/DIP/datasets/Fr5_intertek_dataset/Fr5_intertek_7th_250526/left/zed_38007749_left_1748249369.517.jpg,38007749,left,1748249369.517,/home/najo/NAS/DIP/datasets/Fr5_intertek_dataset/Fr5_intertek_7th_250526/joint/joint_34850673_1748249369.510.json,1748249369.51,0.006999969482421875,20.81202138768564,-71.09503113397275,91.33119488706683,-110.235293548886,-90.00021755105197,110.8115862855817
/home/najo/NAS/DIP/datasets/Fr5_intertek_dataset/Fr5_intertek_7th_250526/left/zed_38007749_right_1748249369.517.jpg,38007749,right,1748249369.517,/home/najo/NAS/DIP/datasets/Fr5_intertek_dataset/Fr5_intertek_7th_250526/joint/joint_34850673_1748249369.510.json,1748249369.51,0.006999969482421875,20.81202138768564,-71.09503113397275,91.33119488706683,-110.235293548886,-90.00021755105197,110.8115862855817
/home/najo/NAS/DIP/datasets/Fr5_intertek_dataset/Fr5_intertek_7th_250526/top/zed_30779426_left_1748249369.524.jpg,30779426,left,1748249369.524,/home/najo/NAS/DIP/datasets/Fr5_intertek_dataset/Fr5_intertek_7th_250526/joint/joint_30779426_1748249369.524.json,1748249369.524,0.0,20.81158628558168,-71.14006420173267,91.24004099628714,-110.0991065903465,-90.00043510210396,110.8115862855817
/home/najo/NAS/DIP/datasets/Fr5_intertek_dataset/Fr5_intertek_7th_250526/top/zed_30779426_right_1748249369.524.jpg,30779426,right,1748249369.524,/home/najo/NAS/DIP/datasets/Fr5_intertek_dataset/Fr5_intertek_7th_250526/joint/joint_30779426_1748249369.524.json,1748249369.524,0.0,20.81158628558168,-71.14006420173267,91.24004099628714,-110.0991065903465,-90.00043510210396,110.8115862855817
/home/najo/NAS/DIP/datasets/Fr5_intertek_dataset/Fr5_intertek_7th_250526/left/zed_38007749_right_1748249369.653.jpg,38007749,right,1748249369.653,/home/najo/NAS/DIP/datasets/Fr5_intertek_dataset/Fr5_intertek_7th_250526/joint/joint_34850673_1748249369.659.json,1748249369.659,0.00599980354309082,20.81202138768564,-71.76748143564356,89.91493753867574,-108.1448454904084,-90.00043510210396,110.8115862855817
/home/najo/NAS/DIP/datasets/Fr5_intertek_dataset/Fr5_intertek_7th_250526/left/zed_38007749_left_1748249369.653.jpg,38007749,left,1748249369.653,/home/najo/NAS/DIP/datasets/Fr5_intertek_dataset/Fr5_intertek_7th_250526/joint/joint_34850673_1748249369.659.json,1748249369.659,0.00599980354309082,20.81202138768564,-71.76748143564356,89.91493753867574,-108.1448454904084,-90.00043510210396,110.8115862855817
/home/najo/NAS/DIP/datasets/Fr5_intertek_dataset/Fr5_intertek_7th_250526/right/zed_34850673_left_1748249369.659.jpg,34850673,left,1748249369.659,/home/najo/NAS/DIP/datasets/Fr5_intertek_dataset/Fr5_intertek_7th_250526/joint/joint_34850673_1748249369.659.json,1748249369.659,0.0,20.81202138768564,-71.76748143564356,89.91493753867574,-108.1448454904084,-90.00043510210396,110.8115862855817
/home/najo/NAS/DIP/datasets/Fr5_intertek_dataset/Fr5_intertek_7th_250526/right/zed_34850673_right_1748249369.659.jpg,34850673,right,1748249369.659,/home/najo/NAS/DIP/datasets/Fr5_intertek_dataset/Fr5_intertek_7th_250526/joint/joint_34850673_1748249369.659.json,1748249369.659,0.0,20.81202138768564,-71.76748143564356,89.91493753867574,-108.1448454904084,-90.00043510210396,110.8115862855817
/home/najo/NAS/DIP/datasets/Fr5_intertek_dataset/Fr5_intertek_7th_250526/top/zed_30779426_left_1748249369.663.jpg,30779426,left,1748249369.663,/home/najo/NAS/DIP/datasets/Fr5_intertek_dataset/Fr5_intertek_7th_250526/joint/joint_30779426_1748249369.663.json,1748249369.663,0.0,20.81180383663366,-71.75551612778466,89.9427840733292,-108.1874854965965,-90.00021755105197,110.8115862855817
/home/najo/NAS/DIP/datasets/Fr5_intertek_dataset/Fr5_intertek_7th_250526/top/zed_30779426_right_1748249369.663.jpg,30779426,right,1748249369.663,/home/najo/NAS/DIP/datasets/Fr5_intertek_dataset/Fr5_intertek_7th_250526/joint/joint_30779426_1748249369.663.json,1748249369.663,0.0,20.81180383663366,-71.75551612778466,89.9427840733292,-108.1874854965965,-90.00021755105197,110.8115862855817
/home/najo/NAS/DIP/datasets/Fr5_intertek_dataset/Fr5_intertek_7th_250526/left/zed_38007749_right_1748249369.803.jpg,38007749,right,1748249369.803,/home/najo/NAS/DIP/datasets/Fr5_intertek_dataset/Fr5_intertek_7th_250526/joint/joint_34850673_1748249369.807.json,1748249369.807,0.003999948501586914,20.81158628558168,-72.3198435566213,88.55720142326733,-106.2330068456064,-90.00021755105197,110.8115862855817
/home/najo/NAS/DIP/datasets/Fr5_intertek_dataset/Fr5_intertek_7th_250526/left/zed_38007749_left_1748249369.803.jpg,38007749,left,1748249369.803,/home/najo/NAS/DIP/datasets/Fr5_intertek_dataset/Fr5_intertek_7th_250526/joint/joint_34850673_1748249369.807.json,1748249369.807,0.003999948501586914,20.81158628558168,-72.3198435566213,88.55720142326733,-106.2330068456064,-90.00021755105197,110.8115862855817
/home/najo/NAS/DIP/datasets/Fr5_intertek_dataset/Fr5_intertek_7th_250526/right/zed_34850673_right_1748249369.807.jpg,34850673,right,1748249369.807,/home/najo/NAS/DIP/datasets/Fr5_intertek_dataset/Fr5_intertek_7th_250526/joint/joint_34850673_1748249369.807.json,1748249369.807,0.0,20.81158628558168,-72.3198435566213,88.55720142326733,-106.2330068456064,-90.00021755105197,110.8115862855817
/home/najo/NAS/DIP/datasets/Fr5_intertek_dataset/Fr5_intertek_7th_250526/right/zed_34850673_left_1748249369.807.jpg,34850673,left,1748249369.807,/home/najo/NAS/DIP/datasets/Fr5_intertek_dataset/Fr5_intertek_7th_250526/joint/joint_34850673_1748249369.807.json,1748249369.807,0.0,20.81158628558168,-72.3198435566213,88.55720142326733,-106.2330068456064,-90.00021755105197,110.8115862855817
/home/najo/NAS/DIP/datasets/Fr5_intertek_dataset/Fr5_intertek_7th_250526/top/zed_30779426_left_1748249369.811.jpg,30779426,left,1748249369.811,/home/najo/NAS/DIP/datasets/Fr5_intertek_dataset/Fr5_intertek_7th_250526/joint/joint_30779426_1748249369.811.json,1748249369.811,0.0,20.81180383663366,-72.34203376392327,88.49519937345298,-106.148597037438,-90.00043510210396,110.8115862855817
/home/najo/NAS/DIP/datasets/Fr5_intertek_dataset/Fr5_intertek_7th_250526/top/zed_30779426_right_1748249369.811.jpg,30779426,right,1748249369.811,/home/najo/NAS/DIP/datasets/Fr5_intertek_dataset/Fr5_intertek_7th_250526/joint/joint_30779426_1748249369.811.json,1748249369.811,0.0,20.81180383663366,-72.34203376392327,88.49519937345298,-106.148597037438,-90.00043510210396,110.8115862855817
/home/najo/NAS/DIP/datasets/Fr5_intertek_dataset/Fr5_intertek_7th_250526/right/zed_34850673_left_1748249369.943.jpg,34850673,left,1748249369.943,/home/najo/NAS/DIP/datasets/Fr5_intertek_dataset/Fr5_intertek_7th_250526/joint/joint_34850673_1748249369.943.json,1748249369.943,0.0,20.81158628558168,-72.80998607673267,87.13311223700495,-104.3196453434406,-90.00043510210396,110.8115862855817
/home/najo/NAS/DIP/datasets/Fr5_intertek_dataset/Fr5_intertek_7th_250526/right/zed_34850673_right_1748249369.943.jpg,34850673,right,1748249369.943,/home/najo/NAS/DIP/datasets/Fr5_intertek_dataset/Fr5_intertek_7th_250526/joint/joint_34850673_1748249369.943.json,1748249369.943,0.0,20.81158628558168,-72.80998607673267,87.13311223700495,-104.3196453434406,-90.00043510210396,110.8115862855817
/home/najo/NAS/DIP/datasets/Fr5_intertek_dataset/Fr5_intertek_7th_250526/left/zed_38007749_right_1748249369.949.jpg,38007749,right,1748249369.949,/home/najo/NAS/DIP/datasets/Fr5_intertek_dataset/Fr5_intertek_7th_250526/joint/joint_38007749_1748249369.949.json,1748249369.949,0.0,20.81158628558168,-72.81999342512377,87.10243753867574,-104.280486154084,-90.00021755105197,110.8115862855817
/home/najo/NAS/DIP/datasets/Fr5_intertek_dataset/Fr5_intertek_7th_250526/left/zed_38007749_left_1748249369.949.jpg,38007749,left,1748249369.949,/home/najo/NAS/DIP/datasets/Fr5_intertek_dataset/Fr5_intertek_7th_250526/joint/joint_38007749_1748249369.949.json,1748249369.949,0.0,20.81158628558168,-72.81999342512377,87.10243753867574,-104.280486154084,-90.00021755105197,110.8115862855817
/home/najo/NAS/DIP/datasets/Fr5_intertek_dataset/Fr5_intertek_7th_250526/top/zed_30779426_left_1748249369.953.jpg,30779426,left,1748249369.953,/home/najo/NAS/DIP/datasets/Fr5_intertek_dataset/Fr5_intertek_7th_250526/joint/joint_30779426_1748249369.953.json,1748249369.953,0.0,20.81180383663366,-72.83239383508663,87.06088528774752,-104.227186146349,-90.00021755105197,110.8115862855817
/home/najo/NAS/DIP/datasets/Fr5_intertek_dataset/Fr5_intertek_7th_250526/top/zed_30779426_right_1748249369.953.jpg,30779426,right,1748249369.953,/home/najo/NAS/DIP/datasets/Fr5_intertek_dataset/Fr5_intertek_7th_250526/joint/joint_30779426_1748249369.953.json,1748249369.953,0.0,20.81180383663366,-72.83239383508663,87.06088528774752,-104.227186146349,-90.00021755105197,110.8115862855817
/home/najo/NAS/DIP/datasets/Fr5_intertek_dataset/Fr5_intertek_7th_250526/right/zed_34850673_right_1748249370.082.jpg,34850673,right,1748249370.082,/home/najo/NAS/DIP/datasets/Fr5_intertek_dataset/Fr5_intertek_7th_250526/joint/joint_34850673_1748249370.082.json,1748249370.082,0.0,20.8113687345297,-73.24378287438118,85.62765895730197,-102.3847462871287,-90.00043510210396,110.8115862855817
/home/najo/NAS/DIP/datasets/Fr5_intertek_dataset/Fr5_intertek_7th_250526/right/zed_34850673_left_1748249370.082.jpg,34850673,left,1748249370.082,/home/najo/NAS/DIP/datasets/Fr5_intertek_dataset/Fr5_intertek_7th_250526/joint/joint_34850673_1748249370.082.json,1748249370.082,0.0,20.8113687345297,-73.24378287438118,85.62765895730197,-102.3847462871287,-90.00043510210396,110.8115862855817
/home/najo/NAS/DIP/datasets/Fr5_intertek_dataset/Fr5_intertek_7th_250526/left/zed_38007749_left_1748249370.087.jpg,38007749,left,1748249370.087,/home/najo/NAS/DIP/datasets/Fr5_intertek_dataset/Fr5_intertek_7th_250526/joint/joint_38007749_1748249370.087.json,1748249370.087,0.0,20.81093363242574,-73.25248491646039,85.5954614016089,-102.3403658725247,-90.00065265315594,110.8115862855817
/home/najo/NAS/DIP/datasets/Fr5_intertek_dataset/Fr5_intertek_7th_250526/left/zed_38007749_right_1748249370.087.jpg,38007749,right,1748249370.087,/home/najo/NAS/DIP/datasets/Fr5_intertek_dataset/Fr5_intertek_7th_250526/joint/joint_38007749_1748249370.087.json,1748249370.087,0.0,20.81093363242574,-73.25248491646039,85.5954614016089,-102.3403658725247,-90.00065265315594,110.8115862855817
/home/najo/NAS/DIP/datasets/Fr5_intertek_dataset/Fr5_intertek_7th_250526/top/zed_30779426_left_1748249370.092.jpg,30779426,left,1748249370.092,/home/najo/NAS/DIP/datasets/Fr5_intertek_dataset/Fr5_intertek_7th_250526/joint/joint_30779426_1748249370.092.json,1748249370.092,0.0,20.81115118347772,-73.27054165377476,85.53324180074257,-102.259436881188,-90.00021755105197,110.8115862855817
/home/najo/NAS/DIP/datasets/Fr5_intertek_dataset/Fr5_intertek_7th_250526/top/zed_30779426_right_1748249370.092.jpg,30779426,right,1748249370.092,/home/najo/NAS/DIP/datasets/Fr5_intertek_dataset/Fr5_intertek_7th_250526/joint/joint_30779426_1748249370.092.json,1748249370.092,0.0,20.81115118347772,-73.27054165377476,85.53324180074257,-102.259436881188,-90.00021755105197,110.8115862855817
/home/najo/NAS/DIP/datasets/Fr5_intertek_dataset/Fr5_intertek_7th_250526/right/zed_34850673_left_1748249370.220.jpg,34850673,left,1748249370.22,/home/najo/NAS/DIP/datasets/Fr5_intertek_dataset/Fr5_intertek_7th_250526/joint/joint_34850673_1748249370.220.json,1748249370.22,0.0,20.81223893873762,-73.60644047803218,84.11024036974008,-100.5053227490718,-90.00021755105197,110.8115862855817
/home/najo/NAS/DIP/datasets/Fr5_intertek_dataset/Fr5_intertek_7th_250526/right/zed_34850673_right_1748249370.220.jpg,34850673,right,1748249370.22,/home/najo/NAS/DIP/datasets/Fr5_intertek_dataset/Fr5_intertek_7th_250526/joint/joint_34850673_1748249370.220.json,1748249370.22,0.0,20.81223893873762,-73.60644047803218,84.11024036974008,-100.5053227490718,-90.00021755105197,110.8115862855817
/home/najo/NAS/DIP/datasets/Fr5_intertek_dataset/Fr5_intertek_7th_250526/left/zed_38007749_left_1748249370.224.jpg,38007749,left,1748249370.224,/home/najo/NAS/DIP/datasets/Fr5_intertek_dataset/Fr5_intertek_7th_250526/joint/joint_38007749_1748249370.224.json,1748249370.224,0.0,20.81289159189356,-73.62906578743812,84.00494566058168,-100.3747921178836,-89.99978244894803,110.8115862855817
/home/najo/NAS/DIP/datasets/Fr5_intertek_dataset/Fr5_intertek_7th_250526/left/zed_38007749_right_1748249370.224.jpg,38007749,right,1748249370.224,/home/najo/NAS/DIP/datasets/Fr5_intertek_dataset/Fr5_intertek_7th_250526/joint/joint_38007749_1748249370.224.json,1748249370.224,0.0,20.81289159189356,-73.62906578743812,84.00494566058168,-100.3747921178836,-89.99978244894803,110.8115862855817
/home/najo/NAS/DIP/datasets/Fr5_intertek_dataset/Fr5_intertek_7th_250526/top/zed_30779426_right_1748249370.229.jpg,30779426,right,1748249370.229,/home/najo/NAS/DIP/datasets/Fr5_intertek_dataset/Fr5_intertek_7th_250526/joint/joint_30779426_1748249370.229.json,1748249370.229,0.0,20.81310914294554,-73.6336343595297,83.9816676980198,-100.348685991646,-89.99978244894803,110.8115862855817
/home/najo/NAS/DIP/datasets/Fr5_intertek_dataset/Fr5_intertek_7th_250526/top/zed_30779426_left_1748249370.229.jpg,30779426,left,1748249370.229,/home/najo/NAS/DIP/datasets/Fr5_intertek_dataset/Fr5_intertek_7th_250526/joint/joint_30779426_1748249370.229.json,1748249370.229,0.0,20.81310914294554,-73.6336343595297,83.9816676980198,-100.348685991646,-89.99978244894803,110.8115862855817
/home/najo/NAS/DIP/datasets/Fr5_intertek_dataset/Fr5_intertek_7th_250526/right/zed_34850673_right_1748249370.357.jpg,34850673,right,1748249370.357,/home/najo/NAS/DIP/datasets/Fr5_intertek_dataset/Fr5_intertek_7th_250526/joint/joint_34850673_1748249370.357.json,1748249370.357,0.0,20.81158628558168,-73.92167195235149,82.47273360148515,-98.55693552753714,-90.00021755105197,110.8115862855817
/home/najo/NAS/DIP/datasets/Fr5_intertek_dataset/Fr5_intertek_7th_250526/right/zed_34850673_left_1748249370.357.jpg,34850673,left,1748249370.357,/home/najo/NAS/DIP/datasets/Fr5_intertek_dataset/Fr5_intertek_7th_250526/joint/joint_34850673_1748249370.357.json,1748249370.357,0.0,20.81158628558168,-73.92167195235149,82.47273360148515,-98.55693552753714,-90.00021755105197,110.8115862855817
/home/najo/NAS/DIP/datasets/Fr5_intertek_dataset/Fr5_intertek_7th_250526/left/zed_38007749_left_1748249370.363.jpg,38007749,left,1748249370.363,/home/najo/NAS/DIP/datasets/Fr5_intertek_dataset/Fr5_intertek_7th_250526/joint/joint_38007749_1748249370.363.json,1748249370.363,0.0,20.81180383663366,-73.9290686881188,82.42291441058168,-98.50428817295793,-90.00021755105197,110.8115862855817
/home/najo/NAS/DIP/datasets/Fr5_intertek_dataset/Fr5_intertek_7th_250526/left/zed_38007749_right_1748249370.363.jpg,38007749,right,1748249370.363,/home/najo/NAS/DIP/datasets/Fr5_intertek_dataset/Fr5_intertek_7th_250526/joint/joint_38007749_1748249370.363.json,1748249370.363,0.0,20.81180383663366,-73.9290686881188,82.42291441058168,-98.50428817295793,-90.00021755105197,110.8115862855817
/home/najo/NAS/DIP/datasets/Fr5_intertek_dataset/Fr5_intertek_7th_250526/top/zed_30779426_right_1748249370.368.jpg,30779426,right,1748249370.368,/home/najo/NAS/DIP/datasets/Fr5_intertek_dataset/Fr5_intertek_7th_250526/joint/joint_30779426_1748249370.368.json,1748249370.368,0.0,20.81158628558168,-73.94299195544555,82.33719929610149,-98.40747795482673,-90.00021755105197,110.8118038366336
/home/najo/NAS/DIP/datasets/Fr5_intertek_dataset/Fr5_intertek_7th_250526/top/zed_30779426_left_1748249370.368.jpg,30779426,left,1748249370.368,/home/najo/NAS/DIP/datasets/Fr5_intertek_dataset/Fr5_intertek_7th_250526/joint/joint_30779426_1748249370.368.json,1748249370.368,0.0,20.81158628558168,-73.94299195544555,82.33719929610149,-98.40747795482673,-90.00021755105197,110.8118038366336
/home/najo/NAS/DIP/datasets/Fr5_intertek_dataset/Fr5_intertek_7th_250526/right/zed_34850673_left_1748249370.496.jpg,34850673,left,1748249370.496,/home/najo/NAS/DIP/datasets/Fr5_intertek_dataset/Fr5_intertek_7th_250526/joint/joint_34850673_1748249370.496.json,1748249370.496,0.0,20.81158628558168,-74.1655466816213,80.7758353960396,-96.6102887144183,-90.0,110.8115862855817
/home/najo/NAS/DIP/datasets/Fr5_intertek_dataset/Fr5_intertek_7th_250526/right/zed_34850673_right_1748249370.496.jpg,34850673,right,1748249370.496,/home/najo/NAS/DIP/datasets/Fr5_intertek_dataset/Fr5_intertek_7th_250526/joint/joint_34850673_1748249370.496.json,1748249370.496,0.0,20.81158628558168,-74.1655466816213,80.7758353960396,-96.6102887144183,-90.0,110.8115862855817
/home/najo/NAS/DIP/datasets/Fr5_intertek_dataset/Fr5_intertek_7th_250526/left/zed_38007749_right_1748249370.500.jpg,38007749,right,1748249370.5,/home/najo/NAS/DIP/datasets/Fr5_intertek_dataset/Fr5_intertek_7th_250526/joint/joint_38007749_1748249370.500.json,1748249370.5,0.0,20.81180383663366,-74.1720732131807,80.72558110303218,-96.55698870668317,-90.00065265315594,110.8115862855817
/home/najo/NAS/DIP/datasets/Fr5_intertek_dataset/Fr5_intertek_7th_250526/left/zed_38007749_left_1748249370.500.jpg,38007749,left,1748249370.5,/home/najo/NAS/DIP/datasets/Fr5_intertek_dataset/Fr5_intertek_7th_250526/joint/joint_38007749_1748249370.500.json,1748249370.5,0.0,20.81180383663366,-74.1720732131807,80.72558110303218,-96.55698870668317,-90.00065265315594,110.8115862855817
/home/najo/NAS/DIP/datasets/Fr5_intertek_dataset/Fr5_intertek_7th_250526/top/zed_30779426_left_1748249370.505.jpg,30779426,left,1748249370.505,/home/najo/NAS/DIP/datasets/Fr5_intertek_dataset/Fr5_intertek_7th_250526/joint/joint_30779426_1748249370.505.json,1748249370.505,0.0,20.8113687345297,-74.1827332147277,80.63682027382426,-96.46387685643565,-89.99978244894803,110.8115862855817
/home/najo/NAS/DIP/datasets/Fr5_intertek_dataset/Fr5_intertek_7th_250526/top/zed_30779426_right_1748249370.505.jpg,30779426,right,1748249370.505,/home/najo/NAS/DIP/datasets/Fr5_intertek_dataset/Fr5_intertek_7th_250526/joint/joint_30779426_1748249370.505.json,1748249370.505,0.0,20.8113687345297,-74.1827332147277,80.63682027382426,-96.46387685643565,-89.99978244894803,110.8115862855817
/home/najo/NAS/DIP/datasets/Fr5_intertek_dataset/Fr5_intertek_7th_250526/right/zed_34850673_left_1748249370.633.jpg,34850673,left,1748249370.633,/home/najo/NAS/DIP/datasets/Fr5_intertek_dataset/Fr5_intertek_7th_250526/joint/joint_34850673_1748249370.633.json,1748249370.633,0.0,20.81180383663366,-74.35133528001238,79.01758779393565,-94.67756516862623,-90.0,110.8115862855817
/home/najo/NAS/DIP/datasets/Fr5_intertek_dataset/Fr5_intertek_7th_250526/right/zed_34850673_right_1748249370.633.jpg,34850673,right,1748249370.633,/home/najo/NAS/DIP/datasets/Fr5_intertek_dataset/Fr5_intertek_7th_250526/joint/joint_34850673_1748249370.633.json,1748249370.633,0.0,20.81180383663366,-74.35133528001238,79.01758779393565,-94.67756516862623,-90.0,110.8115862855817
/home/najo/NAS/DIP/datasets/Fr5_intertek_dataset/Fr5_intertek_7th_250526/left/zed_38007749_left_1748249370.639.jpg,38007749,left,1748249370.639,/home/najo/NAS/DIP/datasets/Fr5_intertek_dataset/Fr5_intertek_7th_250526/joint/joint_38007749_1748249370.639.json,1748249370.639,0.0,20.81158628558168,-74.3619952815594,78.90119798112623,-94.54833984375,-90.00043510210396,110.8115862855817
/home/najo/NAS/DIP/datasets/Fr5_intertek_dataset/Fr5_intertek_7th_250526/left/zed_38007749_right_1748249370.639.jpg,38007749,right,1748249370.639,/home/najo/NAS/DIP/datasets/Fr5_intertek_dataset/Fr5_intertek_7th_250526/joint/joint_38007749_1748249370.639.json,1748249370.639,0.0,20.81158628558168,-74.3619952815594,78.90119798112623,-94.54833984375,-90.00043510210396,110.8115862855817
/home/najo/NAS/DIP/datasets/Fr5_intertek_dataset/Fr5_intertek_7th_250526/top/zed_30779426_right_1748249370.643.jpg,30779426,right,1748249370.643,/home/najo/NAS/DIP/datasets/Fr5_intertek_dataset/Fr5_intertek_7th_250526/joint/joint_30779426_1748249370.643.json,1748249370.643,0.0,20.81180383663366,-74.36569364944307,78.86160368966584,-94.50504718440594,-90.00021755105197,110.8115862855817
/home/najo/NAS/DIP/datasets/Fr5_intertek_dataset/Fr5_intertek_7th_250526/top/zed_30779426_left_1748249370.643.jpg,30779426,left,1748249370.643,/home/najo/NAS/DIP/datasets/Fr5_intertek_dataset/Fr5_intertek_7th_250526/joint/joint_30779426_1748249370.643.json,1748249370.643,0.0,20.81180383663366,-74.36569364944307,78.86160368966584,-94.50504718440594,-90.00021755105197,110.8115862855817
